;FLAVOR:Marlin
;TIME:26077
;Filament used: 23.6473m
;Layer height: 0.28
;MINX:46.699
;MINY:46.7
;MINZ:0.28
;MAXX:188.3
;MAXY:188.3
;MAXZ:24.92
;Generated with Cura_SteamEngine 5.2.1
M140 S60
M105
M190 S60
M104 S200
M105
M109 S200
M82 ;absolute extrusion mode
M201 X500.00 Y500.00 Z100.00 E5000.00 ;Setup machine max acceleration
M203 X500.00 Y500.00 Z10.00 E50.00 ;Setup machine max feedrate
M204 P500.00 R1000.00 T500.00 ;Setup Print/Retract/Travel acceleration
M205 X8.00 Y8.00 Z0.40 E5.00 ;Setup Jerk
M220 S100 ;Reset Feedrate
M221 S100 ;Reset Flowrate

G28 ;Home

G92 E0 ;Reset Extruder
G1 Z2.0 F3000 ;Move Z Axis up
G1 X10.1 Y20 Z0.28 F5000.0 ;Move to start position
G1 X10.1 Y200.0 Z0.28 F1500.0 E15 ;Draw the first line
G1 X10.4 Y200.0 Z0.28 F5000.0 ;Move to side a little
G1 X10.4 Y20 Z0.28 F1500.0 E30 ;Draw the second line
G92 E0 ;Reset Extruder
G1 Z2.0 F3000 ;Move Z Axis up

G92 E0
G92 E0
G1 F1500 E-6.5
;LAYER_COUNT:89
;LAYER:0
M107
;MESH:shld-3x3-tray.stl
G0 F6000 X47.1 Y187.9 Z0.28
;TYPE:WALL-INNER
G1 F1500 E0
G1 F1200 X187.9 Y187.9 E6.55624
G1 X187.9 Y47.1 E13.11248
G1 X47.1 Y47.1 E19.66871
G1 X47.1 Y187.9 E26.22495
G0 F6000 X46.7 Y188.3
;TYPE:WALL-OUTER
G1 F1200 X188.3 Y188.3 E32.81844
G1 X188.3 Y46.7 E39.41193
G1 X46.7 Y46.7 E46.00542
G1 X46.7 Y188.3 E52.59891
G0 F6000 X46.97 Y188.03
G0 X48.76 Y187.6
G0 X48.76 Y187.819
;TYPE:FILL
G1 F1200 X56.172 Y160.156 E53.93245
G0 F6000 X56.068 Y160.156
G0 X56.068 Y158.982
G0 X56.171 Y158.982
G1 F1200 X47.18 Y161.392 E54.36589
G0 F6000 X47.4 Y161.392
G0 X47.4 Y165.694
G0 X47.179 Y165.694
G1 F1200 X56.173 Y174.689 E54.95819
G0 F6000 X56.068 Y174.689
G0 X56.068 Y171.406
G0 X56.172 Y171.406
G1 F1200 X47.18 Y173.815 E55.39166
G0 F6000 X47.4 Y173.815
G0 X47.4 Y182.665
G0 X47.179 Y182.665
G1 F1200 X52.333 Y187.819 E55.73106
G0 F6000 X52.333 Y187.6
G0 X47.4 Y186.238
G0 X47.18 Y186.238
G1 F1200 X56.172 Y183.829 E56.16453
G0 F6000 X56.068 Y183.829
G0 X56.068 Y157.718
G0 X56.173 Y157.718
G1 F1200 X47.179 Y148.724 E56.7568
G0 F6000 X47.18 Y148.968
G1 F1200 X56.171 Y146.559 E57.19023
G0 F6000 X56.068 Y146.559
G0 X56.068 Y140.746
G0 X56.171 Y140.746
G1 F1200 X47.179 Y131.753 E57.7824
G0 F6000 X47.4 Y131.753
G0 X47.4 Y136.545
G0 X47.18 Y136.545
G1 F1200 X56.171 Y134.136 E58.21582
G0 F6000 X56.068 Y134.136
G0 X56.068 Y123.774
G0 X56.171 Y123.774
G1 F1200 X47.179 Y114.783 E58.80793
G0 F6000 X47.4 Y114.783
G0 X47.4 Y111.698
G0 X47.18 Y111.698
G1 F1200 X56.169 Y109.29 E59.24125
G0 F6000 X56.068 Y109.29
G0 X56.068 Y106.803
G0 X56.17 Y106.803
G1 F1200 X47.179 Y97.812 E59.83333
G0 F6000 X47.4 Y97.812
G0 X47.4 Y99.275
G0 X47.18 Y99.275
G1 F1200 X56.168 Y96.867 E60.26661
G0 F6000 X56.068 Y96.867
G0 X56.068 Y89.832
G0 X56.169 Y89.832
G1 F1200 X47.179 Y80.842 E60.85861
G0 F6000 X47.4 Y80.842
G0 X47.4 Y86.852
G0 X47.18 Y86.852
G1 F1200 X56.168 Y84.443 E61.2919
G0 F6000 X56.068 Y84.443
G0 X56.068 Y72.86
G0 X56.169 Y72.86
G1 F1200 X47.179 Y63.871 E61.88388
G0 F6000 X47.4 Y63.871
G0 X47.4 Y62.005
G0 X47.179 Y62.005
G1 F1200 X56.166 Y59.597 E62.31711
G0 F6000 X56.068 Y59.597
G0 X56.068 Y55.889
G0 X56.168 Y55.889
G1 F1200 X47.458 Y47.18 E62.89065
G0 F6000 X47.458 Y47.4
G0 X49.174 Y47.4
G0 X49.174 Y47.178
G1 F1200 X47.179 Y54.624 E63.24959
G0 F6000 X47.4 Y54.624
G0 X47.4 Y49.582
G0 X47.18 Y49.582
G1 F1200 X56.149 Y47.179 E63.68196
G0 F6000 X56.149 Y47.4
G0 X56.068 Y67.442
G0 X56.168 Y67.442
G1 F1200 X47.179 Y100.989 E65.29915
G0 F6000 X47.4 Y100.989
G0 X56.068 Y113.799
G0 X56.17 Y113.799
G1 F1200 X47.179 Y147.353 E66.91668
G0 F6000 X47.4 Y147.353
G0 X47.4 Y124.122
G0 X47.179 Y124.122
G1 F1200 X56.169 Y121.713 E67.35006
G1 F1500 E60.85006
G0 F6000 X56.068 Y121.713
G0 X55.791 Y187.666
G0 X56.225 Y187.733
G0 X85.326 Y187.72
G0 X85.734 Y187.674
G0 X85.466 Y119.025
G1 F1500 E67.35006
G0 F6000 X85.362 Y119.025
G1 F1200 X102.904 Y136.567 E68.50524
G0 F6000 X102.801 Y136.567
G0 X102.801 Y134.037
G0 X102.902 Y134.037
G1 F1200 X85.363 Y138.737 E69.35074
G0 F6000 X85.466 Y138.737
G0 X85.466 Y135.996
G0 X85.363 Y135.996
G1 F1200 X102.905 Y153.538 E70.50591
G0 F6000 X102.801 Y153.538
G0 X102.801 Y158.884
G0 X102.904 Y158.884
G1 F1200 X85.365 Y163.583 E71.3514
G0 F6000 X85.466 Y163.583
G0 X85.466 Y169.938
G0 X85.364 Y169.938
G1 F1200 X102.906 Y187.48 E72.50657
G0 F6000 X102.801 Y187.48
G0 X102.801 Y183.73
G0 X102.905 Y183.73
G1 F1200 X87.642 Y187.82 E73.24236
G0 F6000 X87.642 Y187.6
G0 X86.274 Y187.6
G0 X86.274 Y187.818
G1 F1200 X85.365 Y186.91 E73.30218
G0 F6000 X85.466 Y186.91
G0 X86.03 Y187.6
G0 X86.03 Y187.82
G1 F1200 X102.904 Y124.844 E76.33805
G0 F6000 X102.801 Y124.844
G0 X102.801 Y121.614
G0 X102.902 Y121.614
G1 F1200 X85.363 Y126.314 E77.18355
G0 F6000 X85.466 Y126.314
G0 X85.466 Y113.891
G0 X85.362 Y113.891
G1 F1200 X102.902 Y109.191 E78.0291
G0 F6000 X102.801 Y109.191
G0 X102.801 Y102.624
G0 X102.903 Y102.624
G1 F1200 X85.361 Y85.082 E79.18427
G0 F6000 X85.466 Y85.082
G0 X85.466 Y89.044
G0 X85.362 Y89.044
G1 F1200 X102.901 Y84.345 E80.02977
G0 F6000 X102.801 Y84.345
G0 X102.801 Y85.653
G0 X102.902 Y85.653
G1 F1200 X85.36 Y68.111 E81.18494
G0 F6000 X85.466 Y68.111
G0 X85.466 Y64.198
G0 X85.36 Y64.198
G1 F1200 X102.9 Y59.498 E82.03049
G0 F6000 X102.801 Y59.498
G0 X102.801 Y51.71
G0 X102.901 Y51.71
G1 F1200 X98.37 Y47.18 E82.32883
G0 F6000 X98.868 Y47.178
G1 F1200 X85.361 Y97.584 E84.75875
G0 F6000 X85.466 Y97.584
G0 X85.466 Y101.467
G0 X85.362 Y101.467
G1 F1200 X102.901 Y96.768 E85.60424
G0 F6000 X102.801 Y96.768
G0 X102.801 Y78.487
G0 X102.902 Y78.487
G1 F1200 X85.363 Y143.941 E88.75958
G0 F6000 X85.466 Y143.941
G0 X85.466 Y151.16
G0 X85.364 Y151.16
G1 F1200 X102.904 Y146.46 E89.60513
G0 F6000 X102.801 Y146.46
G0 X85.466 Y152.967
G0 X85.364 Y152.967
G1 F1200 X102.905 Y170.509 E90.76026
G0 F6000 X102.906 Y171.2
G1 F1200 X98.453 Y187.819 E91.56141
G0 F6000 X98.453 Y187.6
G0 X102.801 Y171.307
G0 X102.905 Y171.307
G1 F1200 X85.365 Y176.007 E92.40696
G1 F1500 E85.90696
G0 F6000 X85.466 Y176.007
G0 X102.958 Y187.733
G0 X132.059 Y187.72
G0 X132.467 Y187.674
G0 X132.199 Y175.908
G1 F1500 E92.40696
G0 F6000 X132.098 Y175.908
G1 F1200 X149.637 Y171.208 E93.25247
G0 F6000 X149.534 Y171.208
G0 X149.534 Y166.331
G0 X149.639 Y166.331
G1 F1200 X132.096 Y148.788 E94.4077
G0 F6000 X132.199 Y148.788
G0 X132.199 Y151.061
G0 X132.097 Y151.061
G1 F1200 X149.637 Y146.362 E95.25324
G0 F6000 X149.534 Y146.362
G0 X149.534 Y149.36
G0 X149.638 Y149.36
G1 F1200 X132.096 Y131.817 E96.40844
G0 F6000 X132.199 Y131.817
G0 X132.199 Y126.215
G0 X132.096 Y126.215
G1 F1200 X149.636 Y121.515 E97.25399
G0 F6000 X149.534 Y121.515
G0 X149.534 Y115.416
G0 X149.636 Y115.416
G1 F1200 X132.094 Y97.874 E98.40916
G0 F6000 X132.199 Y97.874
G0 X132.199 Y101.369
G0 X132.095 Y101.369
G1 F1200 X149.635 Y96.669 E99.25471
G0 F6000 X149.534 Y96.669
G0 X149.534 Y98.445
G0 X149.635 Y98.445
G1 F1200 X132.093 Y80.903 E100.40988
G0 F6000 X132.199 Y80.903
G0 X132.199 Y76.522
G0 X132.094 Y76.522
G1 F1200 X149.633 Y71.823 E101.25537
G0 F6000 X149.534 Y71.823
G0 X149.534 Y64.502
G0 X149.634 Y64.502
G1 F1200 X132.311 Y47.18 E102.39609
G0 F6000 X132.311 Y47.4
G0 X136.137 Y47.4
G0 X136.137 Y47.179
G1 F1200 X132.092 Y62.275 E103.12382
G0 F6000 X132.199 Y62.275
G0 X132.199 Y63.932
G0 X132.093 Y63.932
G1 F1200 X149.635 Y81.474 E104.27899
G0 F6000 X149.534 Y81.474
G0 X149.534 Y84.246
G0 X149.635 Y84.246
G1 F1200 X132.094 Y88.946 E105.12459
G0 F6000 X132.199 Y88.946
G0 X149.534 Y89.535
G0 X149.635 Y89.535
G1 F1200 X132.097 Y154.986 E108.27977
G0 F6000 X132.199 Y154.986
G0 X132.199 Y163.485
G0 X132.098 Y163.485
G1 F1200 X149.637 Y158.785 E109.12528
G0 F6000 X149.534 Y158.785
G0 X132.199 Y165.759
G0 X132.097 Y165.759
G1 F1200 X149.64 Y183.302 E110.28052
G0 F6000 X149.638 Y183.631
G1 F1200 X134.009 Y187.819 E111.03394
G0 F6000 X134.009 Y187.6
G0 X135.723 Y187.6
G0 X135.723 Y187.819
G1 F1200 X149.637 Y135.892 E113.53718
G0 F6000 X149.534 Y135.892
G0 X149.534 Y133.939
G0 X149.636 Y133.939
G1 F1200 X132.096 Y138.638 E114.38272
G0 F6000 X132.199 Y138.638
G0 X149.534 Y132.388
G0 X149.637 Y132.388
G1 F1200 X132.095 Y114.846 E115.53789
G0 F6000 X132.199 Y114.846
G0 X132.199 Y113.792
G0 X132.095 Y113.792
G1 F1200 X149.635 Y109.092 E116.38344
G0 F6000 X149.534 Y109.092
G0 X132.199 Y108.631
G0 X132.095 Y108.631
G1 F1200 X148.561 Y47.179 E119.34584
G0 F6000 X148.876 Y47.179
G1 F1200 X132.093 Y51.676 E120.15489
G0 F6000 X132.199 Y51.676
G0 X132.199 Y64.099
G0 X132.094 Y64.099
G1 F1200 X149.633 Y59.4 E121.00039
G0 F6000 X149.534 Y59.4
G0 X149.534 Y47.531
G0 X149.633 Y47.531
G1 F1200 X149.282 Y47.18 E121.0235
G1 F1500 E114.5235
G0 F6000 X149.282 Y47.4
G0 X149.675 Y47.28
G0 X178.775 Y47.267
G0 X179.228 Y47.412
G0 X178.932 Y51.577
G1 F1500 E121.0235
G0 F6000 X178.825 Y51.577
G1 F1200 X187.819 Y49.168 E121.45706
G0 F6000 X187.6 Y49.168
G0 X187.6 Y51.776
G0 X187.819 Y51.776
G1 F1200 X183.223 Y47.18 E121.75972
G0 F6000 X183.223 Y47.4
G0 X185.831 Y47.4
G0 X185.831 Y47.179
G1 F1200 X178.826 Y73.32 E123.0199
G0 F6000 X178.932 Y73.32
G0 X178.932 Y76.424
G0 X178.826 Y76.424
G1 F1200 X187.819 Y74.014 E123.45342
G0 F6000 X187.6 Y74.014
G0 X187.6 Y68.747
G0 X187.819 Y68.747
G1 F1200 X178.825 Y59.752 E124.04573
G0 F6000 X178.932 Y59.752
G0 X178.932 Y64.001
G0 X178.826 Y64.001
G1 F1200 X187.818 Y61.591 E124.47921
G0 F6000 X187.6 Y61.591
G0 X178.932 Y76.723
G0 X178.825 Y76.723
G1 F1200 X187.819 Y85.717 E125.07148
G0 F6000 X187.819 Y86.122
G1 F1200 X178.828 Y119.677 E126.68906
G0 F6000 X178.932 Y119.677
G0 X178.932 Y113.693
G0 X178.828 Y113.693
G1 F1200 X187.819 Y111.284 E127.12248
G0 F6000 X187.6 Y111.284
G0 X187.6 Y119.658
G0 X187.819 Y119.658
G1 F1200 X178.828 Y110.667 E127.71456
G0 F6000 X178.932 Y110.667
G0 X178.932 Y101.27
G0 X178.828 Y101.27
G1 F1200 X187.819 Y98.861 E128.14798
G0 F6000 X187.6 Y98.861
G0 X187.6 Y102.688
G0 X187.819 Y102.688
G1 F1200 X178.826 Y93.695 E128.74019
G0 F6000 X178.932 Y93.695
G0 X178.932 Y88.847
G0 X178.827 Y88.847
G1 F1200 X187.818 Y86.438 E129.17361
G1 F1500 E122.67361
G0 F6000 X187.6 Y86.438
G0 X187.6 Y123.708
G1 F1500 E129.17361
G0 F6000 X187.818 Y123.708
G1 F1200 X178.828 Y126.116 E129.60698
G0 F6000 X178.932 Y126.116
G0 X178.932 Y127.638
G0 X178.828 Y127.638
G1 F1200 X187.819 Y136.629 E130.19905
G0 F6000 X187.819 Y136.131
G1 F1200 X178.83 Y138.539 E130.63238
G0 F6000 X178.932 Y138.539
G0 X178.932 Y144.609
G0 X178.829 Y144.609
G1 F1200 X187.819 Y153.599 E131.22438
G0 F6000 X187.6 Y153.599
G0 X187.6 Y148.554
G0 X187.818 Y148.554
G1 F1200 X178.83 Y150.963 E131.65768
G0 F6000 X178.932 Y150.963
G0 X178.932 Y161.58
G0 X178.83 Y161.58
G1 F1200 X187.819 Y170.57 E132.24965
G0 F6000 X187.6 Y170.57
G0 X187.6 Y173.401
G0 X187.818 Y173.401
G1 F1200 X178.831 Y175.809 E132.68288
G0 F6000 X178.932 Y175.809
G0 X178.932 Y178.552
G0 X178.83 Y178.552
G1 F1200 X187.819 Y187.54 E133.27479
G0 F6000 X187.6 Y187.54
G0 X187.6 Y185.824
G0 X187.818 Y185.824
G1 F1200 X180.374 Y187.819 E133.63365
G0 F6000 X180.374 Y187.6
G0 X185.416 Y187.6
G0 X185.416 Y187.82
G1 F1200 X187.819 Y178.851 E134.06601
G0 F6000 X187.6 Y178.851
G0 X178.932 Y166.034
G0 X178.83 Y166.034
G1 F1200 X187.819 Y132.487 E135.68321
G0 F6000 X187.6 Y132.487
G0 X187.6 Y160.978
G0 X187.818 Y160.978
G1 F1200 X178.831 Y163.386 E136.11644
G1 F1500 E129.61644
G0 F6000 X178.932 Y163.386
G0 X178.837 Y187.636
G0 X149.691 Y187.733
G0 X149.238 Y187.588
G0 X149.534 Y182.249
G1 F1500 E136.11644
G0 F6000 X149.639 Y182.249
G1 F1200 X148.146 Y187.819 E136.38496
G0 F6000 X148.146 Y187.6
G0 X137.185 Y187.6
G0 X137.185 Y187.818
G1 F1200 X132.098 Y182.731 E136.71995
G1 F1500 E130.21995
G0 F6000 X132.199 Y182.731
G0 X132.104 Y187.636
G0 X102.958 Y187.733
G0 X102.505 Y187.588
G0 X102.801 Y119.595
G1 F1500 E136.71995
G0 F6000 X102.903 Y119.595
G1 F1200 X85.361 Y102.053 E137.87512
G0 F6000 X85.466 Y102.053
G0 X85.466 Y76.621
G0 X85.361 Y76.621
G1 F1200 X102.901 Y71.921 E138.72067
G0 F6000 X102.801 Y71.921
G0 X102.801 Y68.681
G0 X102.901 Y68.681
G1 F1200 X85.359 Y51.14 E139.8758
G1 X85.359 Y51.227
G1 X86.444 Y47.179 E140.07095
G0 F6000 X86.444 Y47.4
G0 X85.466 Y51.775
G0 X85.36 Y51.775
G1 F1200 X102.511 Y47.179 E140.89775
G1 F1500 E134.39775
G0 F6000 X102.511 Y47.4
G0 X85.309 Y47.267
G0 X56.209 Y47.28
G0 X55.8 Y47.324
G0 X56.068 Y72.02
G1 F1500 E140.89775
G0 F6000 X56.168 Y72.02
G1 F1200 X47.18 Y74.428 E141.33103
G1 F1500 E134.83103
G0 F6000 X47.4 Y74.428
G0 X55.791 Y187.666
G0 X56.225 Y187.733
G0 X85.326 Y187.72
G1 F1500 E141.33103
G0 F6000 X85.3 Y187.54
;TYPE:SKIN
G1 F1200 X85.326 Y187.467 E141.33463
G1 X85.32 Y47.46 E147.85395
G1 X56.233 Y47.46 E149.20836
G1 X56.208 Y47.531 E149.21186
G1 X56.214 Y187.54 E155.73127
G1 X85.3 Y187.54 E157.08564
G1 F1500 E150.58564
G0 F6000 X85.448 Y187.575
G0 X56.225 Y187.733
G0 X56.068 Y187.338
G1 F1500 E157.08564
G0 F6000 X56.665 Y187.338
G1 F1200 X56.407 Y187.08 E157.10263
G0 F6000 X56.407 Y186.514
G1 F1200 X57.231 Y187.338 E157.15689
G0 F6000 X57.796 Y187.338
G1 F1200 X56.407 Y185.949 E157.24836
G0 F6000 X56.407 Y185.383
G1 F1200 X58.362 Y187.338 E157.3771
G0 F6000 X58.928 Y187.338
G1 F1200 X56.407 Y184.817 E157.54311
G0 F6000 X56.407 Y184.252
G1 F1200 X59.493 Y187.338 E157.74633
G0 F6000 X60.059 Y187.338
G1 F1200 X56.407 Y183.686 E157.98682
G0 F6000 X56.407 Y183.12
G1 F1200 X60.625 Y187.338 E158.26458
G0 F6000 X61.19 Y187.338
G1 F1200 X56.407 Y182.555 E158.57955
G0 F6000 X56.407 Y181.989
G1 F1200 X61.756 Y187.338 E158.93179
G0 F6000 X62.322 Y187.338
G1 F1200 X56.407 Y181.423 E159.3213
G0 F6000 X56.407 Y180.858
G1 F1200 X62.887 Y187.338 E159.74802
G0 F6000 X63.453 Y187.338
G1 F1200 X56.407 Y180.292 E160.21201
G0 F6000 X56.407 Y179.726
G1 F1200 X64.019 Y187.338 E160.71328
G0 F6000 X64.585 Y187.338
G1 F1200 X56.407 Y179.161 E161.25178
G0 F6000 X56.407 Y178.595
G1 F1200 X65.15 Y187.338 E161.82752
G0 F6000 X65.716 Y187.338
G1 F1200 X56.407 Y178.029 E162.44053
G0 F6000 X56.407 Y177.464
G1 F1200 X66.282 Y187.338 E163.09079
G0 F6000 X66.847 Y187.338
G1 F1200 X56.407 Y176.898 E163.77828
G0 F6000 X56.407 Y176.332
G1 F1200 X67.413 Y187.338 E164.50304
G0 F6000 X67.979 Y187.338
G1 F1200 X56.407 Y175.766 E165.26508
G0 F6000 X56.407 Y175.201
G1 F1200 X68.544 Y187.338 E166.06432
G0 F6000 X69.11 Y187.338
G1 F1200 X56.407 Y174.635 E166.90083
G0 F6000 X56.407 Y174.069
G1 F1200 X69.676 Y187.338 E167.77462
G0 F6000 X70.241 Y187.338
G1 F1200 X56.407 Y173.504 E168.68561
G0 F6000 X56.407 Y172.938
G1 F1200 X70.807 Y187.338 E169.63388
G0 F6000 X71.373 Y187.338
G1 F1200 X56.407 Y172.372 E170.61941
G0 F6000 X56.407 Y171.807
G1 F1200 X71.938 Y187.338 E171.64216
G0 F6000 X72.504 Y187.338
G1 F1200 X56.407 Y171.241 E172.70217
G0 F6000 X56.407 Y170.675
G1 F1200 X73.07 Y187.338 E173.79946
G0 F6000 X73.635 Y187.338
G1 F1200 X56.407 Y170.11 E174.93395
G0 F6000 X56.407 Y169.544
G1 F1200 X74.201 Y187.338 E176.10572
G0 F6000 X74.767 Y187.338
G1 F1200 X56.407 Y168.978 E177.31475
G0 F6000 X56.407 Y168.413
G1 F1200 X75.333 Y187.338 E178.56103
G0 F6000 X75.898 Y187.338
G1 F1200 X56.407 Y167.847 E179.84455
G0 F6000 X56.407 Y167.281
G1 F1200 X76.464 Y187.338 E181.16533
G0 F6000 X77.03 Y187.338
G1 F1200 X56.407 Y166.715 E182.52339
G0 F6000 X56.407 Y166.15
G1 F1200 X77.595 Y187.338 E183.91866
G0 F6000 X78.161 Y187.338
G1 F1200 X56.407 Y165.584 E185.3512
G0 F6000 X56.407 Y165.018
G1 F1200 X78.727 Y187.338 E186.82101
G0 F6000 X79.292 Y187.338
G1 F1200 X56.407 Y164.453 E188.32802
G0 F6000 X56.407 Y163.887
G1 F1200 X79.858 Y187.338 E189.87231
G0 F6000 X80.424 Y187.338
G1 F1200 X56.407 Y163.321 E191.45387
G0 F6000 X56.407 Y162.756
G1 F1200 X80.989 Y187.338 E193.07264
G0 F6000 X81.555 Y187.338
G1 F1200 X56.407 Y162.19 E194.72868
G0 F6000 X56.407 Y161.624
G1 F1200 X82.121 Y187.338 E196.42199
G0 F6000 X82.686 Y187.338
G1 F1200 X56.407 Y161.059 E198.15251
G0 F6000 X56.407 Y160.493
G1 F1200 X83.252 Y187.338 E199.9203
G0 F6000 X83.818 Y187.338
G1 F1200 X56.407 Y159.927 E201.72536
G0 F6000 X56.407 Y159.362
G1 F1200 X84.384 Y187.338 E203.56766
G0 F6000 X84.949 Y187.338
G1 F1200 X56.407 Y158.796 E205.4472
G0 F6000 X56.407 Y158.23
G1 F1200 X85.125 Y186.949 E207.33836
G0 F6000 X85.125 Y186.383
G1 F1200 X56.407 Y157.665 E209.22949
G0 F6000 X56.407 Y157.099
