;FLAVOR:Marlin
;TIME:21842
;Filament used: 20.1627m
;Layer height: 0.28
;MINX:46.7
;MINY:46.7
;MINZ:0.28
;MAXX:188.3
;MAXY:188.3
;MAXZ:24.92
;Generated with Cura_SteamEngine 5.2.1
M140 S60
M105
M190 S60
M104 S200
M105
M109 S200
M82 ;absolute extrusion mode
M201 X500.00 Y500.00 Z100.00 E5000.00 ;Setup machine max acceleration
M203 X500.00 Y500.00 Z10.00 E50.00 ;Setup machine max feedrate
M204 P500.00 R1000.00 T500.00 ;Setup Print/Retract/Travel acceleration
M205 X8.00 Y8.00 Z0.40 E5.00 ;Setup Jerk
M220 S100 ;Reset Feedrate
M221 S100 ;Reset Flowrate

G28 ;Home

G92 E0 ;Reset Extruder
G1 Z2.0 F3000 ;Move Z Axis up
G1 X10.1 Y20 Z0.28 F5000.0 ;Move to start position
G1 X10.1 Y200.0 Z0.28 F1500.0 E15 ;Draw the first line
G1 X10.4 Y200.0 Z0.28 F5000.0 ;Move to side a little
G1 X10.4 Y20 Z0.28 F1500.0 E30 ;Draw the second line
G92 E0 ;Reset Extruder
G1 Z2.0 F3000 ;Move Z Axis up

G92 E0
G92 E0
G1 F1500 E-6.5
;LAYER_COUNT:89
;LAYER:0
M107
;MESH:shld-2x2-tray.stl
G0 F6000 X47.1 Y187.9 Z0.28
;TYPE:WALL-INNER
G1 F1500 E0
G1 F1200 X187.9 Y187.9 E6.55624
G1 X187.9 Y47.1 E13.11248
G1 X47.1 Y47.1 E19.66871
G1 X47.1 Y187.9 E26.22495
G0 F6000 X46.7 Y188.3
;TYPE:WALL-OUTER
G1 F1200 X188.3 Y188.3 E32.81844
G1 X188.3 Y46.7 E39.41193
G1 X46.7 Y46.7 E46.00542
G1 X46.7 Y188.3 E52.59891
G0 F6000 X46.97 Y188.03
G0 X48.76 Y187.6
G0 X48.76 Y187.819
;TYPE:FILL
G1 F1200 X56.067 Y160.548 E53.91355
G0 F6000 X55.968 Y160.548
G0 X55.968 Y159.011
G0 X56.066 Y159.011
G1 F1200 X47.18 Y161.392 E54.34192
G0 F6000 X47.4 Y161.392
G0 X47.4 Y165.694
G0 X47.179 Y165.694
G1 F1200 X56.067 Y174.583 E54.92724
G0 F6000 X55.968 Y174.583
G0 X55.968 Y171.434
G0 X56.066 Y171.434
G1 F1200 X47.18 Y173.815 E55.35561
G0 F6000 X47.4 Y173.815
G0 X47.4 Y182.665
G0 X47.179 Y182.665
G1 F1200 X52.332 Y187.818 E55.69494
G0 F6000 X52.332 Y187.6
G0 X47.4 Y186.238
G0 X47.18 Y186.238
G1 F1200 X56.067 Y183.857 E56.12335
G0 F6000 X55.968 Y183.857
G0 X55.968 Y157.612
G0 X56.067 Y157.612
G1 F1200 X47.179 Y148.724 E56.70864
G0 F6000 X47.18 Y148.968
G1 F1200 X56.067 Y146.587 E57.13705
G0 F6000 X55.968 Y146.587
G0 X55.968 Y140.642
G0 X56.067 Y140.642
G1 F1200 X47.179 Y131.753 E57.72237
G0 F6000 X47.4 Y131.753
G0 X47.4 Y136.545
G0 X47.18 Y136.545
G1 F1200 X56.066 Y134.164 E58.15074
G0 F6000 X55.968 Y134.164
G0 X55.968 Y123.671
G0 X56.067 Y123.671
G1 F1200 X47.179 Y114.783 E58.73603
G0 F6000 X47.4 Y114.783
G0 X47.4 Y111.698
G0 X47.18 Y111.698
G1 F1200 X56.066 Y109.317 E59.1644
G0 F6000 X55.968 Y109.317
G0 X55.968 Y106.7
G0 X56.067 Y106.7
G1 F1200 X47.179 Y97.812 E59.74969
G0 F6000 X47.4 Y97.812
G0 X47.4 Y99.275
G0 X47.18 Y99.275
G1 F1200 X56.067 Y96.894 E60.1781
G0 F6000 X55.968 Y96.894
G0 X55.968 Y89.73
G0 X56.067 Y89.73
G1 F1200 X47.179 Y80.842 E60.76339
G0 F6000 X47.4 Y80.842
G0 X47.4 Y86.852
G0 X47.18 Y86.852
G1 F1200 X56.067 Y84.471 E61.1918
G0 F6000 X55.968 Y84.471
G0 X55.968 Y72.759
G0 X56.067 Y72.759
G1 F1200 X47.179 Y63.871 E61.77709
G0 F6000 X47.4 Y63.871
G0 X47.4 Y62.005
G0 X47.179 Y62.005
G1 F1200 X56.067 Y59.624 E62.20554
G0 F6000 X55.968 Y59.624
G0 X55.968 Y55.789
G0 X56.067 Y55.789
G1 F1200 X47.458 Y47.18 E62.77246
G0 F6000 X47.458 Y47.4
G0 X49.174 Y47.4
G0 X49.174 Y47.178
G1 F1200 X47.179 Y54.624 E63.13141
G0 F6000 X47.4 Y54.624
G0 X47.4 Y49.582
G0 X47.18 Y49.582
G1 F1200 X56.119 Y47.187 E63.56232
G0 F6000 X56.016 Y47.361
G0 X55.968 Y67.82
G0 X56.067 Y67.82
G1 F1200 X47.179 Y100.989 E65.1613
G0 F6000 X47.4 Y100.989
G0 X55.968 Y114.184
G0 X56.067 Y114.184
G1 F1200 X47.179 Y147.353 E66.76028
G0 F6000 X47.4 Y147.353
G0 X47.4 Y124.122
G0 X47.179 Y124.122
G1 F1200 X56.067 Y121.74 E67.18874
G1 F1500 E60.68874
G0 F6000 X55.968 Y121.74
G0 X47.4 Y74.428
G1 F1500 E67.18874
G0 F6000 X47.18 Y74.428
G1 F1200 X56.066 Y72.047 E67.61711
G1 F1500 E61.11711
G0 F6000 X55.968 Y72.047
G0 X55.671 Y47.368
G0 X56.069 Y47.269
G0 X108.724 Y47.267
G0 X108.832 Y70.359
G1 F1500 E67.61711
G0 F6000 X108.732 Y70.359
G1 F1200 X126.267 Y65.66 E68.46242
G0 F6000 X126.168 Y65.66
G0 X126.168 Y58.107
G0 X126.268 Y58.107
G1 F1200 X115.341 Y47.18 E69.18198
G0 F6000 X115.341 Y47.4
G0 X111.291 Y47.4
G0 X111.291 Y47.178
G1 F1200 X108.731 Y56.731 E69.64251
G0 F6000 X108.731 Y57.541
G1 F1200 X126.268 Y75.077 E70.79731
G0 F6000 X126.168 Y75.077
G0 X126.168 Y78.084
G0 X126.267 Y78.084
G1 F1200 X108.731 Y82.782 E71.64266
G0 F6000 X108.832 Y82.782
G0 X108.832 Y74.512
G0 X108.731 Y74.512
G1 F1200 X126.268 Y92.048 E72.79747
G0 F6000 X126.168 Y92.048
G0 X126.168 Y90.507
G0 X126.267 Y90.507
G1 F1200 X108.732 Y95.206 E73.64278
G0 F6000 X108.832 Y95.206
G0 X108.832 Y91.482
G0 X108.731 Y91.482
G1 F1200 X126.268 Y109.018 E74.79759
G0 F6000 X126.168 Y109.018
G0 X126.168 Y102.93
G0 X126.266 Y102.93
G1 F1200 X108.731 Y107.629 E75.6429
G0 F6000 X108.731 Y108.453
G1 F1200 X126.268 Y125.989 E76.79771
G0 F6000 X126.168 Y125.989
G0 X126.168 Y127.777
G0 X126.266 Y127.777
G1 F1200 X108.732 Y132.476 E77.64298
G0 F6000 X108.832 Y132.476
G0 X108.832 Y125.423
G0 X108.731 Y125.423
G1 F1200 X126.268 Y142.96 E78.79782
G0 F6000 X126.168 Y142.96
G0 X126.168 Y140.2
G0 X126.267 Y140.2
G1 F1200 X108.731 Y144.899 E79.64318
G0 F6000 X108.832 Y144.899
G0 X108.832 Y142.394
G0 X108.731 Y142.394
G1 F1200 X126.268 Y159.93 E80.79798
G0 F6000 X126.168 Y159.93
G0 X126.168 Y165.047
G0 X126.266 Y165.047
G1 F1200 X108.732 Y169.745 E81.64324
G0 F6000 X108.832 Y169.745
G0 X108.832 Y176.335
G0 X108.731 Y176.335
G1 F1200 X120.215 Y187.818 E82.39945
G0 F6000 X120.215 Y187.6
G0 X123.299 Y187.6
G0 X123.299 Y187.82
G1 F1200 X126.267 Y176.744 E82.93339
G1 X126.268 Y176.901
G1 X108.731 Y159.364 E84.08823
G0 F6000 X108.832 Y159.364
G0 X108.832 Y157.322
G0 X108.732 Y157.322
G1 F1200 X126.266 Y152.624 E84.93349
G0 F6000 X126.168 Y152.624
G0 X108.832 Y149.461
G0 X108.731 Y149.461
G1 F1200 X126.267 Y84.017 E88.08833
G0 F6000 X126.168 Y84.017
G0 X108.832 Y103.096
G0 X108.731 Y103.096
G1 F1200 X123.714 Y47.178 E90.78396
G0 F6000 X123.714 Y47.4
G0 X126.168 Y53.237
G0 X126.267 Y53.237
G1 F1200 X108.731 Y57.936 E91.62932
G1 F1500 E85.12932
G0 F6000 X108.832 Y57.936
G0 X126.168 Y115.354
G1 F1500 E91.62932
G0 F6000 X126.267 Y115.354
G1 F1200 X108.731 Y120.052 E92.47466
G0 F6000 X108.832 Y120.052
G0 X126.168 Y130.381
G0 X126.267 Y130.381
G1 F1200 X110.876 Y187.819 E95.24357
G0 F6000 X110.876 Y187.6
G0 X108.832 Y182.169
G0 X108.731 Y182.169
G1 F1200 X126.267 Y177.47 E96.08893
G1 F1500 E89.58893
G0 F6000 X126.168 Y177.47
G0 X126.237 Y187.666
G0 X178.931 Y187.731
G0 X179.032 Y178.652
G1 F1500 E96.08893
G0 F6000 X178.931 Y178.652
G1 F1200 X187.819 Y187.54 E96.67422
G0 F6000 X187.6 Y187.54
G0 X187.6 Y185.824
G0 X187.818 Y185.824
G1 F1200 X180.372 Y187.819 E97.03316
G0 F6000 X180.372 Y187.6
G0 X185.416 Y187.6
G0 X185.416 Y187.82
G1 F1200 X187.819 Y178.851 E97.46553
G0 F6000 X187.6 Y178.851
G0 X187.6 Y173.401
G0 X187.818 Y173.401
G1 F1200 X178.931 Y175.782 E97.89394
G0 F6000 X179.032 Y175.782
G0 X179.032 Y165.658
G0 X178.931 Y165.658
G1 F1200 X187.819 Y132.487 E99.493
G0 F6000 X187.6 Y132.487
G0 X187.6 Y136.131
G0 X187.819 Y136.131
G1 F1200 X178.931 Y138.512 E99.92146
G0 F6000 X179.032 Y138.512
G0 X179.032 Y144.711
G0 X178.931 Y144.711
G1 F1200 X187.819 Y153.599 E100.50675
G0 F6000 X187.6 Y153.599
G0 X187.6 Y148.554
G0 X187.818 Y148.554
G1 F1200 X178.932 Y150.935 E100.93512
G0 F6000 X179.032 Y150.935
G0 X179.032 Y161.682
G0 X178.931 Y161.682
G1 F1200 X187.819 Y170.57 E101.52041
G0 F6000 X187.6 Y170.57
G0 X187.6 Y160.978
G0 X187.818 Y160.978
G1 F1200 X178.932 Y163.359 E101.94877
G0 F6000 X179.032 Y163.359
G0 X187.6 Y136.629
G0 X187.819 Y136.629
G1 F1200 X178.931 Y127.74 E102.53409
G0 F6000 X179.032 Y127.74
G0 X179.032 Y126.089
G0 X178.932 Y126.089
G1 F1200 X187.818 Y123.708 E102.96246
G0 F6000 X187.6 Y123.708
G0 X187.6 Y119.658
G0 X187.819 Y119.658
G1 F1200 X178.931 Y110.77 E103.54775
G0 F6000 X179.032 Y110.77
G0 X179.032 Y113.666
G0 X178.931 Y113.666
G1 F1200 X187.819 Y111.284 E103.97622
G0 F6000 X187.6 Y111.284
G0 X187.6 Y102.688
G0 X187.819 Y102.688
G1 F1200 X178.931 Y93.799 E104.56154
G0 F6000 X179.032 Y93.799
G0 X179.032 Y88.819
G0 X178.932 Y88.819
G1 F1200 X187.818 Y86.438 E104.98991
G0 F6000 X187.819 Y86.122
G1 F1200 X178.931 Y119.293 E106.58897
G0 F6000 X179.032 Y119.293
G0 X179.032 Y101.242
G0 X178.931 Y101.242
G1 F1200 X187.819 Y98.861 E107.01743
G0 F6000 X187.6 Y98.861
G0 X187.6 Y85.717
G0 X187.819 Y85.717
G1 F1200 X178.931 Y76.829 E107.60272
G0 F6000 X178.931 Y76.396
G1 F1200 X187.819 Y74.014 E108.03119
G0 F6000 X187.6 Y74.014
G0 X187.6 Y68.747
G0 X187.819 Y68.747
G1 F1200 X178.931 Y59.858 E108.61651
G0 F6000 X179.032 Y59.858
G0 X179.032 Y63.972
G0 X178.932 Y63.972
G1 F1200 X187.818 Y61.591 E109.04487
G0 F6000 X187.6 Y61.591
G0 X187.6 Y51.776
G0 X187.819 Y51.776
G1 F1200 X183.223 Y47.18 E109.34753
G0 F6000 X183.223 Y47.4
G0 X185.831 Y47.4
G0 X185.831 Y47.179
G1 F1200 X178.931 Y72.928 E110.58881
G0 F6000 X179.032 Y72.928
G0 X179.032 Y51.549
G0 X178.931 Y51.549
G1 F1200 X187.819 Y49.168 E111.01727
G1 F1500 E104.51727
G0 F6000 X187.6 Y49.168
G0 X178.931 Y187.731
G0 X126.276 Y187.733
G1 F1500 E111.01727
G0 F6000 X126.308 Y187.54
;TYPE:SKIN
G1 F1200 X178.892 Y187.54 E113.4658
G1 X178.892 Y47.46 E119.98851
G1 X126.308 Y47.46 E122.43704
G1 X126.308 Y187.54 E128.95975
G0 F6000 X126.811 Y187.339
G1 F1200 X126.507 Y187.036 E128.97974
G0 F6000 X126.507 Y186.47
G1 F1200 X127.376 Y187.339 E129.03696
G0 F6000 X127.942 Y187.339
G1 F1200 X126.507 Y185.904 E129.13146
G0 F6000 X126.507 Y185.339
G1 F1200 X128.508 Y187.339 E129.2632
G0 F6000 X129.073 Y187.339
G1 F1200 X126.507 Y184.773 E129.43217
G0 F6000 X126.507 Y184.207
G1 F1200 X129.639 Y187.339 E129.63842
G0 F6000 X130.205 Y187.339
G1 F1200 X126.507 Y183.641 E129.88194
G0 F6000 X126.507 Y183.076
G1 F1200 X130.77 Y187.339 E130.16267
G0 F6000 X131.336 Y187.339
G1 F1200 X126.507 Y182.51 E130.48066
G0 F6000 X126.507 Y181.944
G1 F1200 X131.902 Y187.339 E130.83593
G0 F6000 X132.467 Y187.339
G1 F1200 X126.507 Y181.379 E131.22841
G0 F6000 X126.507 Y180.813
G1 F1200 X133.033 Y187.339 E131.65816
G0 F6000 X133.599 Y187.339
G1 F1200 X126.507 Y180.247 E132.12518
G0 F6000 X126.507 Y179.682
G1 F1200 X134.165 Y187.339 E132.62944
G0 F6000 X134.73 Y187.339
G1 F1200 X126.507 Y179.116 E133.17094
G0 F6000 X126.507 Y178.55
G1 F1200 X135.296 Y187.339 E133.74971
G0 F6000 X135.862 Y187.339
G1 F1200 X126.507 Y177.985 E134.36572
G0 F6000 X126.507 Y177.419
G1 F1200 X136.427 Y187.339 E135.01897
G0 F6000 X136.993 Y187.339
G1 F1200 X126.507 Y176.853 E135.70949
G0 F6000 X126.507 Y176.288
G1 F1200 X137.559 Y187.339 E136.43725
G0 F6000 X138.124 Y187.339
G1 F1200 X126.507 Y175.722 E137.20225
G0 F6000 X126.507 Y175.156
G1 F1200 X138.69 Y187.339 E138.00452
G0 F6000 X139.256 Y187.339
G1 F1200 X126.507 Y174.591 E138.84403
G0 F6000 X126.507 Y174.025
G1 F1200 X139.821 Y187.339 E139.72078
G0 F6000 X140.387 Y187.339
G1 F1200 X126.507 Y173.459 E140.6348
G0 F6000 X126.507 Y172.893
G1 F1200 X140.953 Y187.339 E141.58609
G0 F6000 X141.518 Y187.339
G1 F1200 X126.507 Y172.328 E142.57459
G0 F6000 X126.507 Y171.762
G1 F1200 X142.084 Y187.339 E143.60037
G0 F6000 X142.65 Y187.339
G1 F1200 X126.507 Y171.196 E144.66341
G0 F6000 X126.507 Y170.631
G1 F1200 X143.215 Y187.339 E145.76366
G0 F6000 X143.781 Y187.339
G1 F1200 X126.507 Y170.065 E146.90118
G0 F6000 X126.507 Y169.499
G1 F1200 X144.347 Y187.339 E148.07598
G0 F6000 X144.913 Y187.339
G1 F1200 X126.507 Y168.934 E149.28801
G0 F6000 X126.507 Y168.368
G1 F1200 X145.478 Y187.339 E150.53728
G0 F6000 X146.044 Y187.339
G1 F1200 X126.507 Y167.802 E151.82383
G0 F6000 X126.507 Y167.237
G1 F1200 X146.61 Y187.339 E153.14761
G0 F6000 X147.175 Y187.339
G1 F1200 X126.507 Y166.671 E154.50864
G0 F6000 X126.507 Y166.105
G1 F1200 X147.741 Y187.339 E155.90693
G0 F6000 X148.307 Y187.339
G1 F1200 X126.507 Y165.54 E157.34247
G0 F6000 X126.507 Y164.974
G1 F1200 X148.872 Y187.339 E158.81524
G0 F6000 X149.438 Y187.339
G1 F1200 X126.507 Y164.408 E160.32528
G0 F6000 X126.507 Y163.843
G1 F1200 X150.004 Y187.339 E161.87257
G0 F6000 X150.569 Y187.339
G1 F1200 X126.507 Y163.277 E163.45709
G0 F6000 X126.507 Y162.711
G1 F1200 X151.135 Y187.339 E165.07889
G0 F6000 X151.701 Y187.339
G1 F1200 X126.507 Y162.145 E166.73796
G0 F6000 X126.507 Y161.58
G1 F1200 X152.266 Y187.339 E168.43423
G0 F6000 X152.832 Y187.339
G1 F1200 X126.507 Y161.014 E170.16778
G0 F6000 X126.507 Y160.448
G1 F1200 X153.398 Y187.339 E171.9386
G0 F6000 X153.964 Y187.339
G1 F1200 X126.507 Y159.883 E173.74665
G0 F6000 X126.507 Y159.317
G1 F1200 X154.529 Y187.339 E175.59195
G0 F6000 X155.095 Y187.339
G1 F1200 X126.507 Y158.751 E177.47452
G0 F6000 X126.507 Y158.186
G1 F1200 X155.661 Y187.339 E179.39433
G0 F6000 X156.226 Y187.339
G1 F1200 X126.507 Y157.62 E181.35137
G0 F6000 X126.507 Y157.054
G1 F1200 X156.792 Y187.339 E183.34569
G0 F6000 X157.358 Y187.339
G1 F1200 X126.507 Y156.489 E185.37725
G0 F6000 X126.507 Y155.923
G1 F1200 X157.923 Y187.339 E187.44605
G0 F6000 X158.489 Y187.339
G1 F1200 X126.507 Y155.357 E189.55212
G0 F6000 X126.507 Y154.792
G1 F1200 X159.055 Y187.339 E191.69542
G0 F6000 X159.62 Y187.339
G1 F1200 X126.507 Y154.226 E193.87597
G0 F6000 X126.507 Y153.66
G1 F1200 X160.186 Y187.339 E196.09379
G0 F6000 X160.752 Y187.339
G1 F1200 X126.507 Y153.094 E198.34888
G0 F6000 X126.507 Y152.529
G1 F1200 X161.317 Y187.339 E200.64118
G0 F6000 X161.883 Y187.339
G1 F1200 X126.507 Y151.963 E202.97075
G0 F6000 X126.507 Y151.397
G1 F1200 X162.449 Y187.339 E205.33759
G0 F6000 X163.014 Y187.339
G1 F1200 X126.507 Y150.832 E207.74164
G0 F6000 X126.507 Y150.266
G1 F1200 X163.58 Y187.339 E210.18296
G0 F6000 X164.146 Y187.339
G1 F1200 X126.507 Y149.7 E212.66155
G0 F6000 X126.507 Y149.135
G1 F1200 X164.712 Y187.339 E215.17739
G0 F6000 X165.277 Y187.339
G1 F1200 X126.507 Y148.569 E217.73046
G0 F6000 X126.507 Y148.003
G1 F1200 X165.843 Y187.339 E220.3208
G0 F6000 X166.409 Y187.339
G1 F1200 X126.507 Y147.438 E222.94838
G0 F6000 X126.507 Y146.872
G1 F1200 X166.974 Y187.339 E225.6132
G0 F6000 X167.54 Y187.339
G1 F1200 X126.507 Y146.306 E228.3153
G0 F6000 X126.507 Y145.741
G1 F1200 X168.106 Y187.339 E231.05463
G0 F6000 X168.671 Y187.339
G1 F1200 X126.507 Y145.175 E233.8312
G0 F6000 X126.507 Y144.609
G1 F1200 X169.237 Y187.339 E236.64504
G0 F6000 X169.803 Y187.339
G1 F1200 X126.507 Y144.044 E239.49613
G0 F6000 X126.507 Y143.478
G1 F1200 X170.368 Y187.339 E242.38445
G0 F6000 X170.934 Y187.339
G1 F1200 X126.507 Y142.912 E245.31004
G0 F6000 X126.507 Y142.346
G1 F1200 X171.5 Y187.339 E248.27291
G0 F6000 X172.065 Y187.339
G1 F1200 X126.507 Y141.781 E251.27298
G0 F6000 X126.507 Y141.215
G1 F1200 X172.631 Y187.339 E254.31032
G0 F6000 X173.197 Y187.339
G1 F1200 X126.507 Y140.649 E257.38494
G0 F6000 X126.507 Y140.084
G1 F1200 X173.763 Y187.339 E260.49679
G0 F6000 X174.328 Y187.339
G1 F1200 X126.507 Y139.518 E263.64589
G0 F6000 X126.507 Y138.952
G1 F1200 X174.894 Y187.339 E266.83226
G0 F6000 X175.46 Y187.339
G1 F1200 X126.507 Y138.387 E270.05586
G0 F6000 X126.507 Y137.821
G1 F1200 X176.025 Y187.339 E273.31671
G0 F6000 X176.591 Y187.339
G1 F1200 X126.507 Y137.255 E276.61482
G0 F6000 X126.507 Y136.69
G1 F1200 X177.157 Y187.339 E279.95018
G0 F6000 X177.722 Y187.339
G1 F1200 X126.507 Y136.124 E283.32277
G0 F6000 X126.507 Y135.558
G1 F1200 X178.288 Y187.339 E286.73264
G0 F6000 X178.691 Y187.176
G1 F1200 X126.507 Y134.993 E290.16901
G0 F6000 X126.507 Y134.427
G1 F1200 X178.691 Y186.611 E293.60542
G0 F6000 X178.691 Y186.045
G1 F1200 X126.507 Y133.861 E297.04183
G0 F6000 X126.507 Y133.295
G1 F1200 X178.691 Y185.479 E300.47823
G0 F6000 X178.691 Y184.914
G1 F1200 X126.507 Y132.73 E303.91464
G0 F6000 X126.507 Y132.164
G1 F1200 X178.691 Y184.348 E307.35104
G0 F6000 X178.691 Y183.782
G1 F1200 X126.507 Y131.598 E310.78745
G0 F6000 X126.507 Y131.033
G1 F1200 X178.691 Y183.217 E314.22385
G0 F6000 X178.691 Y182.651
G1 F1200 X126.507 Y130.467 E317.66026
G0 F6000 X126.507 Y129.901
G1 F1200 X178.691 Y182.085 E321.09666
G0 F6000 X178.691 Y181.519
G1 F1200 X126.507 Y129.336 E324.53304
G0 F6000 X126.507 Y128.77
G1 F1200 X178.691 Y180.954 E327.96944
G0 F6000 X178.691 Y180.388
G1 F1200 X126.507 Y128.204 E331.40585
G0 F6000 X126.507 Y127.639
