;FLAVOR:Marlin
;TIME:16410
;Filament used: 16.6036m
;Layer height: 0.28
;MINX:46.7
;MINY:46.7
;MINZ:0.28
;MAXX:188.3
;MAXY:188.3
;MAXZ:24.92
;Generated with Cura_SteamEngine 5.2.1
M140 S60
M105
M190 S60
M104 S200
M105
M109 S200
M82 ;absolute extrusion mode
M201 X500.00 Y500.00 Z100.00 E5000.00 ;Setup machine max acceleration
M203 X500.00 Y500.00 Z10.00 E50.00 ;Setup machine max feedrate
M204 P500.00 R1000.00 T500.00 ;Setup Print/Retract/Travel acceleration
M205 X8.00 Y8.00 Z0.40 E5.00 ;Setup Jerk
M220 S100 ;Reset Feedrate
M221 S100 ;Reset Flowrate

G28 ;Home

G92 E0 ;Reset Extruder
G1 Z2.0 F3000 ;Move Z Axis up
G1 X10.1 Y20 Z0.28 F5000.0 ;Move to start position
G1 X10.1 Y200.0 Z0.28 F1500.0 E15 ;Draw the first line
G1 X10.4 Y200.0 Z0.28 F5000.0 ;Move to side a little
G1 X10.4 Y20 Z0.28 F1500.0 E30 ;Draw the second line
G92 E0 ;Reset Extruder
G1 Z2.0 F3000 ;Move Z Axis up

G92 E0
G92 E0
G1 F1500 E-6.5
;LAYER_COUNT:89
;LAYER:0
M107
;MESH:shld-1x1-tray.stl
G0 F6000 X47.1 Y187.9 Z0.28
;TYPE:WALL-INNER
G1 F1500 E0
G1 F1200 X187.9 Y187.9 E6.55624
G1 X187.9 Y47.1 E13.11248
G1 X47.1 Y47.1 E19.66871
G1 X47.1 Y187.9 E26.22495
G0 F6000 X46.7 Y188.3
;TYPE:WALL-OUTER
G1 F1200 X188.3 Y188.3 E32.81844
G1 X188.3 Y46.7 E39.41193
G1 X46.7 Y46.7 E46.00542
G1 X46.7 Y188.3 E52.59891
G0 F6000 X46.97 Y188.03
G0 X48.76 Y187.6
G0 X48.76 Y187.819
;TYPE:FILL
G1 F1200 X55.967 Y160.92 E53.89562
G0 F6000 X55.868 Y160.92
G0 X55.868 Y159.037
G0 X55.967 Y159.037
G1 F1200 X47.18 Y161.392 E54.31922
G0 F6000 X47.4 Y161.392
G0 X47.4 Y165.694
G0 X47.179 Y165.694
G1 F1200 X55.968 Y174.483 E54.89799
G0 F6000 X55.868 Y174.483
G0 X55.868 Y171.461
G0 X55.966 Y171.461
G1 F1200 X47.18 Y173.815 E55.32153
G0 F6000 X47.4 Y173.815
G0 X47.4 Y182.665
G0 X47.179 Y182.665
G1 F1200 X52.333 Y187.819 E55.66093
G0 F6000 X52.333 Y187.6
G0 X55.868 Y183.884
G0 X55.966 Y183.884
G1 F1200 X47.18 Y186.238 E56.08447
G1 F1500 E49.58447
G0 F6000 X47.4 Y186.238
G0 X55.868 Y157.512
G1 F1500 E56.08447
G0 F6000 X55.968 Y157.512
G1 F1200 X47.179 Y148.724 E56.66321
G0 F6000 X47.18 Y148.968
G1 F1200 X55.966 Y146.614 E57.08675
G0 F6000 X55.868 Y146.614
G0 X55.868 Y140.542
G0 X55.968 Y140.542
G1 F1200 X47.179 Y131.753 E57.66552
G0 F6000 X47.4 Y131.753
G0 X47.4 Y136.545
G0 X47.18 Y136.545
G1 F1200 X55.966 Y134.191 E58.08906
G0 F6000 X55.868 Y134.191
G0 X55.868 Y123.571
G0 X55.968 Y123.571
G1 F1200 X47.179 Y114.783 E58.6678
G0 F6000 X47.4 Y114.783
G0 X47.4 Y111.698
G0 X47.18 Y111.698
G1 F1200 X55.966 Y109.344 E59.09134
G0 F6000 X55.868 Y109.344
G0 X55.868 Y106.601
G0 X55.968 Y106.601
G1 F1200 X47.179 Y97.812 E59.67011
G0 F6000 X47.4 Y97.812
G0 X47.4 Y99.275
G0 X47.18 Y99.275
G1 F1200 X55.966 Y96.921 E60.09366
G0 F6000 X55.868 Y96.921
G0 X55.868 Y89.63
G0 X55.968 Y89.63
G1 F1200 X47.179 Y80.842 E60.6724
G0 F6000 X47.4 Y80.842
G0 X47.4 Y86.852
G0 X47.18 Y86.852
G1 F1200 X55.966 Y84.497 E61.09595
G0 F6000 X55.868 Y84.497
G0 X55.868 Y72.66
G0 X55.968 Y72.66
G1 F1200 X47.179 Y63.871 E61.67472
G0 F6000 X47.4 Y63.871
G0 X47.4 Y62.005
G0 X47.179 Y62.005
G1 F1200 X55.966 Y59.651 E62.09831
G0 F6000 X55.868 Y59.651
G0 X55.868 Y55.689
G0 X55.968 Y55.689
G1 F1200 X47.458 Y47.179 E62.65871
G0 F6000 X47.458 Y47.4
G0 X49.174 Y47.4
G0 X49.174 Y47.178
G1 F1200 X47.179 Y54.624 E63.01765
G0 F6000 X47.4 Y54.624
G0 X47.4 Y49.582
G0 X47.18 Y49.582
G1 F1200 X55.966 Y47.228 E63.44119
G0 F6000 X55.966 Y47.4
G0 X55.868 Y68.191
G0 X55.967 Y68.191
G1 F1200 X47.179 Y100.989 E65.02228
G0 F6000 X47.4 Y100.989
G0 X55.868 Y114.555
G0 X55.967 Y114.555
G1 F1200 X47.179 Y147.353 E66.60336
G0 F6000 X47.4 Y147.353
G0 X47.4 Y124.122
G0 X47.179 Y124.122
G1 F1200 X55.966 Y121.767 E67.02696
G1 F1500 E60.52696
G0 F6000 X55.868 Y121.767
G0 X47.4 Y74.428
G1 F1500 E67.02696
G0 F6000 X47.18 Y74.428
G1 F1200 X55.966 Y72.074 E67.4505
G1 F1500 E60.9505
G0 F6000 X55.868 Y72.074
G0 X55.94 Y47.272
G0 X179.06 Y47.272
G0 X179.132 Y72.556
G1 F1500 E67.4505
G0 F6000 X179.031 Y72.556
G1 F1200 X185.831 Y47.179 E68.67385
G0 F6000 X185.831 Y47.4
G0 X183.223 Y47.4
G0 X183.223 Y47.18
G1 F1200 X187.819 Y51.776 E68.97651
G0 F6000 X187.6 Y51.776
G0 X187.6 Y49.168
G0 X187.819 Y49.168
G1 F1200 X179.031 Y51.522 E69.40014
G0 F6000 X179.132 Y51.522
G0 X179.132 Y59.959
G0 X179.031 Y59.959
G1 F1200 X187.819 Y68.747 E69.97884
G0 F6000 X187.6 Y68.747
G0 X187.6 Y74.014
G0 X187.819 Y74.014
G1 F1200 X179.032 Y76.369 E70.40244
G0 F6000 X179.031 Y76.929
G1 F1200 X187.819 Y85.717 E70.98115
G0 F6000 X187.819 Y86.122
G1 F1200 X179.031 Y118.918 E72.56214
G0 F6000 X179.132 Y118.918
G0 X179.132 Y113.639
G0 X179.032 Y113.639
G1 F1200 X187.819 Y111.284 E72.98574
G0 F6000 X187.6 Y111.284
G0 X187.6 Y119.658
G0 X187.819 Y119.658
G1 F1200 X179.031 Y110.87 E73.56445
G0 F6000 X179.132 Y110.87
G0 X179.132 Y101.215
G0 X179.031 Y101.215
G1 F1200 X187.819 Y98.861 E73.98808
G0 F6000 X187.6 Y98.861
G0 X187.6 Y102.688
G0 X187.819 Y102.688
G1 F1200 X179.031 Y93.9 E74.56678
G0 F6000 X179.132 Y93.9
G0 X179.132 Y88.792
G0 X179.031 Y88.792
G1 F1200 X187.818 Y86.438 E74.99037
G0 F6000 X187.6 Y86.438
G0 X179.132 Y63.946
G0 X179.031 Y63.946
G1 F1200 X187.818 Y61.591 E75.41397
G1 F1500 E68.91397
G0 F6000 X187.6 Y61.591
G0 X187.6 Y123.708
G1 F1500 E75.41397
G0 F6000 X187.818 Y123.708
G1 F1200 X179.031 Y126.062 E75.83756
G0 F6000 X179.132 Y126.062
G0 X179.132 Y127.841
G0 X179.031 Y127.841
G1 F1200 X187.819 Y136.629 E76.41626
G0 F6000 X187.819 Y136.131
G1 F1200 X179.032 Y138.485 E76.83985
G0 F6000 X179.132 Y138.485
G0 X179.132 Y144.811
G0 X179.031 Y144.811
G1 F1200 X187.819 Y153.599 E77.41855
G0 F6000 X187.6 Y153.599
G0 X187.6 Y148.554
G0 X187.818 Y148.554
G1 F1200 X179.032 Y150.909 E77.84211
G0 F6000 X179.132 Y150.909
G0 X179.132 Y161.782
G0 X179.031 Y161.782
G1 F1200 X187.819 Y170.57 E78.42081
G0 F6000 X187.6 Y170.57
G0 X187.6 Y173.401
G0 X187.818 Y173.401
G1 F1200 X179.032 Y175.755 E78.84436
G0 F6000 X179.132 Y175.755
G0 X179.132 Y178.753
G0 X179.031 Y178.753
G1 F1200 X187.819 Y187.54 E79.42303
G0 F6000 X187.6 Y187.54
G0 X187.6 Y185.824
G0 X187.818 Y185.824
G1 F1200 X180.372 Y187.819 E79.78197
G0 F6000 X180.372 Y187.6
G0 X185.416 Y187.6
G0 X185.416 Y187.82
G1 F1200 X187.819 Y178.851 E80.21434
G0 F6000 X187.6 Y178.851
G0 X179.132 Y165.282
G0 X179.032 Y165.282
G1 F1200 X187.819 Y132.487 E81.79528
G0 F6000 X187.6 Y132.487
G0 X187.6 Y160.978
G0 X187.818 Y160.978
G1 F1200 X179.031 Y163.332 E82.21886
G1 F1500 E75.71886
G0 F6000 X179.132 Y163.332
G0 X179.06 Y187.728
G0 X55.94 Y187.728
G1 F1500 E82.21886
G0 F6000 X56.008 Y187.54
;TYPE:SKIN
G1 F1200 X178.992 Y187.54 E87.94551
G1 X178.992 Y47.46 E94.46822
G1 X56.008 Y47.46 E100.19487
G1 X56.008 Y108.952 E103.0582
G1 X56.008 Y187.54 E106.71759
G0 F6000 X56.666 Y187.339
G1 F1200 X56.207 Y186.88 E106.74781
G0 F6000 X56.207 Y186.314
G1 F1200 X57.231 Y187.339 E106.81528
G0 F6000 X57.797 Y187.339
G1 F1200 X56.207 Y185.749 E106.91998
G0 F6000 X56.207 Y185.183
G1 F1200 X58.363 Y187.339 E107.06196
G0 F6000 X58.928 Y187.339
G1 F1200 X56.207 Y184.617 E107.24117
G0 F6000 X56.207 Y184.052
G1 F1200 X59.494 Y187.339 E107.45763
G0 F6000 X60.06 Y187.339
G1 F1200 X56.207 Y183.486 E107.71135
G0 F6000 X56.207 Y182.92
G1 F1200 X60.625 Y187.339 E108.00232
G0 F6000 X61.191 Y187.339
G1 F1200 X56.207 Y182.355 E108.33053
G0 F6000 X56.207 Y181.789
G1 F1200 X61.757 Y187.339 E108.696
G0 F6000 X62.322 Y187.339
G1 F1200 X56.207 Y181.223 E109.09872
G0 F6000 X56.207 Y180.658
G1 F1200 X62.888 Y187.339 E109.53867
G0 F6000 X63.454 Y187.339
G1 F1200 X56.207 Y180.092 E110.0159
G0 F6000 X56.207 Y179.526
G1 F1200 X64.02 Y187.339 E110.5304
G0 F6000 X64.585 Y187.339
G1 F1200 X56.207 Y178.96 E111.08214
G0 F6000 X56.207 Y178.395
G1 F1200 X65.151 Y187.339 E111.67112
G0 F6000 X65.717 Y187.339
G1 F1200 X56.207 Y177.829 E112.29737
G0 F6000 X56.207 Y177.263
G1 F1200 X66.282 Y187.339 E112.96086
G0 F6000 X66.848 Y187.339
G1 F1200 X56.207 Y176.698 E113.66158
G0 F6000 X56.207 Y176.132
G1 F1200 X67.414 Y187.339 E114.39958
G0 F6000 X67.979 Y187.339
G1 F1200 X56.207 Y175.566 E115.17482
G0 F6000 X56.207 Y175.001
G1 F1200 X68.545 Y187.339 E115.9873
G0 F6000 X69.111 Y187.339
G1 F1200 X56.207 Y174.435 E116.83705
G0 F6000 X56.207 Y173.869
G1 F1200 X69.676 Y187.339 E117.72404
G0 F6000 X70.242 Y187.339
G1 F1200 X56.207 Y173.304 E118.64827
G0 F6000 X56.207 Y172.738
G1 F1200 X70.808 Y187.339 E119.60977
G0 F6000 X71.373 Y187.339
G1 F1200 X56.207 Y172.172 E120.60851
G0 F6000 X56.207 Y171.607
G1 F1200 X71.939 Y187.339 E121.64449
G0 F6000 X72.505 Y187.339
G1 F1200 X56.207 Y171.041 E122.71774
G0 F6000 X56.207 Y170.475
G1 F1200 X73.071 Y187.339 E123.82826
G0 F6000 X73.636 Y187.339
G1 F1200 X56.207 Y169.909 E124.97603
G0 F6000 X56.207 Y169.344
G1 F1200 X74.202 Y187.339 E126.16103
G0 F6000 X74.768 Y187.339
G1 F1200 X56.207 Y168.778 E127.3833
G0 F6000 X56.207 Y168.212
G1 F1200 X75.333 Y187.339 E128.64281
G0 F6000 X75.899 Y187.339
G1 F1200 X56.207 Y167.647 E129.93957
G0 F6000 X56.207 Y167.081
G1 F1200 X76.465 Y187.339 E131.27359
G0 F6000 X77.03 Y187.339
G1 F1200 X56.207 Y166.515 E132.64485
G0 F6000 X56.207 Y165.95
G1 F1200 X77.596 Y187.339 E134.05335
G0 F6000 X78.162 Y187.339
G1 F1200 X56.207 Y165.384 E135.49913
G0 F6000 X56.207 Y164.818
G1 F1200 X78.727 Y187.339 E136.98214
G0 F6000 X79.293 Y187.339
G1 F1200 X56.207 Y164.253 E138.50239
G0 F6000 X56.207 Y163.687
G1 F1200 X79.859 Y187.339 E140.05992
G0 F6000 X80.424 Y187.339
G1 F1200 X56.207 Y163.121 E141.65468
G0 F6000 X56.207 Y162.556
G1 F1200 X80.99 Y187.339 E143.28669
G0 F6000 X81.556 Y187.339
G1 F1200 X56.207 Y161.99 E144.95596
G0 F6000 X56.207 Y161.424
G1 F1200 X82.121 Y187.339 E146.66247
G0 F6000 X82.687 Y187.339
G1 F1200 X56.207 Y160.859 E148.40623
G0 F6000 X56.207 Y160.293
G1 F1200 X83.253 Y187.339 E150.18725
G0 F6000 X83.819 Y187.339
G1 F1200 X56.207 Y159.727 E152.00555
G0 F6000 X56.207 Y159.161
G1 F1200 X84.384 Y187.339 E153.86109
G0 F6000 X84.95 Y187.339
G1 F1200 X56.207 Y158.596 E155.75386
G0 F6000 X56.207 Y158.03
G1 F1200 X85.516 Y187.339 E157.68391
G0 F6000 X86.081 Y187.339
G1 F1200 X56.207 Y157.464 E159.6512
G0 F6000 X56.207 Y156.899
G1 F1200 X86.647 Y187.339 E161.65572
G0 F6000 X87.213 Y187.339
G1 F1200 X56.207 Y156.333 E163.69752
G0 F6000 X56.207 Y155.767
G1 F1200 X87.778 Y187.339 E165.77656
G0 F6000 X88.344 Y187.339
G1 F1200 X56.207 Y155.202 E167.89284
G0 F6000 X56.207 Y154.636
G1 F1200 X88.91 Y187.339 E170.04638
G0 F6000 X89.475 Y187.339
G1 F1200 X56.207 Y154.07 E172.23717
G0 F6000 X56.207 Y153.505
G1 F1200 X90.041 Y187.339 E174.4652
G0 F6000 X90.607 Y187.339
G1 F1200 X56.207 Y152.939 E176.7305
G0 F6000 X56.207 Y152.373
G1 F1200 X91.172 Y187.339 E179.03303
G0 F6000 X91.738 Y187.339
G1 F1200 X56.207 Y151.808 E181.37281
G0 F6000 X56.207 Y151.242
G1 F1200 X92.304 Y187.339 E183.74986
G0 F6000 X92.869 Y187.339
G1 F1200 X56.207 Y150.676 E186.16415
G0 F6000 X56.207 Y150.11
G1 F1200 X93.435 Y187.339 E188.61571
G0 F6000 X94.001 Y187.339
G1 F1200 X56.207 Y149.545 E191.10451
G0 F6000 X56.207 Y148.979
G1 F1200 X94.567 Y187.339 E193.63058
G0 F6000 X95.132 Y187.339
G1 F1200 X56.207 Y148.413 E196.19389
G0 F6000 X56.207 Y147.848
G1 F1200 X95.698 Y187.339 E198.79444
G0 F6000 X96.264 Y187.339
G1 F1200 X56.207 Y147.282 E201.43226
G0 F6000 X56.207 Y146.716
G1 F1200 X96.829 Y187.339 E204.10732
G0 F6000 X97.395 Y187.339
G1 F1200 X56.207 Y146.151 E206.81962
G0 F6000 X56.207 Y145.585
G1 F1200 X97.961 Y187.339 E209.5692
G0 F6000 X98.526 Y187.339
G1 F1200 X56.207 Y145.019 E212.35601
G0 F6000 X56.207 Y144.454
G1 F1200 X99.092 Y187.339 E215.18006
G0 F6000 X99.658 Y187.339
G1 F1200 X56.207 Y143.888 E218.04138
G0 F6000 X56.207 Y143.322
G1 F1200 X100.223 Y187.339 E220.93994
G0 F6000 X100.789 Y187.339
G1 F1200 X56.207 Y142.757 E223.87574
G0 F6000 X56.207 Y142.191
G1 F1200 X101.355 Y187.339 E226.84882
G0 F6000 X101.92 Y187.339
G1 F1200 X56.207 Y141.625 E229.85913
G0 F6000 X56.207 Y141.06
G1 F1200 X102.486 Y187.339 E232.90668
G0 F6000 X103.052 Y187.339
G1 F1200 X56.207 Y140.494 E235.9915
G0 F6000 X56.207 Y139.928
G1 F1200 X103.618 Y187.339 E239.1136
G0 F6000 X104.183 Y187.339
G1 F1200 X56.207 Y139.362 E242.27293
G0 F6000 X56.207 Y138.797
G1 F1200 X104.749 Y187.339 E245.46951
G0 F6000 X105.315 Y187.339
G1 F1200 X56.207 Y138.231 E248.70335
G0 F6000 X56.207 Y137.665
G1 F1200 X105.88 Y187.339 E251.97444
G0 F6000 X106.446 Y187.339
G1 F1200 X56.207 Y137.1 E255.28276
G0 F6000 X56.207 Y136.534
G1 F1200 X107.012 Y187.339 E258.62836
G0 F6000 X107.577 Y187.339
G1 F1200 X56.207 Y135.968 E262.01119
G0 F6000 X56.207 Y135.403
G1 F1200 X108.143 Y187.339 E265.43126
G0 F6000 X108.709 Y187.339
G1 F1200 X56.207 Y134.837 E268.88861
G0 F6000 X56.207 Y134.271
G1 F1200 X109.274 Y187.339 E272.3832
G0 F6000 X109.84 Y187.339
G1 F1200 X56.207 Y133.706 E275.91502
G0 F6000 X56.207 Y133.14
G1 F1200 X110.406 Y187.339 E279.48412
G0 F6000 X110.971 Y187.339
G1 F1200 X56.207 Y132.574 E283.09045
G0 F6000 X56.207 Y132.009
G1 F1200 X111.537 Y187.339 E286.73403
G0 F6000 X112.103 Y187.339
G1 F1200 X56.207 Y131.443 E290.41488
G0 F6000 X56.207 Y130.877
G1 F1200 X112.668 Y187.339 E294.13296
G0 F6000 X113.234 Y187.339
G1 F1200 X56.207 Y130.312 E297.88829
G0 F6000 X56.207 Y129.746
G1 F1200 X113.8 Y187.339 E301.68089
G0 F6000 X114.366 Y187.339
G1 F1200 X56.207 Y129.18 E305.51075
G0 F6000 X56.207 Y128.614
G1 F1200 X114.931 Y187.339 E309.37786
G0 F6000 X115.497 Y187.339
G1 F1200 X56.207 Y128.049 E313.28221
G0 F6000 X56.207 Y127.483
G1 F1200 X116.063 Y187.339 E317.22383
G0 F6000 X116.628 Y187.339
G1 F1200 X56.207 Y126.917 E321.20269
G0 F6000 X56.207 Y126.352
G1 F1200 X117.194 Y187.339 E325.21879
G0 F6000 X117.76 Y187.339
G1 F1200 X56.207 Y125.786 E329.27216
G0 F6000 X56.207 Y125.22
G1 F1200 X118.325 Y187.339 E333.36277
G0 F6000 X118.891 Y187.339
G1 F1200 X56.207 Y124.655 E337.49062
G0 F6000 X56.207 Y124.089
G1 F1200 X119.457 Y187.339 E341.65574
G0 F6000 X120.022 Y187.339
G1 F1200 X56.207 Y123.523 E345.8581
G0 F6000 X56.207 Y122.958
G1 F1200 X120.588 Y187.339 E350.09769
G0 F6000 X121.154 Y187.339
G1 F1200 X56.207 Y122.392 E354.37457
G0 F6000 X56.207 Y121.826
G1 F1200 X121.719 Y187.339 E358.68868
G0 F6000 X122.285 Y187.339
G1 F1200 X56.207 Y121.261 E363.04002
G0 F6000 X56.207 Y120.695
G1 F1200 X122.851 Y187.339 E367.42865
G0 F6000 X123.417 Y187.339
G1 F1200 X56.207 Y120.129 E371.85454
G0 F6000 X56.207 Y119.563
G1 F1200 X123.982 Y187.339 E376.31767
G0 F6000 X124.548 Y187.339
G1 F1200 X56.207 Y118.998 E380.81804
G0 F6000 X56.207 Y118.432
G1 F1200 X125.114 Y187.339 E385.35569
G0 F6000 X125.679 Y187.339
G1 F1200 X56.207 Y117.866 E389.93057
G0 F6000 X56.207 Y117.301
G1 F1200 X126.245 Y187.339 E394.54269
G0 F6000 X126.811 Y187.339
G1 F1200 X56.207 Y116.735 E399.19209
G0 F6000 X56.207 Y116.169
G1 F1200 X127.376 Y187.339 E403.87872
G0 F6000 X127.942 Y187.339
G1 F1200 X56.207 Y115.604 E408.60259
G0 F6000 X56.207 Y115.038
G1 F1200 X128.508 Y187.339 E413.36373
G0 F6000 X129.073 Y187.339
G1 F1200 X56.207 Y114.472 E418.16212
G0 F6000 X56.207 Y113.907
G1 F1200 X129.639 Y187.339 E422.99774
G0 F6000 X130.205 Y187.339
G1 F1200 X56.207 Y113.341 E427.87064
G0 F6000 X56.207 Y112.775
G1 F1200 X130.77 Y187.339 E432.78077
G0 F6000 X131.336 Y187.339
G1 F1200 X56.207 Y112.21 E437.72814
G0 F6000 X56.207 Y111.644
G1 F1200 X131.902 Y187.339 E442.71279
G0 F6000 X132.467 Y187.339
G1 F1200 X56.207 Y111.078 E447.73467
G0 F6000 X56.207 Y110.513
G1 F1200 X133.033 Y187.339 E452.79379
G0 F6000 X133.599 Y187.339
G1 F1200 X56.207 Y109.947 E457.89019
G0 F6000 X56.207 Y109.381
G1 F1200 X134.165 Y187.339 E463.02386
G0 F6000 X134.73 Y187.339
G1 F1200 X56.207 Y108.815 E468.19476
G0 F6000 X56.207 Y108.25
G1 F1200 X135.296 Y187.339 E473.40291
G0 F6000 X135.862 Y187.339
G1 F1200 X56.207 Y107.684 E478.64833
G0 F6000 X56.207 Y107.118
G1 F1200 X136.427 Y187.339 E483.93098
G0 F6000 X136.993 Y187.339
G1 F1200 X56.207 Y106.553 E489.25088
G0 F6000 X56.207 Y105.987
G1 F1200 X137.559 Y187.339 E494.60805
G0 F6000 X138.124 Y187.339
G1 F1200 X56.207 Y105.421 E500.00246
G0 F6000 X56.207 Y104.856
G1 F1200 X138.69 Y187.339 E505.4341
G0 F6000 X139.256 Y187.339
G1 F1200 X56.207 Y104.29 E510.90302
G0 F6000 X56.207 Y103.724
G1 F1200 X139.821 Y187.339 E516.40918
G0 F6000 X140.387 Y187.339
