;FLAVOR:Marlin
;TIME:23979
;Filament used: 22.0779m
;Layer height: 0.28
;MINX:46.7
;MINY:46.7
;MINZ:0.28
;MAXX:188.3
;MAXY:188.3
;MAXZ:24.92
;Generated with Cura_SteamEngine 5.2.1
M140 S60
M105
M190 S60
M104 S200
M105
M109 S200
M82 ;absolute extrusion mode
M201 X500.00 Y500.00 Z100.00 E5000.00 ;Setup machine max acceleration
M203 X500.00 Y500.00 Z10.00 E50.00 ;Setup machine max feedrate
M204 P500.00 R1000.00 T500.00 ;Setup Print/Retract/Travel acceleration
M205 X8.00 Y8.00 Z0.40 E5.00 ;Setup Jerk
M220 S100 ;Reset Feedrate
M221 S100 ;Reset Flowrate

G28 ;Home

G92 E0 ;Reset Extruder
G1 Z2.0 F3000 ;Move Z Axis up
G1 X10.1 Y20 Z0.28 F5000.0 ;Move to start position
G1 X10.1 Y200.0 Z0.28 F1500.0 E15 ;Draw the first line
G1 X10.4 Y200.0 Z0.28 F5000.0 ;Move to side a little
G1 X10.4 Y20 Z0.28 F1500.0 E30 ;Draw the second line
G92 E0 ;Reset Extruder
G1 Z2.0 F3000 ;Move Z Axis up

G92 E0
G92 E0
G1 F1500 E-6.5
;LAYER_COUNT:89
;LAYER:0
M107
;MESH:shld-2x3-tray.stl
G0 F6000 X47.1 Y187.9 Z0.28
;TYPE:WALL-INNER
G1 F1500 E0
G1 F1200 X187.9 Y187.9 E6.55624
G1 X187.9 Y47.1 E13.11248
G1 X47.1 Y47.1 E19.66871
G1 X47.1 Y117.5 E22.94683
G1 X47.1 Y187.9 E26.22495
G0 F6000 X46.7 Y188.3
;TYPE:WALL-OUTER
G1 F1200 X188.3 Y188.3 E32.81844
G1 X188.3 Y46.7 E39.41193
G1 X46.7 Y46.7 E46.00542
G1 X46.7 Y117.5 E49.30216
G1 X46.7 Y188.3 E52.59891
G0 F6000 X46.97 Y188.03
G0 X48.76 Y187.6
G0 X48.76 Y187.819
;TYPE:FILL
G1 F1200 X56.167 Y160.174 E53.93158
G0 F6000 X56.068 Y160.174
G0 X56.068 Y158.984
G0 X56.166 Y158.984
G1 F1200 X47.18 Y161.392 E54.36477
G0 F6000 X47.4 Y161.392
G0 X47.4 Y165.694
G0 X47.179 Y165.694
G1 F1200 X56.167 Y174.682 E54.95664
G0 F6000 X56.068 Y174.682
G0 X56.068 Y171.407
G0 X56.167 Y171.407
G1 F1200 X47.18 Y173.815 E55.38988
G0 F6000 X47.4 Y173.815
G0 X47.4 Y182.665
G0 X47.179 Y182.665
G1 F1200 X52.333 Y187.819 E55.72928
G0 F6000 X52.333 Y187.6
G0 X47.4 Y186.238
G0 X47.18 Y186.238
G1 F1200 X56.167 Y183.83 E56.16251
G0 F6000 X56.068 Y183.83
G0 X56.068 Y157.712
G0 X56.167 Y157.712
G1 F1200 X47.179 Y148.724 E56.75439
G0 F6000 X47.18 Y148.968
G1 F1200 X56.167 Y146.56 E57.18762
G0 F6000 X56.068 Y146.56
G0 X56.068 Y140.741
G0 X56.167 Y140.741
G1 F1200 X47.179 Y131.753 E57.77949
G0 F6000 X47.4 Y131.753
G0 X47.4 Y136.545
G0 X47.18 Y136.545
G1 F1200 X56.167 Y134.137 E58.21273
G0 F6000 X56.068 Y134.137
G0 X56.068 Y123.771
G0 X56.167 Y123.771
G1 F1200 X47.179 Y114.783 E58.8046
G0 F6000 X47.4 Y114.783
G0 X47.4 Y111.698
G0 X47.18 Y111.698
G1 F1200 X56.166 Y109.291 E59.23778
G0 F6000 X56.068 Y109.291
G0 X56.068 Y106.8
G0 X56.167 Y106.8
G1 F1200 X47.179 Y97.812 E59.82966
G0 F6000 X47.4 Y97.812
G0 X47.4 Y99.275
G0 X47.18 Y99.275
G1 F1200 X56.167 Y96.867 E60.26289
G0 F6000 X56.068 Y96.867
G0 X56.068 Y89.83
G0 X56.167 Y89.83
G1 F1200 X47.179 Y80.842 E60.85476
G0 F6000 X47.4 Y80.842
G0 X47.4 Y86.852
G0 X47.18 Y86.852
G1 F1200 X56.166 Y84.444 E61.28795
G0 F6000 X56.068 Y84.444
G0 X56.068 Y72.859
G0 X56.167 Y72.859
G1 F1200 X47.179 Y63.871 E61.87983
G0 F6000 X47.4 Y63.871
G0 X47.4 Y62.005
G0 X47.179 Y62.005
G1 F1200 X56.166 Y59.597 E62.31306
G0 F6000 X56.068 Y59.597
G0 X56.068 Y55.889
G0 X56.167 Y55.889
G1 F1200 X47.458 Y47.18 E62.88656
G0 F6000 X47.458 Y47.4
G0 X49.174 Y47.4
G0 X49.174 Y47.178
G1 F1200 X47.179 Y54.624 E63.24551
G0 F6000 X47.4 Y54.624
G0 X47.4 Y49.582
G0 X47.18 Y49.582
G1 F1200 X56.149 Y47.179 E63.67787
G0 F6000 X56.149 Y47.4
G0 X56.068 Y67.446
G0 X56.167 Y67.446
G1 F1200 X47.179 Y100.989 E65.29488
G0 F6000 X47.4 Y100.989
G0 X56.068 Y113.81
G0 X56.167 Y113.81
G1 F1200 X47.179 Y147.353 E66.91188
G0 F6000 X47.4 Y147.353
G0 X47.4 Y124.122
G0 X47.179 Y124.122
G1 F1200 X56.166 Y121.714 E67.34511
G1 F1500 E60.84511
G0 F6000 X56.068 Y121.714
G0 X56.137 Y187.666
G0 X85.365 Y187.731
G0 X85.466 Y119.027
G1 F1500 E67.34511
G0 F6000 X85.365 Y119.027
G1 F1200 X102.901 Y136.563 E68.49989
G0 F6000 X102.801 Y136.563
G0 X102.801 Y134.038
G0 X102.9 Y134.038
G1 F1200 X85.365 Y138.737 E69.3452
G0 F6000 X85.466 Y138.737
G0 X85.466 Y135.998
G0 X85.365 Y135.998
G1 F1200 X102.901 Y153.534 E70.49998
G0 F6000 X102.801 Y153.534
G0 X102.801 Y158.885
G0 X102.899 Y158.885
G1 F1200 X85.366 Y163.583 E71.34519
G0 F6000 X85.466 Y163.583
G0 X85.466 Y169.939
G0 X85.365 Y169.939
G1 F1200 X102.901 Y187.475 E72.49996
G0 F6000 X102.801 Y187.475
G0 X102.801 Y183.732
G0 X102.899 Y183.732
G1 F1200 X87.644 Y187.819 E73.23535
G0 F6000 X87.644 Y187.6
G0 X86.274 Y187.6
G0 X86.274 Y187.818
G1 F1200 X85.365 Y186.91 E73.29518
G0 F6000 X85.466 Y186.91
G0 X86.03 Y187.6
G0 X86.03 Y187.82
G1 F1200 X102.9 Y124.858 E76.33037
G0 F6000 X102.801 Y124.858
G0 X102.801 Y121.615
G0 X102.899 Y121.615
G1 F1200 X85.366 Y126.313 E77.17558
G0 F6000 X85.466 Y126.313
G0 X85.466 Y113.89
G0 X85.365 Y113.89
G1 F1200 X102.9 Y109.192 E78.02088
G0 F6000 X102.801 Y109.192
G0 X102.801 Y102.622
G0 X102.901 Y102.622
G1 F1200 X85.365 Y85.086 E79.17565
G0 F6000 X85.466 Y85.086
G0 X85.466 Y89.043
G0 X85.365 Y89.043
G1 F1200 X102.9 Y84.345 E80.02095
G0 F6000 X102.801 Y84.345
G0 X102.801 Y85.651
G0 X102.901 Y85.651
G1 F1200 X85.365 Y68.116 E81.17569
G0 F6000 X85.466 Y68.116
G0 X85.466 Y64.197
G0 X85.365 Y64.197
G1 F1200 X102.899 Y59.498 E82.02096
G0 F6000 X102.801 Y59.498
G0 X102.801 Y51.71
G0 X102.901 Y51.71
G1 F1200 X98.37 Y47.18 E82.3193
G0 F6000 X98.868 Y47.178
G1 F1200 X85.366 Y97.568 E84.74844
G0 F6000 X85.466 Y97.568
G0 X85.466 Y101.467
G0 X85.365 Y101.467
G1 F1200 X102.899 Y96.768 E85.59371
G0 F6000 X102.801 Y96.768
G0 X102.801 Y78.493
G0 X102.9 Y78.493
G1 F1200 X85.366 Y143.932 E88.74831
G0 F6000 X85.466 Y143.932
G0 X85.466 Y151.16
G0 X85.365 Y151.16
G1 F1200 X102.9 Y146.461 E89.59362
G0 F6000 X102.801 Y146.461
G0 X85.466 Y152.969
G0 X85.365 Y152.969
G1 F1200 X102.901 Y170.504 E90.74837
G0 F6000 X102.9 Y171.223
G1 F1200 X98.453 Y187.82 E91.54845
G0 F6000 X98.453 Y187.6
G0 X102.801 Y171.308
G0 X102.9 Y171.308
G1 F1200 X85.365 Y176.007 E92.39377
G1 F1500 E85.89377
G0 F6000 X85.466 Y176.007
G0 X102.909 Y187.733
G0 X132.098 Y187.731
G0 X132.199 Y175.908
G1 F1500 E92.39377
G0 F6000 X132.099 Y175.908
G1 F1200 X149.633 Y171.209 E93.23903
G0 F6000 X149.534 Y171.209
G0 X149.534 Y166.325
G0 X149.633 Y166.325
G1 F1200 X132.098 Y148.79 E94.39374
G0 F6000 X132.199 Y148.79
G0 X132.199 Y151.061
G0 X132.098 Y151.061
G1 F1200 X149.633 Y146.363 E95.23904
G0 F6000 X149.534 Y146.363
G0 X149.534 Y149.355
G0 X149.633 Y149.355
G1 F1200 X132.098 Y131.819 E96.39379
G0 F6000 X132.199 Y131.819
G0 X132.199 Y126.214
G0 X132.098 Y126.214
G1 F1200 X149.632 Y121.516 E97.23904
G0 F6000 X149.534 Y121.516
G0 X149.534 Y115.413
G0 X149.633 Y115.413
G1 F1200 X132.098 Y97.878 E98.39375
G0 F6000 X132.199 Y97.878
G0 X132.199 Y101.368
G0 X132.099 Y101.368
G1 F1200 X149.632 Y96.67 E99.23896
G0 F6000 X149.534 Y96.67
G0 X149.534 Y98.443
G0 X149.633 Y98.443
G1 F1200 X132.098 Y80.907 E100.3937
G0 F6000 X132.199 Y80.907
G0 X132.199 Y76.521
G0 X132.099 Y76.521
G1 F1200 X149.632 Y71.823 E101.23891
G0 F6000 X149.534 Y71.823
G0 X149.534 Y64.502
G0 X149.633 Y64.502
G1 F1200 X132.311 Y47.18 E102.3796
G0 F6000 X132.311 Y47.4
G0 X136.138 Y47.4
G0 X136.138 Y47.178
G1 F1200 X132.098 Y62.252 E103.10628
G0 F6000 X132.199 Y62.252
G0 X132.199 Y63.937
G0 X132.098 Y63.937
G1 F1200 X149.633 Y81.472 E104.26099
G0 F6000 X149.534 Y81.472
G0 X149.534 Y84.246
G0 X149.632 Y84.246
G1 F1200 X132.098 Y88.945 E105.10625
G0 F6000 X132.199 Y88.945
G0 X149.534 Y89.542
G0 X149.633 Y89.542
G1 F1200 X132.098 Y154.982 E108.26091
G0 F6000 X132.199 Y154.982
G0 X132.199 Y163.484
G0 X132.099 Y163.484
G1 F1200 X149.632 Y158.786 E109.10612
G0 F6000 X149.534 Y158.786
G0 X132.199 Y165.76
G0 X132.098 Y165.76
G1 F1200 X149.633 Y183.296 E110.26087
G0 F6000 X149.633 Y183.633
G1 F1200 X134.01 Y187.819 E111.014
G0 F6000 X134.01 Y187.6
G0 X135.723 Y187.6
G0 X135.723 Y187.82
G1 F1200 X149.633 Y135.906 E113.5166
G0 F6000 X149.534 Y135.906
G0 X149.534 Y133.94
G0 X149.632 Y133.94
G1 F1200 X132.099 Y138.638 E114.36181
G0 F6000 X132.199 Y138.638
G0 X149.534 Y132.384
G0 X149.633 Y132.384
G1 F1200 X132.098 Y114.848 E115.51655
G0 F6000 X132.199 Y114.848
G0 X132.199 Y113.791
G0 X132.099 Y113.791
G1 F1200 X149.633 Y109.093 E116.36181
G0 F6000 X149.534 Y109.093
G0 X132.199 Y108.617
G0 X132.098 Y108.617
G1 F1200 X148.561 Y47.179 E119.32355
G0 F6000 X148.876 Y47.179
G1 F1200 X132.098 Y51.675 E120.13237
G0 F6000 X132.199 Y51.675
G0 X132.199 Y64.098
G0 X132.099 Y64.098
G1 F1200 X149.632 Y59.4 E120.97758
G0 F6000 X149.534 Y59.4
G0 X149.534 Y47.531
G0 X149.633 Y47.531
G1 F1200 X149.282 Y47.18 E121.00069
G1 F1500 E114.50069
G0 F6000 X149.282 Y47.4
G0 X149.635 Y47.269
G0 X178.824 Y47.267
G0 X178.932 Y51.576
G1 F1500 E121.00069
G0 F6000 X178.832 Y51.576
G1 F1200 X187.819 Y49.168 E121.43392
G0 F6000 X187.6 Y49.168
G0 X187.6 Y51.776
G0 X187.819 Y51.776
G1 F1200 X183.223 Y47.18 E121.73658
G0 F6000 X183.223 Y47.4
G0 X185.831 Y47.4
G0 X185.831 Y47.179
G1 F1200 X178.831 Y73.303 E122.99593
G0 F6000 X178.932 Y73.303
G0 X178.932 Y76.422
G0 X178.832 Y76.422
G1 F1200 X187.819 Y74.014 E123.42917
G0 F6000 X187.6 Y74.014
G0 X187.6 Y68.747
G0 X187.819 Y68.747
G1 F1200 X178.831 Y59.759 E124.02104
G0 F6000 X178.932 Y59.759
G0 X178.932 Y63.999
G0 X178.831 Y63.999
G1 F1200 X187.818 Y61.591 E124.45428
G0 F6000 X187.6 Y61.591
G0 X178.932 Y76.729
G0 X178.831 Y76.729
G1 F1200 X187.819 Y85.717 E125.04615
G0 F6000 X187.819 Y86.122
G1 F1200 X178.831 Y119.666 E126.6632
G0 F6000 X178.932 Y119.666
G0 X178.932 Y113.692
G0 X178.832 Y113.692
G1 F1200 X187.819 Y111.284 E127.09643
G0 F6000 X187.6 Y111.284
G0 X187.6 Y119.658
G0 X187.819 Y119.658
G1 F1200 X178.831 Y110.67 E127.68831
G0 F6000 X178.932 Y110.67
G0 X178.932 Y101.269
G0 X178.832 Y101.269
G1 F1200 X187.819 Y98.861 E128.12154
G0 F6000 X187.6 Y98.861
G0 X187.6 Y102.688
G0 X187.819 Y102.688
G1 F1200 X178.831 Y93.7 E128.71342
G0 F6000 X178.932 Y93.7
G0 X178.932 Y88.846
G0 X178.832 Y88.846
G1 F1200 X187.818 Y86.438 E129.14661
G1 F1500 E122.64661
G0 F6000 X187.6 Y86.438
G0 X187.6 Y123.708
G1 F1500 E129.14661
G0 F6000 X187.818 Y123.708
G1 F1200 X178.831 Y126.116 E129.57984
G0 F6000 X178.932 Y126.116
G0 X178.932 Y127.641
G0 X178.831 Y127.641
G1 F1200 X187.819 Y136.629 E130.17171
G0 F6000 X187.819 Y136.131
G1 F1200 X178.832 Y138.539 E130.60495
G0 F6000 X178.932 Y138.539
G0 X178.932 Y144.611
G0 X178.831 Y144.611
G1 F1200 X187.819 Y153.599 E131.19682
G0 F6000 X187.6 Y153.599
G0 X187.6 Y148.554
G0 X187.818 Y148.554
G1 F1200 X178.831 Y150.962 E131.63006
G0 F6000 X178.932 Y150.962
G0 X178.932 Y161.582
G0 X178.831 Y161.582
G1 F1200 X187.819 Y170.57 E132.22193
G0 F6000 X187.6 Y170.57
G0 X187.6 Y173.401
G0 X187.818 Y173.401
G1 F1200 X178.831 Y175.809 E132.65517
G0 F6000 X178.932 Y175.809
G0 X178.932 Y178.552
G0 X178.831 Y178.552
G1 F1200 X187.819 Y187.54 E133.24704
G0 F6000 X187.6 Y187.54
G0 X187.6 Y185.824
G0 X187.818 Y185.824
G1 F1200 X180.372 Y187.819 E133.60599
G0 F6000 X180.372 Y187.6
G0 X185.416 Y187.6
G0 X185.416 Y187.82
G1 F1200 X187.819 Y178.851 E134.03835
G0 F6000 X187.6 Y178.851
G0 X178.932 Y166.03
G0 X178.831 Y166.03
G1 F1200 X187.819 Y132.487 E135.65535
G0 F6000 X187.6 Y132.487
G0 X187.6 Y160.978
G0 X187.818 Y160.978
G1 F1200 X178.831 Y163.386 E136.08859
G1 F1500 E129.58859
G0 F6000 X178.932 Y163.386
G0 X179.229 Y187.63
G0 X178.831 Y187.731
G0 X149.642 Y187.733
G0 X149.534 Y182.27
G1 F1500 E136.08859
G0 F6000 X149.633 Y182.27
G1 F1200 X148.146 Y187.819 E136.35609
G0 F6000 X148.146 Y187.6
G0 X137.185 Y187.6
G0 X137.185 Y187.818
G1 F1200 X132.098 Y182.731 E136.69108
G1 F1500 E130.19108
G0 F6000 X132.199 Y182.731
G0 X132.098 Y187.731
G0 X102.909 Y187.733
G0 X102.801 Y119.592
G1 F1500 E136.69108
G0 F6000 X102.901 Y119.592
G1 F1200 X85.365 Y102.057 E137.84582
G0 F6000 X85.466 Y102.057
G0 X85.466 Y76.62
G0 X85.365 Y76.62
G1 F1200 X102.9 Y71.922 E138.69112
G0 F6000 X102.801 Y71.922
G0 X102.801 Y68.681
G0 X102.901 Y68.681
G1 F1200 X85.365 Y51.145 E139.8459
G1 X85.365 Y51.206
G1 X86.444 Y47.179 E140.04002
G0 F6000 X86.444 Y47.4
G0 X85.466 Y51.773
G0 X85.365 Y51.773
G1 F1200 X102.51 Y47.18 E140.86652
G1 F1500 E134.36652
G0 F6000 X102.51 Y47.4
G0 X85.358 Y47.267
G0 X56.169 Y47.269
G0 X56.068 Y72.021
G1 F1500 E140.86652
G0 F6000 X56.166 Y72.021
G1 F1200 X47.18 Y74.428 E141.29969
G1 F1500 E134.79969
G0 F6000 X47.4 Y74.428
G0 X56.176 Y187.733
G0 X85.365 Y187.731
G1 F1500 E141.29969
G0 F6000 X85.326 Y187.54
;TYPE:SKIN
G1 F1200 X85.326 Y47.46 E147.82241
G1 X56.208 Y47.46 E149.17826
G1 X56.208 Y62.019 E149.85619
G1 X56.208 Y187.54 E155.70097
G1 X85.326 Y187.54 E157.05683
G1 F1500 E150.55683
G0 F6000 X85.466 Y187.54
G0 X56.176 Y187.733
G0 X56.068 Y187.338
G1 F1500 E157.05683
G0 F6000 X56.665 Y187.338
G1 F1200 X56.407 Y187.08 E157.07382
G0 F6000 X56.407 Y186.514
G1 F1200 X57.231 Y187.338 E157.12808
G0 F6000 X57.796 Y187.338
G1 F1200 X56.407 Y185.949 E157.21955
G0 F6000 X56.407 Y185.383
G1 F1200 X58.362 Y187.338 E157.34829
G0 F6000 X58.928 Y187.338
G1 F1200 X56.407 Y184.817 E157.5143
G0 F6000 X56.407 Y184.252
G1 F1200 X59.493 Y187.338 E157.71752
G0 F6000 X60.059 Y187.338
G1 F1200 X56.407 Y183.686 E157.95801
G0 F6000 X56.407 Y183.12
G1 F1200 X60.625 Y187.338 E158.23577
G0 F6000 X61.19 Y187.338
G1 F1200 X56.407 Y182.555 E158.55074
G0 F6000 X56.407 Y181.989
G1 F1200 X61.756 Y187.338 E158.90298
G0 F6000 X62.322 Y187.338
G1 F1200 X56.407 Y181.423 E159.29249
G0 F6000 X56.407 Y180.858
G1 F1200 X62.887 Y187.338 E159.71921
G0 F6000 X63.453 Y187.338
G1 F1200 X56.407 Y180.292 E160.18321
G0 F6000 X56.407 Y179.726
G1 F1200 X64.019 Y187.338 E160.68447
G0 F6000 X64.585 Y187.338
G1 F1200 X56.407 Y179.161 E161.22297
G0 F6000 X56.407 Y178.595
G1 F1200 X65.15 Y187.338 E161.79871
G0 F6000 X65.716 Y187.338
G1 F1200 X56.407 Y178.029 E162.41173
G0 F6000 X56.407 Y177.464
G1 F1200 X66.282 Y187.338 E163.06198
G0 F6000 X66.847 Y187.338
G1 F1200 X56.407 Y176.898 E163.74947
G0 F6000 X56.407 Y176.332
G1 F1200 X67.413 Y187.338 E164.47423
G0 F6000 X67.979 Y187.338
G1 F1200 X56.407 Y175.766 E165.23627
G0 F6000 X56.407 Y175.201
G1 F1200 X68.544 Y187.338 E166.03551
G0 F6000 X69.11 Y187.338
G1 F1200 X56.407 Y174.635 E166.87203
G0 F6000 X56.407 Y174.069
G1 F1200 X69.676 Y187.338 E167.74581
G0 F6000 X70.241 Y187.338
G1 F1200 X56.407 Y173.504 E168.65681
G0 F6000 X56.407 Y172.938
G1 F1200 X70.807 Y187.338 E169.60507
G0 F6000 X71.373 Y187.338
G1 F1200 X56.407 Y172.372 E170.59061
G0 F6000 X56.407 Y171.807
G1 F1200 X71.938 Y187.338 E171.61335
G0 F6000 X72.504 Y187.338
G1 F1200 X56.407 Y171.241 E172.67336
G0 F6000 X56.407 Y170.675
G1 F1200 X73.07 Y187.338 E173.77065
G0 F6000 X73.635 Y187.338
G1 F1200 X56.407 Y170.11 E174.90514
G0 F6000 X56.407 Y169.544
G1 F1200 X74.201 Y187.338 E176.07691
G0 F6000 X74.767 Y187.338
G1 F1200 X56.407 Y168.978 E177.28595
G0 F6000 X56.407 Y168.413
G1 F1200 X75.333 Y187.338 E178.53222
G0 F6000 X75.898 Y187.338
G1 F1200 X56.407 Y167.847 E179.81574
G0 F6000 X56.407 Y167.281
G1 F1200 X76.464 Y187.338 E181.13653
G0 F6000 X77.03 Y187.338
G1 F1200 X56.407 Y166.715 E182.49459
G0 F6000 X56.407 Y166.15
G1 F1200 X77.595 Y187.338 E183.88985
G0 F6000 X78.161 Y187.338
G1 F1200 X56.407 Y165.584 E185.32239
G0 F6000 X56.407 Y165.018
G1 F1200 X78.727 Y187.338 E186.7922
G0 F6000 X79.292 Y187.338
G1 F1200 X56.407 Y164.453 E188.29922
G0 F6000 X56.407 Y163.887
G1 F1200 X79.858 Y187.338 E189.84351
G0 F6000 X80.424 Y187.338
G1 F1200 X56.407 Y163.321 E191.42507
G0 F6000 X56.407 Y162.756
G1 F1200 X80.989 Y187.338 E193.04383
G0 F6000 X81.555 Y187.338
G1 F1200 X56.407 Y162.19 E194.69987
G0 F6000 X56.407 Y161.624
G1 F1200 X82.121 Y187.338 E196.39318
G0 F6000 X82.686 Y187.338
G1 F1200 X56.407 Y161.059 E198.1237
G0 F6000 X56.407 Y160.493
G1 F1200 X83.252 Y187.338 E199.89149
G0 F6000 X83.818 Y187.338
G1 F1200 X56.407 Y159.927 E201.69655
G0 F6000 X56.407 Y159.362
G1 F1200 X84.384 Y187.338 E203.53885
G0 F6000 X84.949 Y187.338
G1 F1200 X56.407 Y158.796 E205.41839
G0 F6000 X56.407 Y158.23
G1 F1200 X85.125 Y186.949 E207.30955
G0 F6000 X85.125 Y186.383
G1 F1200 X56.407 Y157.665 E209.20068
G0 F6000 X56.407 Y157.099
G1 F1200 X85.125 Y185.817 E211.09181
G0 F6000 X85.125 Y185.252
G1 F1200 X56.407 Y156.533 E212.98297
G0 F6000 X56.407 Y155.967
