;FLAVOR:Marlin
;TIME:9657
;Filament used: 9.97216m
;Layer height: 0.28
;MINX:88
;MINY:59.5
;MINZ:0.28
;MAXX:147
;MAXY:175.5
;MAXZ:57.96
;TARGET_MACHINE.NAME:Creality CR-6 SE
;Generated with Cura_SteamEngine 5.6.0
M140 S60
M105
M190 S60
M104 S200
M105
M109 S200
M82 ;absolute extrusion mode
M201 X500.00 Y500.00 Z100.00 E5000.00 ;Setup machine max acceleration
M203 X500.00 Y500.00 Z10.00 E50.00 ;Setup machine max feedrate
M204 P500.00 R1000.00 T500.00 ;Setup Print/Retract/Travel acceleration
M205 X8.00 Y8.00 Z0.40 E5.00 ;Setup Jerk
M220 S100 ;Reset Feedrate
M221 S100 ;Reset Flowrate

G28 ;Home

G92 E0 ;Reset Extruder
G1 Z2.0 F3000 ;Move Z Axis up
G1 X10.1 Y20 Z0.28 F5000.0 ;Move to start position
G1 X10.1 Y200.0 Z0.28 F1500.0 E15 ;Draw the first line
G1 X10.4 Y200.0 Z0.28 F5000.0 ;Move to side a little
G1 X10.4 Y20 Z0.28 F1500.0 E30 ;Draw the second line
G92 E0 ;Reset Extruder
G1 Z2.0 F3000 ;Move Z Axis up

G92 E0
G92 E0
G1 F1500 E-6.5
;LAYER_COUNT:207
;LAYER:0
M107
G0 F6000 X90.164 Y63.969 Z0.28
;TYPE:SKIRT
G1 F1500 E0
G1 F1200 X90.731 Y63.265 E0.04209
G1 X91.456 Y62.513 E0.09073
G1 X92.192 Y61.876 E0.13606
G1 X92.924 Y61.346 E0.17814
G1 X93.821 Y60.811 E0.22677
G1 X94.699 Y60.39 E0.27211
G1 X95.612 Y60.048 E0.31751
G1 X96.549 Y59.789 E0.36277
G1 X97.516 Y59.611 E0.40856
G1 X98.655 Y59.515 E0.46178
G1 X99.312 Y59.5 E0.49238
G1 X135.304 Y59.5 E2.16832
G1 X136.184 Y59.513 E2.2093
G1 X137.156 Y59.572 E2.25465
G1 X138.119 Y59.718 E2.3
G1 X139.066 Y59.949 E2.34539
G1 X139.954 Y60.249 E2.38903
G1 X140.846 Y60.639 E2.43437
G1 X141.729 Y61.126 E2.48132
G1 X142.48 Y61.628 E2.52338
G1 X143.295 Y62.286 E2.57216
G1 X143.993 Y62.964 E2.61747
G1 X144.629 Y63.701 E2.6628
G1 X145.199 Y64.491 E2.70816
G1 X145.661 Y65.267 E2.75021
G1 X146.115 Y66.209 E2.79891
G1 X146.444 Y67.087 E2.84256
G1 X146.713 Y68.059 E2.88953
G1 X146.89 Y69.025 E2.93526
G1 X146.985 Y70.155 E2.98806
G1 X147 Y70.83 E3.0195
G1 X146.999 Y163.9 E7.35323
G1 X146.988 Y164.663 E7.38876
G1 X146.931 Y165.636 E7.43414
G1 X146.786 Y166.599 E7.47949
G1 X146.557 Y167.545 E7.52481
G1 X146.246 Y168.469 E7.57021
G1 X145.854 Y169.36 E7.61554
G1 X145.386 Y170.212 E7.6608
G1 X144.864 Y170.993 E7.70454
G1 X144.231 Y171.778 E7.7515
G1 X143.606 Y172.429 E7.79352
G1 X142.817 Y173.117 E7.84227
G1 X142.057 Y173.667 E7.88595
G1 X141.19 Y174.184 E7.93295
G1 X140.312 Y174.606 E7.97831
G1 X139.401 Y174.948 E8.02362
G1 X138.462 Y175.209 E8.06901
G1 X137.496 Y175.387 E8.11474
G1 X136.345 Y175.485 E8.16853
G1 X135.67 Y175.5 E8.19997
G1 X99.564 Y175.499 E9.88122
G1 X98.831 Y175.488 E9.91535
G1 X97.859 Y175.431 E9.96069
G1 X96.896 Y175.285 E10.00605
G1 X95.95 Y175.056 E10.05137
G1 X95.026 Y174.744 E10.09678
G1 X94.136 Y174.352 E10.14206
G1 X93.313 Y173.901 E10.18576
G1 X92.474 Y173.34 E10.23276
G1 X91.77 Y172.774 E10.27482
G1 X91.017 Y172.049 E10.32349
G1 X90.38 Y171.313 E10.36882
G1 X89.85 Y170.582 E10.41086
G1 X89.314 Y169.685 E10.45952
G1 X88.892 Y168.807 E10.50488
G1 X88.55 Y167.895 E10.55023
G1 X88.29 Y166.957 E10.59556
G1 X88.112 Y165.988 E10.64143
G1 X88.014 Y164.809 E10.69652
G1 X88 Y164.158 E10.72684
G1 X88.001 Y71.025 E15.0635
G1 X88.012 Y70.325 E15.0961
G1 X88.07 Y69.352 E15.14149
G1 X88.216 Y68.389 E15.18684
G1 X88.446 Y67.443 E15.23218
G1 X88.759 Y66.52 E15.27756
G1 X89.151 Y65.63 E15.32284
G1 X89.621 Y64.777 E15.36819
G1 X90.164 Y63.969 E15.41352
G0 F6000 X90.476 Y64.22
G1 F1200 X91.043 Y63.516 E15.45562
G1 X91.718 Y62.815 E15.50093
G1 X92.427 Y62.2 E15.54463
G1 X93.159 Y61.67 E15.58671
G1 X93.995 Y61.171 E15.63205
G1 X94.84 Y60.764 E15.67572
G1 X95.719 Y60.433 E15.71946
G1 X96.622 Y60.182 E15.7631
G1 X97.55 Y60.01 E15.80705
G1 X98.689 Y59.914 E15.86027
G1 X99.321 Y59.9 E15.88971
G1 X135.298 Y59.9 E17.56495
G1 X136.16 Y59.912 E17.60509
G1 X137.097 Y59.968 E17.6488
G1 X138.025 Y60.107 E17.69249
G1 X138.938 Y60.328 E17.73623
G1 X139.794 Y60.616 E17.77829
G1 X140.686 Y61.006 E17.82362
G1 X141.507 Y61.459 E17.86728
G1 X142.258 Y61.961 E17.90934
G1 X143.017 Y62.573 E17.95474
G1 X143.691 Y63.226 E17.99844
G1 X144.305 Y63.935 E18.04212
G1 X144.855 Y64.696 E18.08584
G1 X145.317 Y65.472 E18.12789
G1 X145.74 Y66.349 E18.17323
G1 X146.069 Y67.227 E18.21689
G1 X146.32 Y68.132 E18.26062
G1 X146.491 Y69.059 E18.30451
G1 X146.586 Y70.189 E18.35732
G1 X146.6 Y70.83 E18.38717
G1 X146.599 Y163.895 E22.72067
G1 X146.589 Y164.64 E22.75536
G1 X146.535 Y165.577 E22.79906
G1 X146.397 Y166.506 E22.8428
G1 X146.178 Y167.418 E22.88647
G1 X145.88 Y168.308 E22.93017
G1 X145.503 Y169.168 E22.9739
G1 X145.053 Y169.99 E23.01753
G1 X144.531 Y170.771 E23.06127
G1 X143.942 Y171.501 E23.10495
G1 X143.317 Y172.152 E23.14697
G1 X142.582 Y172.793 E23.19238
G1 X141.822 Y173.343 E23.23607
G1 X141.016 Y173.824 E23.27977
G1 X140.171 Y174.232 E23.32347
G1 X139.293 Y174.563 E23.36716
G1 X138.389 Y174.816 E23.41087
G1 X137.462 Y174.988 E23.45477
G1 X136.311 Y175.086 E23.50856
G1 X135.67 Y175.1 E23.53842
G1 X99.57 Y175.099 E25.21938
G1 X98.854 Y175.089 E25.25273
G1 X97.918 Y175.035 E25.29638
G1 X96.989 Y174.896 E25.34012
G1 X96.077 Y174.677 E25.3838
G1 X95.187 Y174.378 E25.42752
G1 X94.328 Y174.001 E25.4712
G1 X93.505 Y173.55 E25.5149
G1 X92.725 Y173.028 E25.5586
G1 X92.021 Y172.462 E25.60066
G1 X91.319 Y171.787 E25.64601
G1 X90.704 Y171.078 E25.68971
G1 X90.174 Y170.347 E25.73176
G1 X89.674 Y169.511 E25.77711
G1 X89.266 Y168.666 E25.82081
G1 X88.935 Y167.788 E25.8645
G1 X88.683 Y166.884 E25.9082
G1 X88.511 Y165.955 E25.95219
G1 X88.413 Y164.776 E26.00728
G1 X88.4 Y164.158 E26.03606
G1 X88.401 Y71.031 E30.37245
G1 X88.411 Y70.348 E30.40425
G1 X88.466 Y69.411 E30.44796
G1 X88.605 Y68.483 E30.49165
G1 X88.825 Y67.571 E30.53534
G1 X89.125 Y66.681 E30.57907
G1 X89.502 Y65.822 E30.62275
G1 X89.953 Y65 E30.66641
G1 X90.476 Y64.22 E30.71014
G0 F6000 X90.788 Y64.471
G1 F1200 X91.355 Y63.767 E30.75223
G1 X91.981 Y63.117 E30.79425
G1 X92.662 Y62.524 E30.8363
G1 X93.394 Y61.994 E30.87838
G1 X94.169 Y61.531 E30.92042
G1 X94.982 Y61.138 E30.96246
G1 X95.827 Y60.818 E31.00454
G1 X96.696 Y60.575 E31.04655
G1 X97.584 Y60.409 E31.08862
G1 X98.723 Y60.313 E31.14184
G1 X99.33 Y60.3 E31.17012
G1 X135.293 Y60.3 E32.8447
G1 X136.137 Y60.311 E32.88401
G1 X137.039 Y60.364 E32.92608
G1 X137.932 Y60.496 E32.96811
G1 X138.81 Y60.707 E33.01016
G1 X139.666 Y60.995 E33.05222
G1 X140.493 Y61.357 E33.09425
G1 X141.285 Y61.792 E33.13633
G1 X142.036 Y62.294 E33.17839
G1 X142.739 Y62.861 E33.22045
G1 X143.389 Y63.488 E33.2625
G1 X143.981 Y64.17 E33.30455
G1 X144.511 Y64.901 E33.34659
G1 X144.973 Y65.677 E33.38865
G1 X145.366 Y66.49 E33.43069
G1 X145.684 Y67.335 E33.47274
G1 X145.927 Y68.205 E33.5148
G1 X146.092 Y69.093 E33.55685
G1 X146.187 Y70.223 E33.60966
G1 X146.2 Y70.83 E33.63793
G1 X146.199 Y163.89 E37.97119
G1 X146.19 Y164.617 E38.00505
G1 X146.139 Y165.519 E38.04711
G1 X146.008 Y166.413 E38.08919
G1 X145.799 Y167.291 E38.13121
G1 X145.513 Y168.148 E38.17328
G1 X145.152 Y168.976 E38.21534
G1 X144.72 Y169.768 E38.25735
G1 X144.219 Y170.52 E38.29943
G1 X143.653 Y171.224 E38.34149
G1 X143.028 Y171.875 E38.38351
G1 X142.347 Y172.469 E38.42559
G1 X141.616 Y173 E38.46766
G1 X140.842 Y173.464 E38.50968
G1 X140.029 Y173.858 E38.55175
G1 X139.185 Y174.178 E38.59378
G1 X138.315 Y174.423 E38.63586
G1 X137.428 Y174.589 E38.67788
G1 X136.277 Y174.687 E38.73167
G1 X135.67 Y174.7 E38.75994
G1 X99.575 Y174.699 E40.44068
G1 X98.877 Y174.69 E40.47318
G1 X97.976 Y174.639 E40.5152
G1 X97.082 Y174.507 E40.55728
G1 X96.204 Y174.298 E40.59931
G1 X95.347 Y174.011 E40.64139
G1 X94.52 Y173.65 E40.68341
G1 X93.727 Y173.217 E40.72548
G1 X92.976 Y172.716 E40.76752
G1 X92.272 Y172.15 E40.80958
G1 X91.621 Y171.524 E40.85164
G1 X91.028 Y170.843 E40.89368
G1 X90.498 Y170.112 E40.93573
G1 X90.034 Y169.337 E40.97779
G1 X89.64 Y168.524 E41.01986
G1 X89.32 Y167.68 E41.06189
G1 X89.076 Y166.81 E41.10396
G1 X88.91 Y165.922 E41.14603
G1 X88.813 Y164.767 E41.2
G1 X88.8 Y164.158 E41.22836
G1 X88.801 Y71.036 E45.56451
G1 X88.81 Y70.371 E45.59548
G1 X88.862 Y69.469 E45.63755
G1 X88.994 Y68.576 E45.67958
G1 X89.204 Y67.698 E45.72162
G1 X89.491 Y66.841 E45.7637
G1 X89.853 Y66.014 E45.80574
G1 X90.286 Y65.222 E45.84777
G1 X90.788 Y64.471 E45.88983
G1 F1500 E39.38983
;MESH:gug-extras.stl
G0 F6000 X98.335 Y70.92
G0 X135.4 Y163.9
;TYPE:WALL-INNER
G1 F1500 E45.88983
G1 F1200 X135.4 Y71.1 E50.21099
G1 X99.6 Y71.1 E51.87799
G1 X99.6 Y163.9 E56.19914
G1 X135.4 Y163.9 E57.86614
G0 F6000 X135.8 Y164.3
;TYPE:WALL-OUTER
G1 F1200 X135.8 Y70.7 E62.22455
G1 X99.2 Y70.7 E63.9288
G1 X99.2 Y164.3 E68.28721
G1 X135.8 Y164.3 E69.99146
G0 F6000 X135.53 Y164.03
G0 X135.3 Y163.54
G0 X135.04 Y163.54
;TYPE:SKIN
G1 F1200 X99.96 Y163.54 E71.62493
G1 X99.96 Y71.46 E75.91256
G1 X135.04 Y71.46 E77.54603
G1 X135.04 Y163.54 E81.83366
G1 F1500 E75.33366
G0 F6000 X135.3 Y163.54
G0 X100.548 Y163.8
G0 X100.548 Y163.339
G1 F1500 E81.83366
G1 F1200 X100.159 Y162.95 E81.85928
G0 F6000 X100.159 Y162.384
G1 F1200 X101.114 Y163.339 E81.92217
G0 F6000 X101.679 Y163.339
G1 F1200 X100.159 Y161.819 E82.02226
G0 F6000 X100.159 Y161.253
G1 F1200 X102.245 Y163.339 E82.15963
G0 F6000 X102.811 Y163.339
G1 F1200 X100.159 Y160.687 E82.33427
G0 F6000 X100.159 Y160.122
G1 F1200 X103.376 Y163.339 E82.54611
G0 F6000 X103.942 Y163.339
G1 F1200 X100.159 Y159.556 E82.79523
G0 F6000 X100.159 Y158.99
G1 F1200 X104.508 Y163.339 E83.08162
G0 F6000 X105.073 Y163.339
G1 F1200 X100.159 Y158.425 E83.40521
G0 F6000 X100.159 Y157.859
G1 F1200 X105.639 Y163.339 E83.76608
G0 F6000 X106.205 Y163.339
G1 F1200 X100.159 Y157.293 E84.16422
G0 F6000 X100.159 Y156.728
G1 F1200 X106.771 Y163.339 E84.5996
G0 F6000 X107.336 Y163.339
G1 F1200 X100.159 Y156.162 E85.07222
G0 F6000 X100.159 Y155.596
G1 F1200 X107.902 Y163.339 E85.58211
G0 F6000 X108.468 Y163.339
G1 F1200 X100.159 Y155.031 E86.12923
G0 F6000 X100.159 Y154.465
G1 F1200 X109.033 Y163.339 E86.7136
G0 F6000 X109.599 Y163.339
G1 F1200 X100.159 Y153.899 E87.33524
G0 F6000 X100.159 Y153.333
G1 F1200 X110.165 Y163.339 E87.99415
G0 F6000 X110.73 Y163.339
G1 F1200 X100.159 Y152.768 E88.69027
G0 F6000 X100.159 Y152.202
G1 F1200 X111.296 Y163.339 E89.42366
G0 F6000 X111.862 Y163.339
G1 F1200 X100.159 Y151.636 E90.19433
G0 F6000 X100.159 Y151.071
G1 F1200 X112.427 Y163.339 E91.00219
G0 F6000 X112.993 Y163.339
G1 F1200 X100.159 Y150.505 E91.84734
G0 F6000 X100.159 Y149.939
G1 F1200 X113.559 Y163.339 E92.72975
G0 F6000 X114.124 Y163.339
G1 F1200 X100.159 Y149.374 E93.64937
G0 F6000 X100.159 Y148.808
G1 F1200 X114.69 Y163.339 E94.60626
G0 F6000 X115.256 Y163.339
G1 F1200 X100.159 Y148.242 E95.60042
G0 F6000 X100.159 Y147.677
G1 F1200 X115.821 Y163.339 E96.63179
G0 F6000 X116.387 Y163.339
G1 F1200 X100.159 Y147.111 E97.70043
G0 F6000 X100.159 Y146.545
G1 F1200 X116.953 Y163.339 E98.80635
G0 F6000 X117.519 Y163.339
G1 F1200 X100.159 Y145.98 E99.9495
G0 F6000 X100.159 Y145.414
G1 F1200 X118.084 Y163.339 E101.12989
G0 F6000 X118.65 Y163.339
G1 F1200 X100.159 Y144.848 E102.34755
G0 F6000 X100.159 Y144.283
G1 F1200 X119.216 Y163.339 E103.60246
G0 F6000 X119.781 Y163.339
G1 F1200 X100.159 Y143.717 E104.8946
G0 F6000 X100.159 Y143.151
G1 F1200 X120.347 Y163.339 E106.22401
G0 F6000 X120.913 Y163.339
G1 F1200 X100.159 Y142.585 E107.5907
G0 F6000 X100.159 Y142.02
G1 F1200 X121.478 Y163.339 E108.99459
G0 F6000 X122.044 Y163.339
G1 F1200 X100.159 Y141.454 E110.43576
G0 F6000 X100.159 Y140.888
G1 F1200 X122.61 Y163.339 E111.91419
G0 F6000 X123.175 Y163.339
G1 F1200 X100.159 Y140.323 E113.42984
G0 F6000 X100.159 Y139.757
G1 F1200 X123.741 Y163.339 E114.98275
G0 F6000 X124.307 Y163.339
G1 F1200 X100.159 Y139.191 E116.57294
G0 F6000 X100.159 Y138.626
G1 F1200 X124.872 Y163.339 E118.20033
G0 F6000 X125.438 Y163.339
G1 F1200 X100.159 Y138.06 E119.865
G0 F6000 X100.159 Y137.494
G1 F1200 X126.004 Y163.339 E121.56694
G0 F6000 X126.569 Y163.339
G1 F1200 X100.159 Y136.929 E123.30608
G0 F6000 X100.159 Y136.363
G1 F1200 X127.135 Y163.339 E125.08249
G0 F6000 X127.701 Y163.339
G1 F1200 X100.159 Y135.797 E126.89618
G0 F6000 X100.159 Y135.232
G1 F1200 X128.267 Y163.339 E128.74711
G0 F6000 X128.832 Y163.339
G1 F1200 X100.159 Y134.666 E130.63528
G0 F6000 X100.159 Y134.1
G1 F1200 X129.398 Y163.339 E132.56071
G0 F6000 X129.964 Y163.339
G1 F1200 X100.159 Y133.534 E134.52342
G0 F6000 X100.159 Y132.969
G1 F1200 X130.529 Y163.339 E136.52334
G0 F6000 X131.095 Y163.339
G1 F1200 X100.159 Y132.403 E138.56053
G0 F6000 X100.159 Y131.837
G1 F1200 X131.661 Y163.339 E140.63499
G0 F6000 X132.226 Y163.339
G1 F1200 X100.159 Y131.272 E142.74666
G0 F6000 X100.159 Y130.706
G1 F1200 X132.792 Y163.339 E144.89559
G0 F6000 X133.358 Y163.339
G1 F1200 X100.159 Y130.14 E147.08181
G0 F6000 X100.159 Y129.575
G1 F1200 X133.923 Y163.339 E149.30522
G0 F6000 X134.489 Y163.339
G1 F1200 X100.159 Y129.009 E151.56591
G0 F6000 X100.159 Y128.443
G1 F1200 X134.84 Y163.124 E153.84971
G0 F6000 X134.84 Y162.558
G1 F1200 X100.159 Y127.878 E156.13348
G0 F6000 X100.159 Y127.312
G1 F1200 X134.84 Y161.993 E158.41729
G0 F6000 X134.84 Y161.427
G1 F1200 X100.159 Y126.746 E160.70109
G0 F6000 X100.159 Y126.181
G1 F1200 X134.84 Y160.861 E162.98486
G0 F6000 X134.84 Y160.296
G1 F1200 X100.159 Y125.615 E165.26866
G0 F6000 X100.159 Y125.049
G1 F1200 X134.84 Y159.73 E167.55247
G0 F6000 X134.84 Y159.164
G1 F1200 X100.159 Y124.484 E169.83624
G0 F6000 X100.159 Y123.918
G1 F1200 X134.84 Y158.599 E172.12004
G0 F6000 X134.84 Y158.033
G1 F1200 X100.159 Y123.352 E174.40384
G0 F6000 X100.159 Y122.786
G1 F1200 X134.84 Y157.467 E176.68765
G0 F6000 X134.84 Y156.902
G1 F1200 X100.159 Y122.221 E178.97145
G0 F6000 X100.159 Y121.655
G1 F1200 X134.84 Y156.336 E181.25525
G0 F6000 X134.84 Y155.77
G1 F1200 X100.159 Y121.089 E183.53906
G0 F6000 X100.159 Y120.524
G1 F1200 X134.84 Y155.204 E185.82283
G0 F6000 X134.84 Y154.639
G1 F1200 X100.159 Y119.958 E188.10663
G0 F6000 X100.159 Y119.392
G1 F1200 X134.84 Y154.073 E190.39043
G0 F6000 X134.84 Y153.507
G1 F1200 X100.159 Y118.827 E192.6742
G0 F6000 X100.159 Y118.261
G1 F1200 X134.84 Y152.942 E194.95801
G0 F6000 X134.84 Y152.376
G1 F1200 X100.159 Y117.695 E197.24181
G0 F6000 X100.159 Y117.13
G1 F1200 X134.84 Y151.81 E199.52558
G0 F6000 X134.84 Y151.245
G1 F1200 X100.159 Y116.564 E201.80938
G0 F6000 X100.159 Y115.998
G1 F1200 X134.84 Y150.679 E204.09318
G0 F6000 X134.84 Y150.113
G1 F1200 X100.159 Y115.433 E206.37695
G0 F6000 X100.159 Y114.867
G1 F1200 X134.84 Y149.548 E208.66076
G0 F6000 X134.84 Y148.982
G1 F1200 X100.159 Y114.301 E210.94456
G0 F6000 X100.159 Y113.736
G1 F1200 X134.84 Y148.416 E213.22833
G0 F6000 X134.84 Y147.851
G1 F1200 X100.159 Y113.17 E215.51213
G0 F6000 X100.159 Y112.604
G1 F1200 X134.84 Y147.285 E217.79594
G0 F6000 X134.84 Y146.719
G1 F1200 X100.159 Y112.038 E220.07974
G0 F6000 X100.159 Y111.473
G1 F1200 X134.84 Y146.154 E222.36354
G0 F6000 X134.84 Y145.588
G1 F1200 X100.159 Y110.907 E224.64735
G0 F6000 X100.159 Y110.341
G1 F1200 X134.84 Y145.022 E226.93115
G0 F6000 X134.84 Y144.456
G1 F1200 X100.159 Y109.776 E229.21492
G0 F6000 X100.159 Y109.21
G1 F1200 X134.84 Y143.891 E231.49872
G0 F6000 X134.84 Y143.325
G1 F1200 X100.159 Y108.644 E233.78253
G0 F6000 X100.159 Y108.079
G1 F1200 X134.84 Y142.759 E236.0663
G0 F6000 X134.84 Y142.194
G1 F1200 X100.159 Y107.513 E238.3501
G0 F6000 X100.159 Y106.947
G1 F1200 X134.84 Y141.628 E240.6339
G0 F6000 X134.84 Y141.062
G1 F1200 X100.159 Y106.382 E242.91767
G0 F6000 X100.159 Y105.816
G1 F1200 X134.84 Y140.497 E245.20148
G0 F6000 X134.84 Y139.931
G1 F1200 X100.159 Y105.25 E247.48528
G0 F6000 X100.159 Y104.685
G1 F1200 X134.84 Y139.365 E249.76905
G0 F6000 X134.84 Y138.8
G1 F1200 X100.159 Y104.119 E252.05285
G0 F6000 X100.159 Y103.553
G1 F1200 X134.84 Y138.234 E254.33665
G0 F6000 X134.84 Y137.668
G1 F1200 X100.159 Y102.987 E256.62046
G0 F6000 X100.159 Y102.422
G1 F1200 X134.84 Y137.103 E258.90426
G0 F6000 X134.84 Y136.537
G1 F1200 X100.159 Y101.856 E261.18806
G0 F6000 X100.159 Y101.29
G1 F1200 X134.84 Y135.971 E263.47187
G0 F6000 X134.84 Y135.405
G1 F1200 X100.159 Y100.725 E265.75564
G0 F6000 X100.159 Y100.159
G1 F1200 X134.84 Y134.84 E268.03944
G0 F6000 X134.84 Y134.274
G1 F1200 X100.159 Y99.593 E270.32324
