;FLAVOR:Marlin
;TIME:35819
;Filament used: 35.3477m
;Layer height: 0.28
;MINX:7.5
;MINY:56
;MINZ:0.28
;MAXX:227.5
;MAXY:179
;MAXZ:50.12
;TARGET_MACHINE.NAME:Creality CR-6 SE
;Generated with Cura_SteamEngine 5.6.0
M140 S60
M105
M190 S60
M104 S200
M105
M109 S200
M82 ;absolute extrusion mode
M201 X500.00 Y500.00 Z100.00 E5000.00 ;Setup machine max acceleration
M203 X500.00 Y500.00 Z10.00 E50.00 ;Setup machine max feedrate
M204 P500.00 R1000.00 T500.00 ;Setup Print/Retract/Travel acceleration
M205 X8.00 Y8.00 Z0.40 E5.00 ;Setup Jerk
M220 S100 ;Reset Feedrate
M221 S100 ;Reset Flowrate

G28 ;Home

G92 E0 ;Reset Extruder
G1 Z2.0 F3000 ;Move Z Axis up
G1 X10.1 Y20 Z0.28 F5000.0 ;Move to start position
G1 X10.1 Y200.0 Z0.28 F1500.0 E15 ;Draw the first line
G1 X10.4 Y200.0 Z0.28 F5000.0 ;Move to side a little
G1 X10.4 Y20 Z0.28 F1500.0 E30 ;Draw the second line
G92 E0 ;Reset Extruder
G1 Z2.0 F3000 ;Move Z Axis up

G92 E0
G92 E0
G1 F1500 E-6.5
;LAYER_COUNT:179
;LAYER:0
M107
G0 F6000 X16.049 Y56.289 Z0.28
;TYPE:SKIRT
G1 F1500 E0
G1 F1200 X17.016 Y56.111 E0.04578
G1 X18.155 Y56.015 E0.09901
G1 X18.812 Y56 E0.12961
G1 X215.804 Y56 E9.30238
G1 X216.684 Y56.013 E9.34336
G1 X217.656 Y56.072 E9.38871
G1 X218.619 Y56.218 E9.43406
G1 X219.566 Y56.449 E9.47945
G1 X220.454 Y56.749 E9.52309
G1 X221.346 Y57.139 E9.56843
G1 X222.229 Y57.626 E9.61538
G1 X222.98 Y58.128 E9.65744
G1 X223.795 Y58.786 E9.70622
G1 X224.493 Y59.464 E9.75153
G1 X225.129 Y60.201 E9.79686
G1 X225.699 Y60.991 E9.84222
G1 X226.161 Y61.767 E9.88427
G1 X226.615 Y62.709 E9.93296
G1 X226.944 Y63.587 E9.97662
G1 X227.213 Y64.559 E10.02359
G1 X227.39 Y65.525 E10.06932
G1 X227.485 Y66.655 E10.12212
G1 X227.5 Y67.33 E10.15356
G1 X227.499 Y80.101 E10.74823
G1 X227.487 Y80.83 E10.78218
G1 X227.438 Y81.701 E10.8228
G1 X227.339 Y82.707 E10.86987
G1 X227.219 Y83.781 E10.92019
G1 X227.003 Y86.316 E11.03866
G1 X226.865 Y88.8 E11.1545
G1 X226.795 Y91.332 E11.27245
G1 X226.797 Y93.844 E11.38942
G1 X226.872 Y96.398 E11.50839
G1 X227.011 Y98.832 E11.62192
G1 X227.233 Y101.425 E11.7431
G1 X227.429 Y103.285 E11.83019
G1 X227.487 Y104.242 E11.87483
G1 X227.499 Y105.03 E11.91153
G1 X227.5 Y167.274 E14.80987
G1 X227.487 Y168.177 E14.85192
G1 X227.429 Y169.15 E14.89731
G1 X227.283 Y170.113 E14.94266
G1 X227.052 Y171.06 E14.98805
G1 X226.739 Y171.982 E15.03339
G1 X226.347 Y172.873 E15.07872
G1 X225.895 Y173.695 E15.1224
G1 X225.333 Y174.533 E15.16938
G1 X224.743 Y175.263 E15.21309
G1 X224.04 Y175.989 E15.26014
G1 X223.304 Y176.625 E15.30544
G1 X222.514 Y177.195 E15.3508
G1 X221.738 Y177.658 E15.39288
G1 X220.798 Y178.111 E15.44146
G1 X219.885 Y178.453 E15.48686
G1 X218.947 Y178.712 E15.53217
G1 X217.981 Y178.889 E15.5779
G1 X216.845 Y178.985 E15.63099
G1 X216.17 Y179 E15.66243
G1 X19.064 Y178.999 E24.84051
G1 X18.331 Y178.988 E24.87464
G1 X17.359 Y178.931 E24.91998
G1 X16.396 Y178.785 E24.96534
G1 X15.45 Y178.556 E25.01066
G1 X14.526 Y178.244 E25.05607
G1 X13.636 Y177.852 E25.10135
G1 X12.813 Y177.401 E25.14505
G1 X11.974 Y176.84 E25.19205
G1 X11.27 Y176.274 E25.23411
G1 X10.517 Y175.549 E25.28278
G1 X9.88 Y174.813 E25.32811
G1 X9.35 Y174.082 E25.37015
G1 X8.814 Y173.185 E25.41881
G1 X8.392 Y172.307 E25.46417
G1 X8.05 Y171.395 E25.50952
G1 X7.79 Y170.457 E25.55485
G1 X7.612 Y169.488 E25.60072
G1 X7.514 Y168.309 E25.65581
G1 X7.5 Y167.658 E25.68613
G1 X7.501 Y67.525 E30.34874
G1 X7.512 Y66.825 E30.38134
G1 X7.57 Y65.852 E30.42673
G1 X7.716 Y64.889 E30.47208
G1 X7.946 Y63.943 E30.51742
G1 X8.259 Y63.02 E30.5628
G1 X8.651 Y62.13 E30.60808
G1 X9.121 Y61.277 E30.65343
G1 X9.664 Y60.469 E30.69876
G1 X10.231 Y59.765 E30.74086
G1 X10.956 Y59.013 E30.78949
G1 X11.692 Y58.376 E30.83482
G1 X12.424 Y57.846 E30.8769
G1 X13.321 Y57.311 E30.92553
G1 X14.199 Y56.89 E30.97087
G1 X15.112 Y56.548 E31.01627
G1 X16.049 Y56.289 E31.06154
G0 F6000 X16.122 Y56.682
G1 F1200 X17.05 Y56.51 E31.10549
G1 X18.189 Y56.414 E31.15871
G1 X18.821 Y56.4 E31.18815
G1 X215.798 Y56.4 E40.36022
G1 X216.66 Y56.412 E40.40036
G1 X217.597 Y56.468 E40.44407
G1 X218.525 Y56.607 E40.48777
G1 X219.438 Y56.828 E40.53151
G1 X220.294 Y57.116 E40.57356
G1 X221.186 Y57.506 E40.61889
G1 X222.007 Y57.959 E40.66255
G1 X222.758 Y58.461 E40.70462
G1 X223.517 Y59.073 E40.75002
G1 X224.191 Y59.726 E40.79372
G1 X224.805 Y60.435 E40.83739
G1 X225.355 Y61.196 E40.88111
G1 X225.817 Y61.972 E40.92316
G1 X226.24 Y62.849 E40.9685
G1 X226.569 Y63.727 E41.01216
G1 X226.82 Y64.632 E41.05589
G1 X226.991 Y65.559 E41.09979
G1 X227.086 Y66.689 E41.15259
G1 X227.1 Y67.33 E41.18244
G1 X227.099 Y80.095 E41.77684
G1 X227.088 Y80.808 E41.81004
G1 X227.04 Y81.662 E41.84987
G1 X226.942 Y82.662 E41.89666
G1 X226.82 Y83.747 E41.9475
G1 X226.605 Y86.282 E42.06596
G1 X226.465 Y88.789 E42.18288
G1 X226.395 Y91.321 E42.30082
G1 X226.397 Y93.844 E42.41831
G1 X226.472 Y96.41 E42.53784
G1 X226.612 Y98.866 E42.65239
G1 X226.835 Y101.467 E42.77395
G1 X227.03 Y103.309 E42.8602
G1 X227.087 Y104.248 E42.904
G1 X227.099 Y105.03 E42.94042
G1 X227.1 Y167.269 E45.83853
G1 X227.088 Y168.154 E45.87974
G1 X227.033 Y169.091 E45.92344
G1 X226.894 Y170.019 E45.96714
G1 X226.673 Y170.932 E46.01088
G1 X226.373 Y171.821 E46.05457
G1 X225.996 Y172.68 E46.09825
G1 X225.544 Y173.502 E46.14193
G1 X225.021 Y174.282 E46.18566
G1 X224.455 Y174.985 E46.22769
G1 X223.778 Y175.687 E46.2731
G1 X223.07 Y176.301 E46.31674
G1 X222.309 Y176.851 E46.36046
G1 X221.533 Y177.314 E46.40253
G1 X220.657 Y177.737 E46.44783
G1 X219.778 Y178.068 E46.49157
G1 X218.874 Y178.319 E46.53525
G1 X217.947 Y178.49 E46.57915
G1 X216.811 Y178.586 E46.63223
G1 X216.17 Y178.6 E46.66209
G1 X19.07 Y178.599 E55.83989
G1 X18.354 Y178.589 E55.87323
G1 X17.418 Y178.535 E55.91689
G1 X16.489 Y178.396 E55.96063
G1 X15.577 Y178.177 E56.0043
G1 X14.687 Y177.878 E56.04802
G1 X13.828 Y177.501 E56.0917
G1 X13.005 Y177.05 E56.1354
G1 X12.225 Y176.528 E56.1791
G1 X11.521 Y175.962 E56.22116
G1 X10.819 Y175.287 E56.26651
G1 X10.204 Y174.578 E56.31022
G1 X9.674 Y173.847 E56.35226
G1 X9.174 Y173.011 E56.39762
G1 X8.766 Y172.166 E56.44131
G1 X8.435 Y171.288 E56.485
G1 X8.183 Y170.384 E56.5287
G1 X8.011 Y169.455 E56.5727
G1 X7.913 Y168.276 E56.62778
G1 X7.9 Y167.658 E56.65657
G1 X7.901 Y67.531 E61.3189
G1 X7.911 Y66.848 E61.35071
G1 X7.966 Y65.911 E61.39441
G1 X8.105 Y64.983 E61.43811
G1 X8.325 Y64.071 E61.48179
G1 X8.625 Y63.181 E61.52552
G1 X9.002 Y62.322 E61.5692
G1 X9.453 Y61.5 E61.61286
G1 X9.976 Y60.72 E61.65659
G1 X10.543 Y60.016 E61.69868
G1 X11.218 Y59.315 E61.744
G1 X11.927 Y58.7 E61.7877
G1 X12.659 Y58.17 E61.82978
G1 X13.495 Y57.671 E61.87512
G1 X14.34 Y57.264 E61.91879
G1 X15.219 Y56.933 E61.96253
G1 X16.122 Y56.682 E62.00617
G0 F6000 X16.196 Y57.075
G1 F1200 X17.084 Y56.909 E62.04823
G1 X18.223 Y56.813 E62.10146
G1 X18.83 Y56.8 E62.12973
G1 X215.793 Y56.8 E71.30115
G1 X216.637 Y56.811 E71.34045
G1 X217.539 Y56.864 E71.38253
G1 X218.432 Y56.996 E71.42456
G1 X219.31 Y57.207 E71.46661
G1 X220.166 Y57.495 E71.50866
G1 X220.993 Y57.857 E71.5507
G1 X221.785 Y58.292 E71.59277
G1 X222.536 Y58.794 E71.63484
G1 X223.239 Y59.361 E71.67689
G1 X223.889 Y59.988 E71.71895
G1 X224.481 Y60.67 E71.761
G1 X225.011 Y61.401 E71.80304
G1 X225.473 Y62.177 E71.84509
G1 X225.866 Y62.99 E71.88714
G1 X226.184 Y63.835 E71.92918
G1 X226.427 Y64.705 E71.97124
G1 X226.592 Y65.593 E72.0133
G1 X226.687 Y66.723 E72.0661
G1 X226.7 Y67.33 E72.09437
G1 X226.699 Y80.089 E72.68849
G1 X226.689 Y80.786 E72.72095
G1 X226.642 Y81.623 E72.75998
G1 X226.545 Y82.617 E72.80649
G1 X226.421 Y83.713 E72.85785
G1 X226.207 Y86.248 E72.97631
G1 X226.065 Y88.778 E73.0943
G1 X225.995 Y91.31 E73.21224
G1 X225.997 Y93.844 E73.33024
G1 X226.072 Y96.422 E73.45033
G1 X226.213 Y98.9 E73.5659
G1 X226.437 Y101.509 E73.68784
G1 X226.631 Y103.333 E73.77325
G1 X226.687 Y104.254 E73.81621
G1 X226.699 Y105.03 E73.85235
G1 X226.7 Y167.264 E76.75023
G1 X226.689 Y168.131 E76.7906
G1 X226.637 Y169.033 E76.83267
G1 X226.505 Y169.926 E76.87471
G1 X226.294 Y170.805 E76.9168
G1 X226.007 Y171.661 E76.95884
G1 X225.645 Y172.488 E77.00088
G1 X225.211 Y173.28 E77.04293
G1 X224.709 Y174.031 E77.08499
G1 X224.143 Y174.734 E77.12702
G1 X223.516 Y175.385 E77.1691
G1 X222.835 Y175.977 E77.21112
G1 X222.104 Y176.507 E77.25316
G1 X221.328 Y176.97 E77.29524
G1 X220.515 Y177.363 E77.33729
G1 X219.67 Y177.683 E77.37936
G1 X218.801 Y177.926 E77.42138
G1 X217.913 Y178.091 E77.46344
G1 X216.777 Y178.187 E77.51652
G1 X216.17 Y178.2 E77.54479
G1 X19.075 Y178.199 E86.72236
G1 X18.377 Y178.19 E86.75486
G1 X17.476 Y178.139 E86.79689
G1 X16.582 Y178.007 E86.83897
G1 X15.704 Y177.798 E86.88099
G1 X14.847 Y177.511 E86.92308
G1 X14.02 Y177.15 E86.96509
G1 X13.227 Y176.717 E87.00716
G1 X12.476 Y176.216 E87.0492
G1 X11.772 Y175.65 E87.09126
G1 X11.121 Y175.024 E87.13332
G1 X10.528 Y174.343 E87.17537
G1 X9.998 Y173.612 E87.21741
G1 X9.534 Y172.837 E87.25947
G1 X9.14 Y172.024 E87.30154
G1 X8.82 Y171.18 E87.34357
G1 X8.576 Y170.31 E87.38564
G1 X8.41 Y169.422 E87.42771
G1 X8.313 Y168.267 E87.48168
G1 X8.3 Y167.658 E87.51004
G1 X8.301 Y67.536 E92.17214
G1 X8.31 Y66.871 E92.20311
G1 X8.362 Y65.969 E92.24518
G1 X8.494 Y65.076 E92.28721
G1 X8.704 Y64.198 E92.32925
G1 X8.991 Y63.341 E92.37133
G1 X9.353 Y62.514 E92.41337
G1 X9.786 Y61.722 E92.4554
G1 X10.288 Y60.971 E92.49746
G1 X10.855 Y60.267 E92.53956
G1 X11.481 Y59.617 E92.58158
G1 X12.162 Y59.024 E92.62362
G1 X12.894 Y58.494 E92.6657
G1 X13.669 Y58.031 E92.70774
G1 X14.482 Y57.638 E92.74979
G1 X15.327 Y57.318 E92.79186
G1 X16.196 Y57.075 E92.83388
G1 F1500 E86.33388
;MESH:gug-base.stl
G0 F6000 X19.3 Y66.335
G0 X215.9 Y167.4
;TYPE:WALL-INNER
G1 F1500 E92.83388
G1 F1200 X215.9 Y105.261 E95.72733
G1 X215.338 Y105.325 E95.75367
G1 X213.212 Y105.319 E95.85267
G1 X212.817 Y105.271 E95.87119
G1 X212.7 Y105.291 E95.87672
G1 X212.268 Y105.324 E95.8969
G1 X199.23 Y105.319 E96.504
G1 X198.792 Y105.264 E96.52455
G1 X198.243 Y105.125 E96.55092
G1 X197.646 Y104.851 E96.58151
G1 X197.075 Y104.442 E96.61422
G1 X196.601 Y103.945 E96.6462
G1 X196.251 Y103.391 E96.67671
G1 X196.021 Y102.822 E96.70529
G1 X195.912 Y102.39 E96.72603
G1 X195.85 Y101.895 E96.74926
G1 X195.857 Y83.147 E97.62225
G1 X195.932 Y82.573 E97.6492
G1 X196.102 Y82.05 E97.67481
G1 X196.342 Y81.541 E97.70102
G1 X196.744 Y80.989 E97.73281
G1 X197.231 Y80.528 E97.76404
G1 X197.752 Y80.201 E97.79268
G1 X198.091 Y80.042 E97.81012
G1 X198.591 Y79.879 E97.8346
G1 X198.95 Y79.81 E97.85163
G1 X199.382 Y79.776 E97.8718
G1 X212.388 Y79.781 E98.47742
G1 X212.783 Y79.829 E98.49595
G1 X212.9 Y79.81 E98.50147
G1 X213.333 Y79.776 E98.52169
G1 X215.468 Y79.785 E98.62111
G1 X215.9 Y79.839 E98.64138
G1 X215.9 Y67.6 E99.21128
G1 X19.1 Y67.6 E108.37511
G1 X19.1 Y167.4 E113.02221
G1 X215.9 Y167.4 E122.18605
G0 F6000 X216.3 Y167.8
;TYPE:WALL-OUTER
G1 F1200 X216.3 Y104.726 E125.12304
G1 X215.879 Y104.86 E125.14361
G1 X215.365 Y104.924 E125.16773
G1 X213.178 Y104.917 E125.26956
G1 X212.811 Y104.866 E125.28682
G1 X212.634 Y104.896 E125.29518
G1 X212.239 Y104.925 E125.31362
G1 X199.232 Y104.918 E125.91928
G1 X198.844 Y104.866 E125.93751
G1 X198.368 Y104.745 E125.96038
G1 X197.826 Y104.493 E125.98821
G1 X197.32 Y104.125 E126.01734
G1 X196.911 Y103.688 E126.04521
G1 X196.597 Y103.191 E126.07259
G1 X196.405 Y102.71 E126.0967
G1 X196.304 Y102.307 E126.11605
G1 X196.25 Y101.867 E126.13669
G1 X196.257 Y83.159 E127.00782
G1 X196.323 Y82.658 E127.03135
G1 X196.474 Y82.197 E127.05393
G1 X196.687 Y81.744 E127.07724
G1 X197.045 Y81.253 E127.10554
G1 X197.477 Y80.844 E127.13324
G1 X197.922 Y80.563 E127.15775
G1 X198.284 Y80.395 E127.17633
G1 X198.667 Y80.272 E127.19506
G1 X199.019 Y80.204 E127.21175
G1 X199.411 Y80.175 E127.23006
G1 X212.422 Y80.183 E127.8359
G1 X212.789 Y80.234 E127.85316
G1 X212.966 Y80.204 E127.86152
G1 X213.361 Y80.175 E127.87996
G1 X215.418 Y80.182 E127.97574
G1 X215.917 Y80.248 E127.99918
G1 X216.3 Y80.374 E128.01795
G1 X216.3 Y67.2 E128.63139
G1 X18.7 Y67.2 E137.83247
G1 X18.7 Y167.8 E142.51683
G1 X216.3 Y167.8 E151.71791
G0 F6000 X216.03 Y167.53
G0 X215.8 Y167.04
G0 X215.54 Y167.04
;TYPE:SKIN
G1 F1200 X19.46 Y167.04 E160.84822
G1 X19.46 Y67.96 E165.4618
G1 X215.54 Y67.96 E174.59211
G1 X215.54 Y79.422 E175.12583
G1 X213.38 Y79.415 E175.22641
G1 X212.948 Y79.443 E175.24656
G1 X212.782 Y79.466 E175.25437
G1 X212.406 Y79.422 E175.27199
G1 X199.413 Y79.415 E175.877
G1 X198.903 Y79.452 E175.90081
G1 X198.402 Y79.556 E175.92464
G1 X197.959 Y79.707 E175.94643
G1 X197.604 Y79.872 E175.96466
G1 X197.024 Y80.234 E175.9965
G1 X196.466 Y80.762 E176.03227
G1 X196.03 Y81.359 E176.06669
G1 X195.765 Y81.923 E176.09571
G1 X195.571 Y82.535 E176.1256
G1 X195.498 Y83.112 E176.15268
G1 X195.49 Y101.9 E177.02753
G1 X195.558 Y102.453 E177.05348
G1 X195.674 Y102.918 E177.07579
G1 X195.915 Y103.527 E177.10629
G1 X196.299 Y104.144 E177.14013
G1 X196.829 Y104.705 E177.17607
G1 X197.433 Y105.148 E177.21094
G1 X198.11 Y105.46 E177.24565
G1 X198.727 Y105.617 E177.2753
G1 X199.197 Y105.678 E177.29737
G1 X212.222 Y105.685 E177.90387
G1 X212.659 Y105.657 E177.92426
G1 X212.825 Y105.636 E177.93205
G1 X213.194 Y105.678 E177.94934
G1 X215.54 Y105.686 E178.05858
G1 X215.54 Y167.04 E180.91548
G1 F1500 E174.41548
G0 F6000 X215.8 Y167.04
G0 X215.717 Y105.121
G0 X212.237 Y105.164
G0 X199.235 Y105.158
G0 X198.286 Y104.97
G0 X197.703 Y104.699
G0 X197.169 Y104.313
G0 X196.727 Y103.84
G0 X196.379 Y103.294
G0 X196.07 Y102.369
G0 X196.011 Y101.892
G0 X196.017 Y83.16
G0 X196.084 Y82.622
G0 X196.48 Y81.622
G0 X196.864 Y81.094
G0 X197.335 Y80.652
G0 X198.184 Y80.176
G0 X198.996 Y79.966
G0 X215.416 Y79.942
G0 X215.727 Y79.981
G0 X215.8 Y68.261
G0 X215.339 Y68.261
G1 F1500 E180.91548
G1 F1200 X215.238 Y68.16 E180.92213
G0 F6000 X214.672 Y68.16
G1 F1200 X215.339 Y68.826 E180.96602
G0 F6000 X215.339 Y69.392
G1 F1200 X214.106 Y68.16 E181.04719
G0 F6000 X213.541 Y68.16
G1 F1200 X215.339 Y69.958 E181.16559
G0 F6000 X215.339 Y70.524
G1 F1200 X212.975 Y68.16 E181.32126
G0 F6000 X212.409 Y68.16
G1 F1200 X215.339 Y71.089 E181.51417
G0 F6000 X215.339 Y71.655
G1 F1200 X211.844 Y68.16 E181.74432
G0 F6000 X211.278 Y68.16
G1 F1200 X215.339 Y72.221 E182.01175
G0 F6000 X215.339 Y72.786
G1 F1200 X210.712 Y68.16 E182.31641
G0 F6000 X210.147 Y68.16
G1 F1200 X215.339 Y73.352 E182.65831
G0 F6000 X215.339 Y73.918
G1 F1200 X209.581 Y68.16 E183.03749
G0 F6000 X209.015 Y68.16
G1 F1200 X215.339 Y74.483 E183.4539
G0 F6000 X215.339 Y75.049
G1 F1200 X208.45 Y68.16 E183.90755
G0 F6000 X207.884 Y68.16
G1 F1200 X215.339 Y75.615 E184.39848
G0 F6000 X215.339 Y76.18
G1 F1200 X207.318 Y68.16 E184.92664
G0 F6000 X206.753 Y68.16
G1 F1200 X215.339 Y76.746 E185.49204
G0 F6000 X215.339 Y77.312
G1 F1200 X206.187 Y68.16 E186.09472
G0 F6000 X205.621 Y68.16
G1 F1200 X215.339 Y77.877 E186.73463
G0 F6000 X215.339 Y78.443
G1 F1200 X205.056 Y68.16 E187.41179
G0 F6000 X204.49 Y68.16
G1 F1200 X215.339 Y79.009 E188.12621
G0 F6000 X214.983 Y79.218
G1 F1200 X203.924 Y68.16 E188.85443
G0 F6000 X203.358 Y68.16
G1 F1200 X214.415 Y79.217 E189.58255
G0 F6000 X213.848 Y79.215
G1 F1200 X202.793 Y68.16 E190.31055
G0 F6000 X202.227 Y68.16
G1 F1200 X213.286 Y79.219 E191.0388
G0 F6000 X212.763 Y79.261
G1 F1200 X201.661 Y68.16 E191.76985
G0 F6000 X201.096 Y68.16
G1 F1200 X212.158 Y79.222 E192.4983
G0 F6000 X211.593 Y79.222
G1 F1200 X200.53 Y68.16 E193.22679
G0 F6000 X199.964 Y68.16
G1 F1200 X211.026 Y79.222 E193.95524
G0 F6000 X210.461 Y79.222
G1 F1200 X199.399 Y68.16 E194.68369
G0 F6000 X198.833 Y68.16
G1 F1200 X209.894 Y79.221 E195.41208
G0 F6000 X209.329 Y79.221
G1 F1200 X198.267 Y68.16 E196.1405
G0 F6000 X197.702 Y68.16
G1 F1200 X208.762 Y79.22 E196.86882
G0 F6000 X208.196 Y79.22
G1 F1200 X197.136 Y68.16 E197.59714
G0 F6000 X196.57 Y68.16
G1 F1200 X207.63 Y79.22 E198.32546
G0 F6000 X207.064 Y79.22
G1 F1200 X196.005 Y68.16 E199.05374
G0 F6000 X195.439 Y68.16
G1 F1200 X206.498 Y79.219 E199.782
G0 F6000 X205.932 Y79.219
G1 F1200 X194.873 Y68.16 E200.51025
G0 F6000 X194.307 Y68.16
G1 F1200 X205.366 Y79.218 E201.23847
G0 F6000 X204.8 Y79.217
G1 F1200 X193.742 Y68.16 E201.96663
G0 F6000 X193.176 Y68.16
G1 F1200 X204.234 Y79.217 E202.69478
