;FLAVOR:Marlin
;TIME:6566
;Filament used: 6.77791m
;Layer height: 0.28
;MINX:78.5
;MINY:82.5
;MINZ:0.28
;MAXX:156.5
;MAXY:152.5
;MAXZ:50.12
;TARGET_MACHINE.NAME:Creality CR-6 SE
;Generated with Cura_SteamEngine 5.6.0
M140 S60
M105
M190 S60
M104 S200
M105
M109 S200
M82 ;absolute extrusion mode
M201 X500.00 Y500.00 Z100.00 E5000.00 ;Setup machine max acceleration
M203 X500.00 Y500.00 Z10.00 E50.00 ;Setup machine max feedrate
M204 P500.00 R1000.00 T500.00 ;Setup Print/Retract/Travel acceleration
M205 X8.00 Y8.00 Z0.40 E5.00 ;Setup Jerk
M220 S100 ;Reset Feedrate
M221 S100 ;Reset Flowrate

G28 ;Home

G92 E0 ;Reset Extruder
G1 Z2.0 F3000 ;Move Z Axis up
G1 X10.1 Y20 Z0.28 F5000.0 ;Move to start position
G1 X10.1 Y200.0 Z0.28 F1500.0 E15 ;Draw the first line
G1 X10.4 Y200.0 Z0.28 F5000.0 ;Move to side a little
G1 X10.4 Y20 Z0.28 F1500.0 E30 ;Draw the second line
G92 E0 ;Reset Extruder
G1 Z2.0 F3000 ;Move Z Axis up

G92 E0
G92 E0
G1 F1500 E-6.5
;LAYER_COUNT:179
;LAYER:0
M107
G0 F6000 X81.956 Y85.513 Z0.28
;TYPE:SKIRT
G1 F1500 E0
G1 F1200 X82.692 Y84.876 E0.04532
G1 X83.424 Y84.346 E0.08741
G1 X84.321 Y83.811 E0.13604
G1 X85.199 Y83.39 E0.18138
G1 X86.112 Y83.048 E0.22678
G1 X87.049 Y82.789 E0.27204
G1 X88.016 Y82.611 E0.31783
G1 X89.155 Y82.515 E0.37105
G1 X89.812 Y82.5 E0.40165
G1 X144.804 Y82.5 E2.96231
G1 X145.684 Y82.513 E3.00329
G1 X146.656 Y82.572 E3.04864
G1 X147.619 Y82.718 E3.09399
G1 X148.566 Y82.949 E3.13938
G1 X149.454 Y83.249 E3.18302
G1 X150.346 Y83.639 E3.22836
G1 X151.229 Y84.126 E3.27531
G1 X151.98 Y84.628 E3.31737
G1 X152.795 Y85.286 E3.36615
G1 X153.493 Y85.964 E3.41146
G1 X154.129 Y86.701 E3.45679
G1 X154.699 Y87.491 E3.50215
G1 X155.161 Y88.267 E3.5442
G1 X155.615 Y89.209 E3.59289
G1 X155.944 Y90.087 E3.63655
G1 X156.213 Y91.059 E3.68352
G1 X156.39 Y92.025 E3.72924
G1 X156.485 Y93.155 E3.78205
G1 X156.5 Y93.83 E3.81349
G1 X156.499 Y140.9 E6.00526
G1 X156.488 Y141.663 E6.0408
G1 X156.431 Y142.636 E6.08618
G1 X156.286 Y143.599 E6.13153
G1 X156.057 Y144.545 E6.17685
G1 X155.746 Y145.469 E6.22225
G1 X155.354 Y146.36 E6.26757
G1 X154.886 Y147.212 E6.31284
G1 X154.364 Y147.993 E6.35658
G1 X153.731 Y148.778 E6.40353
G1 X153.106 Y149.429 E6.44556
G1 X152.317 Y150.117 E6.4943
G1 X151.557 Y150.667 E6.53798
G1 X150.69 Y151.184 E6.58499
G1 X149.812 Y151.606 E6.63035
G1 X148.901 Y151.948 E6.67566
G1 X147.962 Y152.209 E6.72104
G1 X146.996 Y152.387 E6.76678
G1 X145.845 Y152.485 E6.82057
G1 X145.17 Y152.5 E6.85201
G1 X90.064 Y152.499 E9.41797
G1 X89.331 Y152.488 E9.45211
G1 X88.359 Y152.431 E9.49745
G1 X87.396 Y152.285 E9.5428
G1 X86.45 Y152.056 E9.58812
G1 X85.526 Y151.744 E9.63353
G1 X84.636 Y151.352 E9.67882
G1 X83.813 Y150.901 E9.72252
G1 X82.974 Y150.34 E9.76951
G1 X82.27 Y149.774 E9.81158
G1 X81.517 Y149.049 E9.86025
G1 X80.88 Y148.313 E9.90557
G1 X80.35 Y147.582 E9.94762
G1 X79.814 Y146.685 E9.99627
G1 X79.392 Y145.807 E10.04163
G1 X79.05 Y144.895 E10.08699
G1 X78.79 Y143.957 E10.13231
G1 X78.612 Y142.988 E10.17819
G1 X78.514 Y141.809 E10.23328
G1 X78.5 Y141.158 E10.2636
G1 X78.501 Y94.025 E12.45831
G1 X78.512 Y93.325 E12.49091
G1 X78.57 Y92.352 E12.53629
G1 X78.716 Y91.389 E12.58165
G1 X78.946 Y90.443 E12.62698
G1 X79.259 Y89.52 E12.67236
G1 X79.651 Y88.63 E12.71765
G1 X80.121 Y87.777 E12.763
G1 X80.664 Y86.969 E12.80833
G1 X81.231 Y86.265 E12.85042
G1 X81.956 Y85.513 E12.89906
G0 F6000 X82.218 Y85.815
G1 F1200 X82.927 Y85.2 E12.94276
G1 X83.659 Y84.67 E12.98484
G1 X84.495 Y84.171 E13.03018
G1 X85.34 Y83.764 E13.07385
G1 X86.219 Y83.433 E13.11759
G1 X87.122 Y83.182 E13.16123
G1 X88.05 Y83.01 E13.20518
G1 X89.189 Y82.914 E13.2584
G1 X89.821 Y82.9 E13.28784
G1 X144.798 Y82.9 E15.8478
G1 X145.66 Y82.912 E15.88794
G1 X146.597 Y82.968 E15.93165
G1 X147.525 Y83.107 E15.97534
G1 X148.438 Y83.328 E16.01908
G1 X149.294 Y83.616 E16.06114
G1 X150.186 Y84.006 E16.10647
G1 X151.007 Y84.459 E16.15013
G1 X151.758 Y84.961 E16.19219
G1 X152.517 Y85.573 E16.23759
G1 X153.191 Y86.226 E16.28129
G1 X153.805 Y86.935 E16.32496
G1 X154.355 Y87.696 E16.36868
G1 X154.817 Y88.472 E16.41074
G1 X155.24 Y89.349 E16.45608
G1 X155.569 Y90.227 E16.49974
G1 X155.82 Y91.132 E16.54347
G1 X155.991 Y92.059 E16.58736
G1 X156.086 Y93.189 E16.64016
G1 X156.1 Y93.83 E16.67002
G1 X156.099 Y140.895 E18.86156
G1 X156.089 Y141.64 E18.89626
G1 X156.035 Y142.577 E18.93996
G1 X155.897 Y143.506 E18.98369
G1 X155.678 Y144.418 E19.02736
G1 X155.38 Y145.308 E19.07107
G1 X155.003 Y146.168 E19.11479
G1 X154.553 Y146.99 E19.15843
G1 X154.031 Y147.771 E19.20217
G1 X153.442 Y148.501 E19.24585
G1 X152.817 Y149.152 E19.28787
G1 X152.082 Y149.793 E19.33328
G1 X151.322 Y150.343 E19.37696
G1 X150.516 Y150.824 E19.42067
G1 X149.671 Y151.232 E19.46436
G1 X148.793 Y151.563 E19.50805
G1 X147.889 Y151.816 E19.55177
G1 X146.962 Y151.988 E19.59567
G1 X145.811 Y152.086 E19.64946
G1 X145.17 Y152.1 E19.67931
G1 X90.07 Y152.099 E22.245
G1 X89.354 Y152.089 E22.27834
G1 X88.418 Y152.035 E22.322
G1 X87.489 Y151.896 E22.36574
G1 X86.577 Y151.677 E22.40941
G1 X85.687 Y151.378 E22.45313
G1 X84.828 Y151.001 E22.49681
G1 X84.005 Y150.55 E22.54051
G1 X83.225 Y150.028 E22.58421
G1 X82.521 Y149.462 E22.62628
G1 X81.819 Y148.787 E22.67162
G1 X81.204 Y148.078 E22.71533
G1 X80.674 Y147.347 E22.75737
G1 X80.174 Y146.511 E22.80273
G1 X79.766 Y145.666 E22.84642
G1 X79.435 Y144.788 E22.89011
G1 X79.183 Y143.884 E22.93381
G1 X79.011 Y142.955 E22.97781
G1 X78.913 Y141.776 E23.0329
G1 X78.9 Y141.158 E23.06168
G1 X78.901 Y94.031 E25.25611
G1 X78.911 Y93.348 E25.28792
G1 X78.966 Y92.411 E25.33162
G1 X79.105 Y91.483 E25.37532
G1 X79.325 Y90.571 E25.419
G1 X79.625 Y89.681 E25.46273
G1 X80.002 Y88.822 E25.50641
G1 X80.453 Y88 E25.55007
G1 X80.976 Y87.22 E25.5938
G1 X81.543 Y86.516 E25.63589
G1 X82.218 Y85.815 E25.68121
G0 F6000 X82.481 Y86.117
G1 F1200 X83.162 Y85.524 E25.72325
G1 X83.894 Y84.994 E25.76534
G1 X84.669 Y84.531 E25.80737
G1 X85.482 Y84.138 E25.84942
G1 X86.327 Y83.818 E25.89149
G1 X87.196 Y83.575 E25.93351
G1 X88.084 Y83.409 E25.97558
G1 X89.223 Y83.313 E26.0288
G1 X89.83 Y83.3 E26.05707
G1 X144.793 Y83.3 E28.61638
G1 X145.637 Y83.311 E28.65568
G1 X146.539 Y83.364 E28.69776
G1 X147.432 Y83.496 E28.73979
G1 X148.31 Y83.707 E28.78184
G1 X149.166 Y83.995 E28.82389
G1 X149.993 Y84.357 E28.86593
G1 X150.785 Y84.792 E28.908
G1 X151.536 Y85.294 E28.95007
G1 X152.239 Y85.861 E28.99212
G1 X152.889 Y86.488 E29.03417
G1 X153.481 Y87.17 E29.07623
G1 X154.011 Y87.901 E29.11827
G1 X154.473 Y88.677 E29.16032
G1 X154.866 Y89.49 E29.20237
G1 X155.184 Y90.335 E29.24441
G1 X155.427 Y91.205 E29.28647
G1 X155.592 Y92.093 E29.32853
G1 X155.687 Y93.223 E29.38133
G1 X155.7 Y93.83 E29.4096
G1 X155.699 Y140.89 E31.60091
G1 X155.69 Y141.617 E31.63477
G1 X155.639 Y142.519 E31.67684
G1 X155.508 Y143.413 E31.71891
G1 X155.299 Y144.291 E31.76094
G1 X155.013 Y145.148 E31.803
G1 X154.652 Y145.976 E31.84506
G1 X154.22 Y146.768 E31.88707
G1 X153.719 Y147.52 E31.92915
G1 X153.153 Y148.224 E31.97121
G1 X152.528 Y148.875 E32.01323
G1 X151.847 Y149.469 E32.05531
G1 X151.116 Y150 E32.09738
G1 X150.342 Y150.464 E32.1394
G1 X149.529 Y150.858 E32.18147
G1 X148.685 Y151.178 E32.2235
G1 X147.815 Y151.423 E32.26559
G1 X146.928 Y151.589 E32.30761
G1 X145.777 Y151.687 E32.3614
G1 X145.17 Y151.7 E32.38967
G1 X90.075 Y151.699 E34.95512
G1 X89.377 Y151.69 E34.98763
G1 X88.476 Y151.639 E35.02965
G1 X87.582 Y151.507 E35.07173
G1 X86.704 Y151.298 E35.11375
G1 X85.847 Y151.011 E35.15584
G1 X85.02 Y150.65 E35.19785
G1 X84.227 Y150.217 E35.23992
G1 X83.476 Y149.716 E35.28196
G1 X82.772 Y149.15 E35.32402
G1 X82.121 Y148.524 E35.36608
G1 X81.528 Y147.843 E35.40813
G1 X80.998 Y147.112 E35.45017
G1 X80.534 Y146.337 E35.49223
G1 X80.14 Y145.524 E35.5343
G1 X79.82 Y144.68 E35.57633
G1 X79.576 Y143.81 E35.6184
G1 X79.41 Y142.922 E35.66047
G1 X79.313 Y141.767 E35.71444
G1 X79.3 Y141.158 E35.7428
G1 X79.301 Y94.036 E37.937
G1 X79.31 Y93.371 E37.96797
G1 X79.362 Y92.469 E38.01004
G1 X79.494 Y91.576 E38.05207
G1 X79.704 Y90.698 E38.09411
G1 X79.991 Y89.841 E38.13619
G1 X80.353 Y89.014 E38.17823
G1 X80.786 Y88.222 E38.22026
G1 X81.288 Y87.471 E38.26232
G1 X81.855 Y86.767 E38.30441
G1 X82.481 Y86.117 E38.34643
G1 F1500 E31.84643
;MESH:gug-player.stl
G0 F6000 X89.92 Y92.835
G0 X144.9 Y140.9
;TYPE:WALL-INNER
G1 F1500 E38.34643
G1 F1200 X144.9 Y94.1 E40.52564
G1 X90.1 Y94.1 E43.07736
G1 X90.1 Y140.9 E45.25656
G1 X144.9 Y140.9 E47.80828
G0 F6000 X145.3 Y141.3
;TYPE:WALL-OUTER
G1 F1200 X145.3 Y93.7 E50.02473
G1 X89.7 Y93.7 E52.6137
G1 X89.7 Y141.3 E54.83016
G1 X145.3 Y141.3 E57.41913
G0 F6000 X145.03 Y141.03
G0 X144.8 Y140.54
G0 X144.54 Y140.54
;TYPE:SKIN
G1 F1200 X90.46 Y140.54 E59.93732
G1 X90.46 Y94.46 E62.083
G1 X144.54 Y94.46 E64.60119
G1 X144.54 Y140.54 E66.74686
G1 F1500 E60.24686
G0 F6000 X144.8 Y140.54
G0 X144.8 Y95.124
G0 X144.339 Y95.124
G1 F1500 E66.74686
G1 F1200 X143.874 Y94.659 E66.77749
G0 F6000 X143.308 Y94.659
G1 F1200 X144.339 Y95.69 E66.84538
G0 F6000 X144.339 Y96.256
G1 F1200 X142.742 Y94.659 E66.95054
G0 F6000 X142.177 Y94.659
G1 F1200 X144.339 Y96.822 E67.09295
G0 F6000 X144.339 Y97.387
G1 F1200 X141.611 Y94.659 E67.27259
G0 F6000 X141.045 Y94.659
G1 F1200 X144.339 Y97.953 E67.48951
G0 F6000 X144.339 Y98.519
G1 F1200 X140.48 Y94.659 E67.74366
G0 F6000 X139.914 Y94.659
G1 F1200 X144.339 Y99.084 E68.03506
G0 F6000 X144.339 Y99.65
G1 F1200 X139.348 Y94.659 E68.36372
G0 F6000 X138.783 Y94.659
G1 F1200 X144.339 Y100.216 E68.72963
G0 F6000 X144.339 Y100.781
G1 F1200 X138.217 Y94.659 E69.13277
G0 F6000 X137.651 Y94.659
G1 F1200 X144.339 Y101.347 E69.57319
G0 F6000 X144.339 Y101.913
G1 F1200 X137.086 Y94.659 E70.05084
G0 F6000 X136.52 Y94.659
G1 F1200 X144.339 Y102.478 E70.56574
G0 F6000 X144.339 Y103.044
G1 F1200 X135.954 Y94.659 E71.1179
G0 F6000 X135.389 Y94.659
G1 F1200 X144.339 Y103.61 E71.70731
G0 F6000 X144.339 Y104.175
G1 F1200 X134.823 Y94.659 E72.33395
G0 F6000 X134.257 Y94.659
G1 F1200 X144.339 Y104.741 E72.99787
G0 F6000 X144.339 Y105.307
G1 F1200 X133.691 Y94.659 E73.69906
G0 F6000 X133.126 Y94.659
G1 F1200 X144.339 Y105.872 E74.43745
G0 F6000 X144.339 Y106.438
G1 F1200 X132.56 Y94.659 E75.21312
G0 F6000 X131.994 Y94.659
G1 F1200 X144.339 Y107.004 E76.02606
G0 F6000 X144.339 Y107.57
G1 F1200 X131.429 Y94.659 E76.87624
G0 F6000 X130.863 Y94.659
G1 F1200 X144.339 Y108.135 E77.76366
G0 F6000 X144.339 Y108.701
G1 F1200 X130.297 Y94.659 E78.68835
G0 F6000 X129.732 Y94.659
G1 F1200 X144.339 Y109.267 E79.65028
G0 F6000 X144.339 Y109.832
G1 F1200 X129.166 Y94.659 E80.64944
G0 F6000 X128.6 Y94.659
G1 F1200 X144.339 Y110.398 E81.68588
G0 F6000 X144.339 Y110.964
G1 F1200 X128.035 Y94.659 E82.75956
G0 F6000 X127.469 Y94.659
G1 F1200 X144.339 Y111.529 E83.87048
G0 F6000 X144.339 Y112.095
G1 F1200 X126.903 Y94.659 E85.01867
G0 F6000 X126.338 Y94.659
G1 F1200 X144.339 Y112.661 E86.2041
G0 F6000 X144.339 Y113.226
G1 F1200 X125.772 Y94.659 E87.42677
G0 F6000 X125.206 Y94.659
G1 F1200 X144.339 Y113.792 E88.68671
G0 F6000 X144.339 Y114.358
G1 F1200 X124.641 Y94.659 E89.98389
G0 F6000 X124.075 Y94.659
G1 F1200 X144.339 Y114.923 E91.31831
G0 F6000 X144.339 Y115.489
G1 F1200 X123.509 Y94.659 E92.69
G0 F6000 X122.943 Y94.659
G1 F1200 X144.339 Y116.055 E94.09896
G0 F6000 X144.339 Y116.621
G1 F1200 X122.378 Y94.659 E95.54517
G0 F6000 X121.812 Y94.659
G1 F1200 X144.339 Y117.186 E97.02861
G0 F6000 X144.339 Y117.752
G1 F1200 X121.246 Y94.659 E98.54932
G0 F6000 X120.681 Y94.659
G1 F1200 X144.339 Y118.318 E100.10727
G0 F6000 X144.339 Y118.883
G1 F1200 X120.115 Y94.659 E101.70247
G0 F6000 X119.549 Y94.659
G1 F1200 X144.339 Y119.449 E103.33493
G0 F6000 X144.339 Y120.015
G1 F1200 X118.984 Y94.659 E105.00463
G0 F6000 X118.418 Y94.659
G1 F1200 X144.339 Y120.58 E106.71157
G0 F6000 X144.339 Y121.146
G1 F1200 X117.852 Y94.659 E108.45579
G0 F6000 X117.287 Y94.659
G1 F1200 X144.339 Y121.712 E110.23724
G0 F6000 X144.339 Y122.277
G1 F1200 X116.721 Y94.659 E112.05593
G0 F6000 X116.155 Y94.659
G1 F1200 X144.339 Y122.843 E113.9119
G0 F6000 X144.339 Y123.409
G1 F1200 X115.59 Y94.659 E115.8051
G0 F6000 X115.024 Y94.659
G1 F1200 X144.339 Y123.974 E117.73555
G0 F6000 X144.339 Y124.54
G1 F1200 X114.458 Y94.659 E119.70326
G0 F6000 X113.892 Y94.659
G1 F1200 X144.339 Y125.106 E121.70825
G0 F6000 X144.339 Y125.671
G1 F1200 X113.327 Y94.659 E123.75044
G0 F6000 X112.761 Y94.659
G1 F1200 X144.339 Y126.237 E125.82991
G0 F6000 X144.339 Y126.803
G1 F1200 X112.195 Y94.659 E127.94664
G0 F6000 X111.63 Y94.659
G1 F1200 X144.339 Y127.369 E130.10062
G0 F6000 X144.339 Y127.934
G1 F1200 X111.064 Y94.659 E132.29183
G0 F6000 X110.498 Y94.659
G1 F1200 X144.339 Y128.5 E134.52032
G0 F6000 X144.339 Y129.066
G1 F1200 X109.933 Y94.659 E136.78605
G0 F6000 X109.367 Y94.659
G1 F1200 X144.339 Y129.631 E139.08901
G0 F6000 X144.339 Y130.197
G1 F1200 X108.801 Y94.659 E141.42925
G0 F6000 X108.236 Y94.659
G1 F1200 X144.339 Y130.763 E143.80673
G0 F6000 X144.339 Y131.328
G1 F1200 X107.67 Y94.659 E146.22145
G0 F6000 X107.104 Y94.659
G1 F1200 X144.339 Y131.894 E148.67343
G0 F6000 X144.339 Y132.46
G1 F1200 X106.539 Y94.659 E151.16266
G0 F6000 X105.973 Y94.659
G1 F1200 X144.339 Y133.025 E153.68913
G0 F6000 X144.339 Y133.591
G1 F1200 X105.407 Y94.659 E156.25287
G0 F6000 X104.842 Y94.659
G1 F1200 X144.339 Y134.157 E158.85385
G0 F6000 X144.339 Y134.722
G1 F1200 X104.276 Y94.659 E161.49206
G0 F6000 X103.71 Y94.659
G1 F1200 X144.339 Y135.288 E164.16755
G0 F6000 X144.339 Y135.854
G1 F1200 X103.144 Y94.659 E166.88031
G0 F6000 X102.579 Y94.659
G1 F1200 X144.339 Y136.419 E169.63028
G0 F6000 X144.339 Y136.985
G1 F1200 X102.013 Y94.659 E172.41752
G0 F6000 X101.447 Y94.659
G1 F1200 X144.339 Y137.551 E175.24203
G0 F6000 X144.339 Y138.117
G1 F1200 X100.882 Y94.659 E178.10378
G0 F6000 X100.316 Y94.659
G1 F1200 X144.339 Y138.682 E181.00277
G0 F6000 X144.339 Y139.248
G1 F1200 X99.75 Y94.659 E183.93903
G0 F6000 X99.185 Y94.659
G1 F1200 X144.339 Y139.814 E186.91253
G0 F6000 X144.299 Y140.339
G1 F1200 X98.619 Y94.659 E189.92064
G0 F6000 X98.053 Y94.659
G1 F1200 X143.733 Y140.339 E192.92875
G0 F6000 X143.167 Y140.339
G1 F1200 X97.488 Y94.659 E195.93682
G0 F6000 X96.922 Y94.659
G1 F1200 X142.602 Y140.339 E198.94492
G0 F6000 X142.036 Y140.339
G1 F1200 X96.356 Y94.659 E201.95303
G0 F6000 X95.791 Y94.659
G1 F1200 X141.47 Y140.339 E204.9611
G0 F6000 X140.905 Y140.339
G1 F1200 X95.225 Y94.659 E207.96921
G0 F6000 X94.659 Y94.659
G1 F1200 X140.339 Y140.339 E210.97732
G0 F6000 X139.773 Y140.339
G1 F1200 X94.093 Y94.659 E213.98542
G0 F6000 X93.528 Y94.659
G1 F1200 X139.208 Y140.339 E216.99353
G0 F6000 X138.642 Y140.339
G1 F1200 X92.962 Y94.659 E220.00163
G0 F6000 X92.396 Y94.659
G1 F1200 X138.076 Y140.339 E223.00974
G0 F6000 X137.511 Y140.339
G1 F1200 X91.831 Y94.659 E226.01785
G0 F6000 X91.265 Y94.659
G1 F1200 X136.945 Y140.339 E229.02595
G0 F6000 X136.379 Y140.339
G1 F1200 X90.699 Y94.659 E232.03406
G0 F6000 X90.659 Y95.185
G1 F1200 X135.813 Y140.339 E235.00753
G0 F6000 X135.248 Y140.339
G1 F1200 X90.659 Y95.75 E237.94379
G0 F6000 X90.659 Y96.316
G1 F1200 X134.682 Y140.339 E240.84278
G0 F6000 X134.116 Y140.339
G1 F1200 X90.659 Y96.882 E243.7045
G0 F6000 X90.659 Y97.447
G1 F1200 X133.551 Y140.339 E246.52901
G0 F6000 X132.985 Y140.339
G1 F1200 X90.659 Y98.013 E249.31625
G0 F6000 X90.659 Y98.579
G1 F1200 X132.419 Y140.339 E252.06621
G0 F6000 X131.854 Y140.339
G1 F1200 X90.659 Y99.144 E254.77897
G0 F6000 X90.659 Y99.71
G1 F1200 X131.288 Y140.339 E257.45446
G0 F6000 X130.722 Y140.339
G1 F1200 X90.659 Y100.276 E260.09268
G0 F6000 X90.659 Y100.841
G1 F1200 X130.157 Y140.339 E262.69369
G0 F6000 X129.591 Y140.339
G1 F1200 X90.659 Y101.407 E265.25743
G0 F6000 X90.659 Y101.973
G1 F1200 X129.025 Y140.339 E267.7839
G0 F6000 X128.46 Y140.339
G1 F1200 X90.659 Y102.538 E270.27316
G0 F6000 X90.659 Y103.104
G1 F1200 X127.894 Y140.339 E272.72515
G0 F6000 X127.328 Y140.339
G1 F1200 X90.659 Y103.67 E275.13986
G0 F6000 X90.659 Y104.236
G1 F1200 X126.763 Y140.339 E277.51734
G0 F6000 X126.197 Y140.339
G1 F1200 X90.659 Y104.801 E279.85758
G0 F6000 X90.659 Y105.367
G1 F1200 X125.631 Y140.339 E282.16054
G0 F6000 X125.065 Y140.339
