;FLAVOR:Marlin
;TIME:10302
;Filament used: 10.6813m
;Layer height: 0.28
;MINX:84.5
;MINY:59.5
;MINZ:0.28
;MAXX:150.5
;MAXY:175.5
;MAXZ:57.96
;TARGET_MACHINE.NAME:Creality CR-6 SE
;Generated with Cura_SteamEngine 5.6.0
M140 S60
M105
M190 S60
M104 S200
M105
M109 S200
M82 ;absolute extrusion mode
M201 X500.00 Y500.00 Z100.00 E5000.00 ;Setup machine max acceleration
M203 X500.00 Y500.00 Z10.00 E50.00 ;Setup machine max feedrate
M204 P500.00 R1000.00 T500.00 ;Setup Print/Retract/Travel acceleration
M205 X8.00 Y8.00 Z0.40 E5.00 ;Setup Jerk
M220 S100 ;Reset Feedrate
M221 S100 ;Reset Flowrate

G28 ;Home

G92 E0 ;Reset Extruder
G1 Z2.0 F3000 ;Move Z Axis up
G1 X10.1 Y20 Z0.28 F5000.0 ;Move to start position
G1 X10.1 Y200.0 Z0.28 F1500.0 E15 ;Draw the first line
G1 X10.4 Y200.0 Z0.28 F5000.0 ;Move to side a little
G1 X10.4 Y20 Z0.28 F1500.0 E30 ;Draw the second line
G92 E0 ;Reset Extruder
G1 Z2.0 F3000 ;Move Z Axis up

G92 E0
G92 E0
G1 F1500 E-6.5
;LAYER_COUNT:207
;LAYER:0
M107
G0 F6000 X86.664 Y63.969 Z0.28
;TYPE:SKIRT
G1 F1500 E0
G1 F1200 X87.231 Y63.265 E0.04209
G1 X87.956 Y62.513 E0.09073
G1 X88.692 Y61.876 E0.13606
G1 X89.424 Y61.346 E0.17814
G1 X90.321 Y60.811 E0.22677
G1 X91.199 Y60.39 E0.27211
G1 X92.112 Y60.048 E0.31751
G1 X93.049 Y59.789 E0.36277
G1 X94.016 Y59.611 E0.40856
G1 X95.155 Y59.515 E0.46178
G1 X95.812 Y59.5 E0.49238
G1 X138.804 Y59.5 E2.49427
G1 X139.684 Y59.513 E2.53525
G1 X140.656 Y59.572 E2.5806
G1 X141.619 Y59.718 E2.62595
G1 X142.566 Y59.949 E2.67134
G1 X143.454 Y60.249 E2.71498
G1 X144.346 Y60.639 E2.76032
G1 X145.229 Y61.126 E2.80727
G1 X145.98 Y61.628 E2.84933
G1 X146.795 Y62.286 E2.89811
G1 X147.493 Y62.964 E2.94342
G1 X148.129 Y63.701 E2.98875
G1 X148.699 Y64.491 E3.03411
G1 X149.161 Y65.267 E3.07616
G1 X149.615 Y66.209 E3.12485
G1 X149.944 Y67.087 E3.16851
G1 X150.213 Y68.059 E3.21548
G1 X150.39 Y69.025 E3.26121
G1 X150.485 Y70.155 E3.31401
G1 X150.5 Y70.83 E3.34545
G1 X150.499 Y163.9 E7.67918
G1 X150.488 Y164.663 E7.71471
G1 X150.431 Y165.636 E7.76009
G1 X150.286 Y166.599 E7.80544
G1 X150.057 Y167.545 E7.85076
G1 X149.746 Y168.469 E7.89616
G1 X149.354 Y169.36 E7.94149
G1 X148.886 Y170.212 E7.98675
G1 X148.364 Y170.993 E8.03049
G1 X147.731 Y171.778 E8.07745
G1 X147.106 Y172.429 E8.11947
G1 X146.317 Y173.117 E8.16821
G1 X145.557 Y173.667 E8.2119
G1 X144.69 Y174.184 E8.2589
G1 X143.812 Y174.606 E8.30426
G1 X142.901 Y174.948 E8.34957
G1 X141.962 Y175.209 E8.39495
G1 X140.996 Y175.387 E8.44069
G1 X139.845 Y175.485 E8.49448
G1 X139.17 Y175.5 E8.52592
G1 X96.064 Y175.499 E10.53312
G1 X95.331 Y175.488 E10.56725
G1 X94.359 Y175.431 E10.61259
G1 X93.396 Y175.285 E10.65794
G1 X92.45 Y175.056 E10.70327
G1 X91.526 Y174.744 E10.74868
G1 X90.636 Y174.352 E10.79396
G1 X89.813 Y173.901 E10.83766
G1 X88.974 Y173.34 E10.88466
G1 X88.27 Y172.774 E10.92672
G1 X87.517 Y172.049 E10.97539
G1 X86.88 Y171.313 E11.02072
G1 X86.35 Y170.582 E11.06276
G1 X85.814 Y169.685 E11.11142
G1 X85.392 Y168.807 E11.15678
G1 X85.05 Y167.895 E11.20213
G1 X84.79 Y166.957 E11.24746
G1 X84.612 Y165.988 E11.29333
G1 X84.514 Y164.809 E11.34842
G1 X84.5 Y164.158 E11.37874
G1 X84.501 Y71.025 E15.7154
G1 X84.512 Y70.325 E15.748
G1 X84.57 Y69.352 E15.79339
G1 X84.716 Y68.389 E15.83874
G1 X84.946 Y67.443 E15.88408
G1 X85.259 Y66.52 E15.92946
G1 X85.651 Y65.63 E15.97474
G1 X86.121 Y64.777 E16.02009
G1 X86.664 Y63.969 E16.06542
G0 F6000 X86.976 Y64.22
G1 F1200 X87.543 Y63.516 E16.10751
G1 X88.218 Y62.815 E16.15283
G1 X88.927 Y62.2 E16.19653
G1 X89.659 Y61.67 E16.23861
G1 X90.495 Y61.171 E16.28395
G1 X91.34 Y60.764 E16.32762
G1 X92.219 Y60.433 E16.37136
G1 X93.122 Y60.182 E16.415
G1 X94.05 Y60.01 E16.45895
G1 X95.189 Y59.914 E16.51217
G1 X95.821 Y59.9 E16.54161
G1 X138.798 Y59.9 E18.5428
G1 X139.66 Y59.912 E18.58294
G1 X140.597 Y59.968 E18.62665
G1 X141.525 Y60.107 E18.67034
G1 X142.438 Y60.328 E18.71408
G1 X143.294 Y60.616 E18.75613
G1 X144.186 Y61.006 E18.80147
G1 X145.007 Y61.459 E18.84513
G1 X145.758 Y61.961 E18.88719
G1 X146.517 Y62.573 E18.93259
G1 X147.191 Y63.226 E18.97629
G1 X147.805 Y63.935 E19.01996
G1 X148.355 Y64.696 E19.06368
G1 X148.817 Y65.472 E19.10574
G1 X149.24 Y66.349 E19.15108
G1 X149.569 Y67.227 E19.19474
G1 X149.82 Y68.132 E19.23847
G1 X149.991 Y69.059 E19.28236
G1 X150.086 Y70.189 E19.33516
G1 X150.1 Y70.83 E19.36502
G1 X150.099 Y163.895 E23.69851
G1 X150.089 Y164.64 E23.73321
G1 X150.035 Y165.577 E23.77691
G1 X149.897 Y166.506 E23.82064
G1 X149.678 Y167.418 E23.86432
G1 X149.38 Y168.308 E23.90802
G1 X149.003 Y169.168 E23.95174
G1 X148.553 Y169.99 E23.99538
G1 X148.031 Y170.771 E24.03912
G1 X147.442 Y171.501 E24.0828
G1 X146.817 Y172.152 E24.12482
G1 X146.082 Y172.793 E24.17023
G1 X145.322 Y173.343 E24.21392
G1 X144.516 Y173.824 E24.25762
G1 X143.671 Y174.232 E24.30132
G1 X142.793 Y174.563 E24.34501
G1 X141.889 Y174.816 E24.38872
G1 X140.962 Y174.988 E24.43262
G1 X139.811 Y175.086 E24.48641
G1 X139.17 Y175.1 E24.51626
G1 X96.07 Y175.099 E26.52318
G1 X95.354 Y175.089 E26.55652
G1 X94.418 Y175.035 E26.60018
G1 X93.489 Y174.896 E26.64392
G1 X92.577 Y174.677 E26.68759
G1 X91.687 Y174.378 E26.73131
G1 X90.828 Y174.001 E26.77499
G1 X90.005 Y173.55 E26.81869
G1 X89.225 Y173.028 E26.8624
G1 X88.521 Y172.462 E26.90446
G1 X87.819 Y171.787 E26.94981
G1 X87.204 Y171.078 E26.99351
G1 X86.674 Y170.347 E27.03555
G1 X86.174 Y169.511 E27.08091
G1 X85.766 Y168.666 E27.12461
G1 X85.435 Y167.788 E27.1683
G1 X85.183 Y166.884 E27.212
G1 X85.011 Y165.955 E27.25599
G1 X84.913 Y164.776 E27.31108
G1 X84.9 Y164.158 E27.33986
G1 X84.901 Y71.031 E31.67624
G1 X84.911 Y70.348 E31.70805
G1 X84.966 Y69.411 E31.75176
G1 X85.105 Y68.483 E31.79545
G1 X85.325 Y67.571 E31.83914
G1 X85.625 Y66.681 E31.88287
G1 X86.002 Y65.822 E31.92655
G1 X86.453 Y65 E31.97021
G1 X86.976 Y64.22 E32.01394
G0 F6000 X87.288 Y64.471
G1 F1200 X87.855 Y63.767 E32.05603
G1 X88.481 Y63.117 E32.09805
G1 X89.162 Y62.524 E32.1401
G1 X89.894 Y61.994 E32.18218
G1 X90.669 Y61.531 E32.22421
G1 X91.482 Y61.138 E32.26626
G1 X92.327 Y60.818 E32.30834
G1 X93.196 Y60.575 E32.35035
G1 X94.084 Y60.409 E32.39242
G1 X95.223 Y60.313 E32.44564
G1 X95.83 Y60.3 E32.47391
G1 X138.793 Y60.3 E34.47445
G1 X139.637 Y60.311 E34.51375
G1 X140.539 Y60.364 E34.55583
G1 X141.432 Y60.496 E34.59786
G1 X142.31 Y60.707 E34.63991
G1 X143.166 Y60.995 E34.68196
G1 X143.993 Y61.357 E34.724
G1 X144.785 Y61.792 E34.76607
G1 X145.536 Y62.294 E34.80814
G1 X146.239 Y62.861 E34.85019
G1 X146.889 Y63.488 E34.89225
G1 X147.481 Y64.17 E34.9343
G1 X148.011 Y64.901 E34.97634
G1 X148.473 Y65.677 E35.01839
G1 X148.866 Y66.49 E35.06044
G1 X149.184 Y67.335 E35.10248
G1 X149.427 Y68.205 E35.14454
G1 X149.592 Y69.093 E35.1866
G1 X149.687 Y70.223 E35.2394
G1 X149.7 Y70.83 E35.26767
G1 X149.699 Y163.89 E39.60094
G1 X149.69 Y164.617 E39.63479
G1 X149.639 Y165.519 E39.67686
G1 X149.508 Y166.413 E39.71893
G1 X149.299 Y167.291 E39.76096
G1 X149.013 Y168.148 E39.80303
G1 X148.652 Y168.976 E39.84509
G1 X148.22 Y169.768 E39.8871
G1 X147.719 Y170.52 E39.92917
G1 X147.153 Y171.224 E39.97123
G1 X146.528 Y171.875 E40.01326
G1 X145.847 Y172.469 E40.05533
G1 X145.116 Y173 E40.09741
G1 X144.342 Y173.464 E40.13943
G1 X143.529 Y173.858 E40.18149
G1 X142.685 Y174.178 E40.22352
G1 X141.815 Y174.423 E40.26561
G1 X140.928 Y174.589 E40.30763
G1 X139.777 Y174.687 E40.36142
G1 X139.17 Y174.7 E40.38969
G1 X96.075 Y174.699 E42.39637
G1 X95.377 Y174.69 E42.42888
G1 X94.476 Y174.639 E42.4709
G1 X93.582 Y174.507 E42.51298
G1 X92.704 Y174.298 E42.55501
G1 X91.847 Y174.011 E42.59709
G1 X91.02 Y173.65 E42.63911
G1 X90.227 Y173.217 E42.68118
G1 X89.476 Y172.716 E42.72322
G1 X88.772 Y172.15 E42.76528
G1 X88.121 Y171.524 E42.80733
G1 X87.528 Y170.843 E42.84938
G1 X86.998 Y170.112 E42.89142
G1 X86.534 Y169.337 E42.93348
G1 X86.14 Y168.524 E42.97555
G1 X85.82 Y167.68 E43.01758
G1 X85.576 Y166.81 E43.05966
G1 X85.41 Y165.922 E43.10172
G1 X85.313 Y164.767 E43.15569
G1 X85.3 Y164.158 E43.18406
G1 X85.301 Y71.036 E47.52021
G1 X85.31 Y70.371 E47.55117
G1 X85.362 Y69.469 E47.59325
G1 X85.494 Y68.576 E47.63528
G1 X85.704 Y67.698 E47.67732
G1 X85.991 Y66.841 E47.7194
G1 X86.353 Y66.014 E47.76144
G1 X86.786 Y65.222 E47.80347
G1 X87.288 Y64.471 E47.84553
G1 F1500 E41.34553
;MESH:gug-extras.stl
G0 F6000 X94.835 Y70.92
G0 X138.9 Y163.9
;TYPE:WALL-INNER
G1 F1500 E47.84553
G1 F1200 X138.9 Y71.1 E52.16669
G1 X96.1 Y71.1 E54.15963
G1 X96.1 Y163.9 E58.48079
G1 X138.9 Y163.9 E60.47374
G0 F6000 X139.3 Y164.3
;TYPE:WALL-OUTER
G1 F1200 X139.3 Y70.7 E64.83214
G1 X95.7 Y70.7 E66.86234
G1 X95.7 Y164.3 E71.22075
G1 X139.3 Y164.3 E73.25095
G0 F6000 X139.03 Y164.03
G0 X138.8 Y163.54
G0 X138.54 Y163.54
;TYPE:SKIN
G1 F1200 X96.46 Y163.54 E75.21037
G1 X96.46 Y71.46 E79.498
G1 X138.54 Y71.46 E81.45742
G1 X138.54 Y163.54 E85.74505
G1 F1500 E79.24505
G0 F6000 X138.8 Y163.54
G0 X97.153 Y163.8
G0 X97.153 Y163.338
G1 F1500 E85.74505
G1 F1200 X96.659 Y162.844 E85.77758
G0 F6000 X96.659 Y162.278
G1 F1200 X97.719 Y163.338 E85.84739
G0 F6000 X98.285 Y163.338
G1 F1200 X96.659 Y161.713 E85.95443
G0 F6000 X96.659 Y161.147
G1 F1200 X98.85 Y163.338 E86.09871
G0 F6000 X99.416 Y163.338
G1 F1200 X96.659 Y160.581 E86.28026
G0 F6000 X96.659 Y160.016
G1 F1200 X99.982 Y163.338 E86.49906
G0 F6000 X100.547 Y163.338
G1 F1200 X96.659 Y159.45 E86.75509
G0 F6000 X96.659 Y158.884
G1 F1200 X101.113 Y163.338 E87.04839
G0 F6000 X101.679 Y163.338
G1 F1200 X96.659 Y158.319 E87.37893
G0 F6000 X96.659 Y157.753
G1 F1200 X102.244 Y163.338 E87.74671
G0 F6000 X102.81 Y163.338
G1 F1200 X96.659 Y157.187 E88.15177
G0 F6000 X96.659 Y156.622
G1 F1200 X103.376 Y163.338 E88.59406
G0 F6000 X103.941 Y163.338
G1 F1200 X96.659 Y156.056 E89.07359
G0 F6000 X96.659 Y155.49
G1 F1200 X104.507 Y163.338 E89.5904
G0 F6000 X105.073 Y163.338
G1 F1200 X96.659 Y154.924 E90.14447
G0 F6000 X96.659 Y154.359
G1 F1200 X105.638 Y163.338 E90.73576
G0 F6000 X106.204 Y163.338
G1 F1200 X96.659 Y153.793 E91.36431
G0 F6000 X96.659 Y153.227
G1 F1200 X106.77 Y163.338 E92.03014
G0 F6000 X107.335 Y163.338
G1 F1200 X96.659 Y152.662 E92.73317
G0 F6000 X96.659 Y152.096
G1 F1200 X107.901 Y163.338 E93.47348
G0 F6000 X108.467 Y163.338
G1 F1200 X96.659 Y151.53 E94.25105
G0 F6000 X96.659 Y150.965
G1 F1200 X109.033 Y163.338 E95.06587
G0 F6000 X109.598 Y163.338
G1 F1200 X96.659 Y150.399 E95.91792
G0 F6000 X96.659 Y149.833
G1 F1200 X110.164 Y163.338 E96.80725
G0 F6000 X110.73 Y163.338
G1 F1200 X96.659 Y149.268 E97.73382
G0 F6000 X96.659 Y148.702
G1 F1200 X111.295 Y163.338 E98.69762
G0 F6000 X111.861 Y163.338
G1 F1200 X96.659 Y148.136 E99.6987
G0 F6000 X96.659 Y147.571
G1 F1200 X112.427 Y163.338 E100.73702
G0 F6000 X112.992 Y163.338
G1 F1200 X96.659 Y147.005 E101.81257
G0 F6000 X96.659 Y146.439
G1 F1200 X113.558 Y163.338 E102.9254
G0 F6000 X114.124 Y163.338
G1 F1200 X96.659 Y145.874 E104.07547
G0 F6000 X96.659 Y145.308
G1 F1200 X114.689 Y163.338 E105.26278
G0 F6000 X115.255 Y163.338
G1 F1200 X96.659 Y144.742 E106.48735
G0 F6000 X96.659 Y144.176
G1 F1200 X115.821 Y163.338 E107.7492
G0 F6000 X116.386 Y163.338
G1 F1200 X96.659 Y143.611 E109.04826
G0 F6000 X96.659 Y143.045
G1 F1200 X116.952 Y163.338 E110.38459
G0 F6000 X117.518 Y163.338
G1 F1200 X96.659 Y142.479 E111.75819
G0 F6000 X96.659 Y141.914
G1 F1200 X118.084 Y163.338 E113.16903
G0 F6000 X118.649 Y163.338
G1 F1200 X96.659 Y141.348 E114.61711
G0 F6000 X96.659 Y140.782
G1 F1200 X119.215 Y163.338 E116.10246
G0 F6000 X119.781 Y163.338
G1 F1200 X96.659 Y140.217 E117.62505
G0 F6000 X96.659 Y139.651
G1 F1200 X120.346 Y163.338 E119.18488
G0 F6000 X120.912 Y163.338
G1 F1200 X96.659 Y139.085 E120.78198
G0 F6000 X96.659 Y138.52
G1 F1200 X121.478 Y163.338 E122.41632
G0 F6000 X122.043 Y163.338
G1 F1200 X96.659 Y137.954 E124.0879
G0 F6000 X96.659 Y137.388
G1 F1200 X122.609 Y163.338 E125.79675
G0 F6000 X123.175 Y163.338
G1 F1200 X96.659 Y136.823 E127.54284
G0 F6000 X96.659 Y136.257
G1 F1200 X123.74 Y163.338 E129.32617
G0 F6000 X124.306 Y163.338
G1 F1200 X96.659 Y135.691 E131.14678
G0 F6000 X96.659 Y135.125
G1 F1200 X124.872 Y163.338 E133.00465
G0 F6000 X125.437 Y163.338
G1 F1200 X96.659 Y134.56 E134.89973
G0 F6000 X96.659 Y133.994
G1 F1200 X126.003 Y163.338 E136.83208
G0 F6000 X126.569 Y163.338
G1 F1200 X96.659 Y133.428 E138.80171
G0 F6000 X96.659 Y132.863
G1 F1200 X127.134 Y163.338 E140.80854
G0 F6000 X127.7 Y163.338
G1 F1200 X96.659 Y132.297 E142.85264
G0 F6000 X96.659 Y131.731
G1 F1200 X128.266 Y163.338 E144.93402
G0 F6000 X128.832 Y163.338
G1 F1200 X96.659 Y131.166 E147.05263
G0 F6000 X96.659 Y130.6
G1 F1200 X129.397 Y163.338 E149.20848
G0 F6000 X129.963 Y163.338
G1 F1200 X96.659 Y130.034 E151.40161
G0 F6000 X96.659 Y129.469
G1 F1200 X130.529 Y163.338 E153.63197
G0 F6000 X131.094 Y163.338
G1 F1200 X96.659 Y128.903 E155.89958
G0 F6000 X96.659 Y128.337
G1 F1200 X131.66 Y163.338 E158.20445
G0 F6000 X132.226 Y163.338
G1 F1200 X96.659 Y127.772 E160.54657
G0 F6000 X96.659 Y127.206
G1 F1200 X132.791 Y163.338 E162.92592
G0 F6000 X133.357 Y163.338
G1 F1200 X96.659 Y126.64 E165.34255
G0 F6000 X96.659 Y126.075
G1 F1200 X133.923 Y163.338 E167.79641
G0 F6000 X134.488 Y163.338
G1 F1200 X96.659 Y125.509 E170.28752
G0 F6000 X96.659 Y124.943
G1 F1200 X135.054 Y163.338 E172.81589
G0 F6000 X135.62 Y163.338
G1 F1200 X96.659 Y124.377 E175.38154
G0 F6000 X96.659 Y123.812
G1 F1200 X136.185 Y163.338 E177.9844
G0 F6000 X136.751 Y163.338
G1 F1200 X96.659 Y123.246 E180.62452
G0 F6000 X96.659 Y122.68
G1 F1200 X137.317 Y163.338 E183.30192
G0 F6000 X137.882 Y163.338
G1 F1200 X96.659 Y122.115 E186.01653
G0 F6000 X96.659 Y121.549
G1 F1200 X138.339 Y163.229 E188.76123
G0 F6000 X138.339 Y162.664
G1 F1200 X96.659 Y120.983 E191.50596
G0 F6000 X96.659 Y120.418
G1 F1200 X138.339 Y162.098 E194.25066
G0 F6000 X138.339 Y161.532
G1 F1200 X96.659 Y119.852 E196.99536
G0 F6000 X96.659 Y119.286
G1 F1200 X138.339 Y160.967 E199.74009
G0 F6000 X138.339 Y160.401
G1 F1200 X96.659 Y118.721 E202.48479
G0 F6000 X96.659 Y118.155
G1 F1200 X138.339 Y159.835 E205.22949
G0 F6000 X138.339 Y159.27
G1 F1200 X96.659 Y117.589 E207.97422
G0 F6000 X96.659 Y117.024
G1 F1200 X138.339 Y158.704 E210.71892
G0 F6000 X138.339 Y158.138
G1 F1200 X96.659 Y116.458 E213.46362
G0 F6000 X96.659 Y115.892
G1 F1200 X138.339 Y157.573 E216.20835
G0 F6000 X138.339 Y157.007
G1 F1200 X96.659 Y115.326 E218.95308
G0 F6000 X96.659 Y114.761
G1 F1200 X138.339 Y156.441 E221.69778
G0 F6000 X138.339 Y155.876
G1 F1200 X96.659 Y114.195 E224.44251
G0 F6000 X96.659 Y113.629
G1 F1200 X138.339 Y155.31 E227.18724
G0 F6000 X138.339 Y154.744
G1 F1200 X96.659 Y113.064 E229.93194
G0 F6000 X96.659 Y112.498
G1 F1200 X138.339 Y154.178 E232.67664
G0 F6000 X138.339 Y153.613
G1 F1200 X96.659 Y111.932 E235.42138
G0 F6000 X96.659 Y111.367
G1 F1200 X138.339 Y153.047 E238.16607
G0 F6000 X138.339 Y152.481
G1 F1200 X96.659 Y110.801 E240.91077
G0 F6000 X96.659 Y110.235
G1 F1200 X138.339 Y151.916 E243.65551
G0 F6000 X138.339 Y151.35
G1 F1200 X96.659 Y109.67 E246.4002
G0 F6000 X96.659 Y109.104
G1 F1200 X138.339 Y150.784 E249.1449
G0 F6000 X138.339 Y150.219
G1 F1200 X96.659 Y108.538 E251.88964
G0 F6000 X96.659 Y107.973
G1 F1200 X138.339 Y149.653 E254.63434
G0 F6000 X138.339 Y149.087
G1 F1200 X96.659 Y107.407 E257.37903
G0 F6000 X96.659 Y106.841
G1 F1200 X138.339 Y148.522 E260.12377
G0 F6000 X138.339 Y147.956
G1 F1200 X96.659 Y106.276 E262.86847
G0 F6000 X96.659 Y105.71
G1 F1200 X138.339 Y147.39 E265.61317
G0 F6000 X138.339 Y146.825
G1 F1200 X96.659 Y105.144 E268.3579
G0 F6000 X96.659 Y104.578
G1 F1200 X138.339 Y146.259 E271.10263
G0 F6000 X138.339 Y145.693
G1 F1200 X96.659 Y104.013 E273.84733
G0 F6000 X96.659 Y103.447
G1 F1200 X138.339 Y145.128 E276.59206
G0 F6000 X138.339 Y144.562
G1 F1200 X96.659 Y102.881 E279.33679
G0 F6000 X96.659 Y102.316
G1 F1200 X138.339 Y143.996 E282.08149
G0 F6000 X138.339 Y143.43
G1 F1200 X96.659 Y101.75 E284.82619
G0 F6000 X96.659 Y101.184
G1 F1200 X138.339 Y142.865 E287.57092
G0 F6000 X138.339 Y142.299
G1 F1200 X96.659 Y100.619 E290.31562
G0 F6000 X96.659 Y100.053
G1 F1200 X138.339 Y141.733 E293.06032
G0 F6000 X138.339 Y141.168
G1 F1200 X96.659 Y99.487 E295.80505
G0 F6000 X96.659 Y98.922
