;FLAVOR:Marlin
;TIME:34583
;Filament used: 32.7769m
;Layer height: 0.28
;MINX:47.5
;MINY:15
;MINZ:0.28
;MAXX:187.5
;MAXY:220
;MAXZ:40.04
;TARGET_MACHINE.NAME:Creality CR-6 SE
;Generated with Cura_SteamEngine 5.6.0
M140 S60
M105
M190 S60
M104 S200
M105
M109 S200
M82 ;absolute extrusion mode
M201 X500.00 Y500.00 Z100.00 E5000.00 ;Setup machine max acceleration
M203 X500.00 Y500.00 Z10.00 E50.00 ;Setup machine max feedrate
M204 P500.00 R1000.00 T500.00 ;Setup Print/Retract/Travel acceleration
M205 X8.00 Y8.00 Z0.40 E5.00 ;Setup Jerk
M220 S100 ;Reset Feedrate
M221 S100 ;Reset Flowrate

G28 ;Home

G92 E0 ;Reset Extruder
G1 Z2.0 F3000 ;Move Z Axis up
G1 X10.1 Y20 Z0.28 F5000.0 ;Move to start position
G1 X10.1 Y200.0 Z0.28 F1500.0 E15 ;Draw the first line
G1 X10.4 Y200.0 Z0.28 F5000.0 ;Move to side a little
G1 X10.4 Y20 Z0.28 F1500.0 E30 ;Draw the second line
G92 E0 ;Reset Extruder
G1 Z2.0 F3000 ;Move Z Axis up

G92 E0
G92 E0
G1 F1500 E-6.5
;LAYER_COUNT:143
;LAYER:0
M107
G0 F6000 X48.66 Y21.115 Z0.28
;TYPE:SKIRT
G1 F1500 E0
G1 F1200 X49.131 Y20.263 E0.04533
G1 X49.676 Y19.454 E0.09075
G1 X50.267 Y18.726 E0.13442
G1 X50.969 Y18.001 E0.18141
G1 X51.679 Y17.387 E0.22511
G1 X52.498 Y16.797 E0.27212
G1 X53.337 Y16.301 E0.3175
G1 X54.151 Y15.91 E0.35955
G1 X55.128 Y15.542 E0.40816
G1 X56.032 Y15.292 E0.45184
G1 X57.034 Y15.109 E0.49927
G1 X58.205 Y15.013 E0.55398
G1 X58.812 Y15 E0.58225
G1 X175.804 Y15 E6.02988
G1 X176.684 Y15.013 E6.07086
G1 X177.656 Y15.072 E6.11621
G1 X178.619 Y15.218 E6.16156
G1 X179.566 Y15.449 E6.20695
G1 X180.454 Y15.749 E6.2506
G1 X181.346 Y16.139 E6.29593
G1 X182.229 Y16.626 E6.34288
G1 X182.98 Y17.128 E6.38495
G1 X183.795 Y17.786 E6.43372
G1 X184.493 Y18.464 E6.47903
G1 X185.129 Y19.201 E6.52436
G1 X185.699 Y19.991 E6.56972
G1 X186.161 Y20.767 E6.61177
G1 X186.615 Y21.709 E6.66047
G1 X186.944 Y22.587 E6.70413
G1 X187.213 Y23.559 E6.75109
G1 X187.39 Y24.525 E6.79682
G1 X187.485 Y25.655 E6.84962
G1 X187.5 Y26.33 E6.88106
G1 X187.499 Y208.409 E15.35942
G1 X187.487 Y209.176 E15.39514
G1 X187.429 Y210.149 E15.44053
G1 X187.283 Y211.112 E15.48588
G1 X187.053 Y212.06 E15.5313
G1 X186.74 Y212.981 E15.5766
G1 X186.348 Y213.872 E15.62192
G1 X185.896 Y214.694 E15.66561
G1 X185.333 Y215.532 E15.71261
G1 X184.719 Y216.29 E15.75804
G1 X184.042 Y216.988 E15.80332
G1 X183.306 Y217.625 E15.84864
G1 X182.574 Y218.155 E15.89072
G1 X181.676 Y218.69 E15.93939
G1 X180.798 Y219.111 E15.98473
G1 X179.886 Y219.452 E16.03007
G1 X178.948 Y219.712 E16.0754
G1 X177.982 Y219.889 E16.12113
G1 X176.845 Y219.985 E16.17426
G1 X176.17 Y220 E16.2057
G1 X102.841 Y219.999 E19.6202
G1 X102.079 Y219.986 E19.65569
G1 X100.896 Y219.9 E19.71092
G1 X99.667 Y219.741 E19.76862
G1 X97.059 Y219.447 E19.89083
G1 X94.561 Y219.232 E20.00758
G1 X92.044 Y219.091 E20.12497
G1 X89.51 Y219.019 E20.24301
G1 X87.021 Y219.019 E20.35891
G1 X84.488 Y219.091 E20.4769
G1 X81.994 Y219.233 E20.59322
G1 X79.424 Y219.449 E20.71331
G1 X76.959 Y219.731 E20.82884
G1 X75.639 Y219.905 E20.89084
G1 X74.205 Y219.998 E20.95775
G1 X59.197 Y220 E21.65659
G1 X58.316 Y219.987 E21.69761
G1 X57.344 Y219.928 E21.74296
G1 X56.381 Y219.782 E21.78831
G1 X55.434 Y219.551 E21.8337
G1 X54.546 Y219.251 E21.87735
G1 X53.654 Y218.861 E21.92268
G1 X52.771 Y218.374 E21.96963
G1 X52.02 Y217.872 E22.0117
G1 X51.205 Y217.214 E22.06047
G1 X50.507 Y216.536 E22.10578
G1 X49.871 Y215.799 E22.15111
G1 X49.301 Y215.009 E22.19647
G1 X48.839 Y214.233 E22.23852
G1 X48.385 Y213.291 E22.28722
G1 X48.056 Y212.413 E22.33088
G1 X47.787 Y211.44 E22.37788
G1 X47.61 Y210.473 E22.42366
G1 X47.514 Y209.308 E22.47809
G1 X47.5 Y208.658 E22.50836
G1 X47.501 Y26.509 E30.98998
G1 X47.513 Y25.808 E31.02263
G1 X47.573 Y24.835 E31.06802
G1 X47.72 Y23.874 E31.11329
G1 X47.951 Y22.926 E31.15873
G1 X48.253 Y22.037 E31.20244
G1 X48.66 Y21.115 E31.24937
G0 F6000 X49.01 Y21.308
G1 F1200 X49.463 Y20.486 E31.29308
G1 X49.987 Y19.706 E31.33683
G1 X50.578 Y18.978 E31.38049
G1 X51.231 Y18.304 E31.42419
G1 X51.941 Y17.69 E31.4679
G1 X52.702 Y17.141 E31.51159
G1 X53.51 Y16.662 E31.55533
G1 X54.324 Y16.271 E31.59738
G1 X55.235 Y15.928 E31.64271
G1 X56.139 Y15.678 E31.68638
G1 X57.067 Y15.508 E31.73031
G1 X58.214 Y15.413 E31.78391
G1 X58.821 Y15.4 E31.81218
G1 X175.798 Y15.4 E37.25912
G1 X176.66 Y15.412 E37.29926
G1 X177.597 Y15.468 E37.34297
G1 X178.525 Y15.607 E37.38666
G1 X179.438 Y15.828 E37.4304
G1 X180.294 Y16.116 E37.47246
G1 X181.186 Y16.506 E37.51779
G1 X182.007 Y16.959 E37.56145
G1 X182.758 Y17.461 E37.60351
G1 X183.517 Y18.073 E37.64891
G1 X184.191 Y18.726 E37.69261
G1 X184.805 Y19.435 E37.73628
G1 X185.355 Y20.196 E37.78001
G1 X185.817 Y20.972 E37.82206
G1 X186.24 Y21.849 E37.8674
G1 X186.569 Y22.727 E37.91106
G1 X186.82 Y23.632 E37.95479
G1 X186.991 Y24.559 E37.99868
G1 X187.086 Y25.689 E38.05148
G1 X187.1 Y26.33 E38.08134
G1 X187.099 Y208.403 E46.55942
G1 X187.088 Y209.153 E46.59435
G1 X187.033 Y210.09 E46.63805
G1 X186.894 Y211.018 E46.68175
G1 X186.674 Y211.932 E46.72552
G1 X186.374 Y212.82 E46.76917
G1 X185.997 Y213.679 E46.81285
G1 X185.545 Y214.501 E46.85653
G1 X185.022 Y215.281 E46.90026
G1 X184.432 Y216.012 E46.944
G1 X183.78 Y216.686 E46.98767
G1 X183.071 Y217.301 E47.03137
G1 X182.339 Y217.831 E47.07345
G1 X181.503 Y218.33 E47.11879
G1 X180.657 Y218.737 E47.1625
G1 X179.779 Y219.067 E47.20618
G1 X178.875 Y219.319 E47.24987
G1 X177.948 Y219.49 E47.29377
G1 X176.811 Y219.586 E47.3469
G1 X176.17 Y219.6 E47.37675
G1 X102.847 Y219.599 E50.79098
G1 X102.108 Y219.587 E50.8254
G1 X100.947 Y219.503 E50.8796
G1 X99.718 Y219.345 E50.9373
G1 X97.093 Y219.048 E51.06031
G1 X94.595 Y218.834 E51.17705
G1 X92.055 Y218.691 E51.29551
G1 X89.521 Y218.619 E51.41355
G1 X87.01 Y218.619 E51.53048
G1 X84.477 Y218.691 E51.64847
G1 X81.96 Y218.834 E51.76586
G1 X79.39 Y219.051 E51.88596
G1 X76.907 Y219.334 E52.00232
G1 X75.587 Y219.508 E52.06432
G1 X74.205 Y219.598 E52.12881
G1 X59.203 Y219.6 E52.82736
G1 X58.34 Y219.588 E52.86755
G1 X57.403 Y219.532 E52.91126
G1 X56.475 Y219.393 E52.95496
G1 X55.562 Y219.172 E52.9987
G1 X54.706 Y218.884 E53.04075
G1 X53.814 Y218.494 E53.08608
G1 X52.993 Y218.041 E53.12975
G1 X52.242 Y217.539 E53.17181
G1 X51.483 Y216.927 E53.21721
G1 X50.809 Y216.274 E53.26091
G1 X50.195 Y215.565 E53.30458
G1 X49.645 Y214.804 E53.3483
G1 X49.183 Y214.028 E53.39035
G1 X48.76 Y213.151 E53.43569
G1 X48.431 Y212.273 E53.47935
G1 X48.18 Y211.368 E53.52308
G1 X48.009 Y210.44 E53.56702
G1 X47.913 Y209.275 E53.62145
G1 X47.9 Y208.658 E53.65019
G1 X47.901 Y26.515 E62.13153
G1 X47.912 Y25.832 E62.16334
G1 X47.969 Y24.895 E62.20705
G1 X48.109 Y23.968 E62.2507
G1 X48.33 Y23.055 E62.29444
G1 X48.632 Y22.166 E62.33816
G1 X49.01 Y21.308 E62.38182
G0 F6000 X49.361 Y21.5
G1 F1200 X49.795 Y20.709 E62.42383
G1 X50.298 Y19.958 E62.46592
G1 X50.866 Y19.256 E62.50797
G1 X51.493 Y18.606 E62.55002
G1 X52.175 Y18.014 E62.59208
G1 X52.907 Y17.485 E62.63413
G1 X53.683 Y17.023 E62.67618
G1 X54.497 Y16.632 E62.71823
G1 X55.342 Y16.313 E62.76029
G1 X56.212 Y16.071 E62.80234
G1 X57.1 Y15.907 E62.84439
G1 X58.223 Y15.813 E62.89686
G1 X58.83 Y15.8 E62.92513
G1 X175.793 Y15.8 E68.37142
G1 X176.637 Y15.811 E68.41072
G1 X177.539 Y15.864 E68.4528
G1 X178.432 Y15.996 E68.49483
G1 X179.31 Y16.207 E68.53688
G1 X180.166 Y16.495 E68.57893
G1 X180.993 Y16.857 E68.62097
G1 X181.785 Y17.292 E68.66304
G1 X182.536 Y17.794 E68.7051
G1 X183.239 Y18.361 E68.74716
G1 X183.889 Y18.988 E68.78921
G1 X184.481 Y19.67 E68.83127
G1 X185.011 Y20.401 E68.87331
G1 X185.473 Y21.177 E68.91536
G1 X185.866 Y21.99 E68.95741
G1 X186.184 Y22.835 E68.99945
G1 X186.427 Y23.705 E69.04151
G1 X186.592 Y24.593 E69.08357
G1 X186.687 Y25.723 E69.13637
G1 X186.7 Y26.33 E69.16464
G1 X186.699 Y208.398 E77.64249
G1 X186.689 Y209.13 E77.67658
G1 X186.637 Y210.032 E77.71865
G1 X186.505 Y210.925 E77.76068
G1 X186.295 Y211.804 E77.80277
G1 X186.007 Y212.66 E77.84482
G1 X185.646 Y213.487 E77.88684
G1 X185.212 Y214.279 E77.92889
G1 X184.71 Y215.03 E77.97095
G1 X184.144 Y215.734 E78.01302
G1 X183.517 Y216.384 E78.05507
G1 X182.836 Y216.977 E78.09712
G1 X182.104 Y217.507 E78.1392
G1 X181.329 Y217.97 E78.18123
G1 X180.516 Y218.363 E78.22328
G1 X179.671 Y218.682 E78.26534
G1 X178.802 Y218.926 E78.30737
G1 X177.914 Y219.091 E78.34942
G1 X176.777 Y219.187 E78.40256
G1 X176.17 Y219.2 E78.43083
G1 X102.853 Y219.199 E81.84477
G1 X102.137 Y219.188 E81.87812
G1 X100.998 Y219.106 E81.93129
G1 X99.769 Y218.949 E81.98898
G1 X97.127 Y218.649 E82.1128
G1 X94.629 Y218.436 E82.22954
G1 X92.066 Y218.291 E82.34907
G1 X89.532 Y218.219 E82.46711
G1 X86.999 Y218.219 E82.58506
G1 X84.466 Y218.291 E82.70305
G1 X81.926 Y218.435 E82.82152
G1 X79.356 Y218.653 E82.94162
G1 X76.855 Y218.937 E83.05882
G1 X75.535 Y219.111 E83.12082
G1 X74.205 Y219.198 E83.18288
G1 X59.208 Y219.2 E83.88121
G1 X58.363 Y219.189 E83.92056
G1 X57.461 Y219.136 E83.96263
G1 X56.568 Y219.004 E84.00466
G1 X55.69 Y218.793 E84.04671
G1 X54.834 Y218.505 E84.08876
G1 X54.007 Y218.143 E84.1308
G1 X53.215 Y217.708 E84.17288
G1 X52.464 Y217.206 E84.21494
G1 X51.761 Y216.639 E84.25699
G1 X51.111 Y216.012 E84.29905
G1 X50.519 Y215.33 E84.3411
G1 X49.989 Y214.599 E84.38314
G1 X49.527 Y213.823 E84.4252
G1 X49.134 Y213.01 E84.46724
G1 X48.816 Y212.165 E84.50928
G1 X48.573 Y211.295 E84.55134
G1 X48.408 Y210.407 E84.5934
G1 X48.313 Y209.266 E84.64672
G1 X48.3 Y208.658 E84.67503
G1 X48.301 Y26.521 E93.15609
G1 X48.311 Y25.856 E93.18706
G1 X48.365 Y24.954 E93.22914
G1 X48.498 Y24.061 E93.27118
G1 X48.709 Y23.183 E93.31323
G1 X48.998 Y22.327 E93.3553
G1 X49.361 Y21.5 E93.39735
G1 F1500 E86.89735
;MESH:gug-expansion.stl
G0 F6000 X57.835 Y26.8
G0 X103.131 Y208.399
;TYPE:WALL-INNER
G1 F1500 E93.39735
G1 F1200 X175.9 Y208.4 E96.78578
G1 X175.9 Y26.6 E105.25115
G1 X59.1 Y26.6 E110.68985
G1 X59.101 Y208.399 E119.15517
G1 X73.464 Y208.4 E119.82397
G1 X73.4 Y207.838 E119.85031
G1 X73.409 Y205.647 E119.95233
G1 X73.454 Y205.317 E119.96784
G1 X73.427 Y205.144 E119.97599
G1 X73.4 Y204.82 E119.99113
G1 X73.41 Y190.934 E120.63772
G1 X73.478 Y190.414 E120.66214
G1 X73.667 Y189.841 E120.69024
G1 X73.893 Y189.365 E120.71478
G1 X74.296 Y188.812 E120.74664
G1 X74.783 Y188.352 E120.77783
G1 X75.269 Y188.043 E120.80465
G1 X75.675 Y187.852 E120.82554
G1 X76.106 Y187.712 E120.84664
G1 X76.56 Y187.628 E120.86814
G1 X76.954 Y187.6 E120.88653
G1 X99.869 Y187.61 E121.95355
G1 X100.305 Y187.671 E121.97405
G1 X100.826 Y187.804 E121.99909
G1 X101.434 Y188.091 E122.0304
G1 X102 Y188.505 E122.06305
G1 X102.448 Y188.978 E122.09339
G1 X102.805 Y189.545 E122.12458
G1 X103.017 Y190.066 E122.15078
G1 X103.139 Y190.542 E122.17366
G1 X103.2 Y191.03 E122.19656
G1 X103.191 Y204.954 E122.84492
G1 X103.146 Y205.283 E122.86038
G1 X103.173 Y205.455 E122.86849
G1 X103.2 Y205.785 E122.8839
G1 X103.195 Y207.893 E122.98206
G1 X103.131 Y208.399 E123.00581
G0 F6000 X102.614 Y208.799
;TYPE:WALL-OUTER
G1 F1200 X176.3 Y208.8 E126.43694
G1 X176.3 Y26.2 E134.93956
G1 X58.7 Y26.2 E140.41551
G1 X58.701 Y208.799 E148.91808
G1 X73.999 Y208.8 E149.63042
G1 X73.865 Y208.379 E149.65099
G1 X73.801 Y207.865 E149.67511
G1 X73.807 Y205.686 E149.77658
G1 X73.859 Y205.311 E149.79421
G1 X73.825 Y205.107 E149.80384
G1 X73.8 Y204.84 E149.81632
G1 X73.807 Y190.984 E150.46152
G1 X73.868 Y190.502 E150.48414
G1 X74.029 Y190.011 E150.5082
G1 X74.237 Y189.569 E150.53095
G1 X74.608 Y189.064 E150.56013
G1 X75.028 Y188.668 E150.587
G1 X75.472 Y188.388 E150.61145
G1 X75.822 Y188.224 E150.62944
G1 X76.217 Y188.097 E150.64876
G1 X76.578 Y188.028 E150.66588
G1 X76.977 Y188 E150.6845
G1 X99.818 Y188.007 E151.74808
G1 X100.206 Y188.059 E151.7663
G1 X100.693 Y188.184 E151.78972
G1 X101.24 Y188.443 E151.8179
G1 X101.726 Y188.796 E151.84587
G1 X102.143 Y189.244 E151.87437
G1 X102.465 Y189.761 E151.90273
G1 X102.645 Y190.215 E151.92547
G1 X102.746 Y190.618 E151.94481
G1 X102.8 Y191.039 E151.96458
G1 X102.793 Y204.915 E152.6107
G1 X102.741 Y205.289 E152.62829
G1 X102.775 Y205.492 E152.63787
G1 X102.8 Y205.764 E152.65059
G1 X102.793 Y207.917 E152.75084
G1 X102.741 Y208.307 E152.76916
G1 X102.614 Y208.799 E152.79282
G0 F6000 X102.952 Y208.539
G0 X103.553 Y208.299
G0 X103.555 Y208.038
;TYPE:SKIN
G1 F1200 X103.56 Y205.772 E152.89834
G1 X103.532 Y205.42 E152.91478
G1 X103.51 Y205.276 E152.92156
G1 X103.551 Y204.971 E152.93589
G1 X103.56 Y191.007 E153.58612
G1 X103.489 Y190.455 E153.61203
G1 X103.361 Y189.959 E153.63588
G1 X103.137 Y189.404 E153.66375
G1 X102.724 Y188.749 E153.69981
G1 X102.237 Y188.228 E153.73302
G1 X101.612 Y187.778 E153.76888
G1 X100.961 Y187.47 E153.80241
G1 X100.36 Y187.315 E153.83131
G1 X99.903 Y187.251 E153.8528
G1 X76.949 Y187.24 E154.92164
G1 X76.477 Y187.273 E154.94367
G1 X76.026 Y187.362 E154.96507
G1 X75.544 Y187.515 E154.98862
G1 X75.097 Y187.726 E155.01164
G1 X74.562 Y188.062 E155.04105
G1 X74.021 Y188.578 E155.07587
G1 X73.575 Y189.196 E155.11135
G1 X73.343 Y189.683 E155.13647
G1 X73.132 Y190.314 E155.16745
G1 X73.053 Y190.886 E155.19434
G1 X73.04 Y204.836 E155.84391
G1 X73.088 Y205.318 E155.86647
G1 X73.051 Y205.604 E155.8799
G1 X73.039 Y208.039 E155.99328
G1 X59.461 Y208.039 E156.62553
G1 X59.46 Y26.96 E165.05733
G1 X175.54 Y26.96 E170.4625
G1 X175.54 Y208.04 E178.89434
G1 X103.555 Y208.038 E182.24626
G1 F1500 E175.74626
G0 F6000 X103.553 Y208.299
G0 X103.019 Y208.024
G0 X103.039 Y191.033
G0 X102.872 Y190.137
G0 X102.671 Y189.631
G0 X102.323 Y189.085
G0 X101.881 Y188.612
G0 X101.347 Y188.226
G0 X100.764 Y187.955
G0 X99.815 Y187.767
G0 X76.546 Y187.791
G0 X75.734 Y188.001
G0 X74.885 Y188.477
G0 X74.414 Y188.919
G0 X74.03 Y189.447
G0 X73.634 Y190.447
G0 X73.567 Y190.985
G0 X73.561 Y207.863
G0 X73.604 Y208.216
G0 X60.191 Y208.299
G0 X60.193 Y207.837
G1 F1500 E182.24626
G1 F1200 X59.66 Y207.304 E182.28136
G0 F6000 X59.66 Y206.738
G1 F1200 X60.759 Y207.837 E182.35373
G0 F6000 X61.325 Y207.837
G1 F1200 X59.66 Y206.173 E182.46334
G0 F6000 X59.66 Y205.607
G1 F1200 X61.89 Y207.837 E182.61019
G0 F6000 X62.456 Y207.837
G1 F1200 X59.66 Y205.041 E182.79432
G0 F6000 X59.66 Y204.476
G1 F1200 X63.022 Y207.837 E183.01568
G0 F6000 X63.587 Y207.837
G1 F1200 X59.66 Y203.91 E183.27428
G0 F6000 X59.66 Y203.344
G1 F1200 X64.153 Y207.837 E183.57015
G0 F6000 X64.719 Y207.837
G1 F1200 X59.66 Y202.779 E183.90326
G0 F6000 X59.66 Y202.213
G1 F1200 X65.285 Y207.837 E184.27364
G0 F6000 X65.85 Y207.837
G1 F1200 X59.66 Y201.647 E184.68126
G0 F6000 X59.66 Y201.082
G1 F1200 X66.415 Y207.837 E185.12609
G0 F6000 X66.981 Y207.837
G1 F1200 X59.66 Y200.516 E185.60819
G0 F6000 X59.66 Y199.95
G1 F1200 X67.547 Y207.837 E186.12756
G0 F6000 X68.112 Y207.837
G1 F1200 X59.66 Y199.385 E186.68414
G0 F6000 X59.66 Y198.819
G1 F1200 X68.678 Y207.837 E187.27799
G0 F6000 X69.244 Y207.837
G1 F1200 X59.66 Y198.253 E187.90912
G0 F6000 X59.66 Y197.687
G1 F1200 X69.809 Y207.837 E188.57748
G0 F6000 X70.375 Y207.837
G1 F1200 X59.66 Y197.122 E189.28308
G0 F6000 X59.66 Y196.556
G1 F1200 X70.941 Y207.837 E190.02595
G0 F6000 X71.506 Y207.837
G1 F1200 X59.66 Y195.99 E190.80606
G0 F6000 X59.66 Y195.425
G1 F1200 X72.072 Y207.837 E191.62342
G0 F6000 X72.638 Y207.837
G1 F1200 X59.66 Y194.859 E192.47804
G0 F6000 X59.66 Y194.293
G1 F1200 X72.84 Y207.473 E193.34596
G0 F6000 X72.844 Y206.912
G1 F1200 X59.66 Y193.728 E194.21415
G0 F6000 X59.66 Y193.162
G1 F1200 X72.848 Y206.35 E195.08261
G0 F6000 X72.851 Y205.787
G1 F1200 X59.66 Y192.596 E195.95126
G0 F6000 X59.66 Y192.031
G1 F1200 X72.88 Y205.25 E196.82178
G0 F6000 X72.84 Y204.645
G1 F1200 X59.66 Y191.465 E197.68971
G0 F6000 X59.66 Y190.899
G1 F1200 X72.841 Y204.08 E198.5577
G0 F6000 X72.841 Y203.514
G1 F1200 X59.66 Y190.334 E199.42566
G0 F6000 X59.66 Y189.768
G1 F1200 X72.841 Y202.949 E200.29365
G0 F6000 X72.842 Y202.384
G1 F1200 X59.66 Y189.202 E201.16171
G0 F6000 X59.66 Y188.636
G1 F1200 X72.843 Y201.819 E202.02983
G0 F6000 X72.844 Y201.254
G1 F1200 X59.66 Y188.071 E202.89799
G0 F6000 X59.66 Y187.505
G1 F1200 X72.844 Y200.689 E203.76617
G0 F6000 X72.845 Y200.124
G1 F1200 X59.66 Y186.939 E204.63443
G0 F6000 X59.66 Y186.374
G1 F1200 X72.845 Y199.558 E205.50265
G0 F6000 X72.846 Y198.993
G1 F1200 X59.66 Y185.808 E206.37094
