;FLAVOR:Marlin
;TIME:11970
;Filament used: 7.52532m
;Layer height: 0.2
;MINX:55.2
;MINY:107.481
;MINZ:0.2
;MAXX:179.8
;MAXY:127.3
;MAXZ:33
;Generated with Cura_SteamEngine 5.2.1
M140 S60
M105
M190 S60
M104 S200
M105
M109 S200
M82 ;absolute extrusion mode
M201 X500.00 Y500.00 Z100.00 E5000.00 ;Setup machine max acceleration
M203 X500.00 Y500.00 Z10.00 E50.00 ;Setup machine max feedrate
M204 P500.00 R1000.00 T500.00 ;Setup Print/Retract/Travel acceleration
M205 X8.00 Y8.00 Z0.40 E5.00 ;Setup Jerk
M220 S100 ;Reset Feedrate
M221 S100 ;Reset Flowrate

G28 ;Home

G92 E0 ;Reset Extruder
G1 Z2.0 F3000 ;Move Z Axis up
G1 X10.1 Y20 Z0.28 F5000.0 ;Move to start position
G1 X10.1 Y200.0 Z0.28 F1500.0 E15 ;Draw the first line
G1 X10.4 Y200.0 Z0.28 F5000.0 ;Move to side a little
G1 X10.4 Y20 Z0.28 F1500.0 E30 ;Draw the second line
G92 E0 ;Reset Extruder
G1 Z2.0 F3000 ;Move Z Axis up

G92 E0
G92 E0
G1 F1500 E-6.5
;LAYER_COUNT:165
;LAYER:0
M107
;MESH:Unique_Dinos_and_Misc_Bits_v1.stl
G0 F6000 X58.029 Y126.9 Z0.2
;TYPE:WALL-INNER
G1 F1500 E0
G1 F1200 X176.965 Y126.9 E3.95583
G1 X177.536 Y126.836 E3.97494
G1 X178.04 Y126.659 E3.9927
G1 X178.49 Y126.374 E4.01042
G1 X178.874 Y125.99 E4.02848
G1 X179.161 Y125.537 E4.04632
G1 X179.336 Y125.036 E4.06397
G1 X179.4 Y124.471 E4.08288
G1 X179.4 Y110.533 E4.54646
G1 X179.336 Y109.964 E4.56551
G1 X179.159 Y109.46 E4.58327
G1 X178.874 Y109.01 E4.60099
G1 X178.49 Y108.626 E4.61905
G1 X178.04 Y108.341 E4.63677
G1 X177.536 Y108.164 E4.65453
G1 X176.97 Y108.1 E4.67348
G1 X58.035 Y108.1 E8.62927
G1 X57.464 Y108.164 E8.64838
G1 X56.96 Y108.341 E8.66615
G1 X56.51 Y108.626 E8.68387
G1 X56.126 Y109.01 E8.70193
G1 X55.839 Y109.463 E8.71977
G1 X55.664 Y109.964 E8.73742
G1 X55.601 Y110.529 E8.75632
G1 X55.6 Y124.468 E9.21994
G1 X55.664 Y125.036 E9.23895
G1 X55.839 Y125.537 E9.2566
G1 X56.126 Y125.99 E9.27444
G1 X56.51 Y126.374 E9.2925
G1 X56.96 Y126.659 E9.31021
G1 X57.464 Y126.836 E9.32798
G1 X58.029 Y126.9 E9.34689
G0 F6000 X58.007 Y127.3
;TYPE:WALL-OUTER
G1 F1200 X176.987 Y127.3 E13.30418
G1 X177.626 Y127.228 E13.32557
G1 X178.216 Y127.021 E13.34637
G1 X178.742 Y126.688 E13.36707
G1 X179.188 Y126.242 E13.38805
G1 X179.523 Y125.712 E13.40891
G1 X179.728 Y125.126 E13.42956
G1 X179.8 Y124.493 E13.45074
G1 X179.8 Y110.511 E13.91579
G1 X179.728 Y109.874 E13.93711
G1 X179.521 Y109.284 E13.95791
G1 X179.188 Y108.758 E13.97861
G1 X178.742 Y108.312 E13.99959
G1 X178.216 Y107.979 E14.0203
G1 X177.626 Y107.772 E14.04109
G1 X176.993 Y107.7 E14.06228
G1 X58.013 Y107.7 E18.01957
G1 X57.374 Y107.772 E18.04096
G1 X56.784 Y107.979 E18.06176
G1 X56.258 Y108.312 E18.08246
G1 X55.812 Y108.758 E18.10344
G1 X55.477 Y109.288 E18.1243
G1 X55.272 Y109.874 E18.14494
G1 X55.201 Y110.507 E18.16613
G1 X55.2 Y124.49 E18.63121
G1 X55.272 Y125.126 E18.65249
G1 X55.477 Y125.712 E18.67314
G1 X55.812 Y126.242 E18.694
G1 X56.258 Y126.688 E18.71498
G1 X56.784 Y127.021 E18.73568
G1 X57.374 Y127.228 E18.75648
G1 X58.007 Y127.3 E18.77767
G0 F6000 X58.051 Y126.539
;TYPE:SKIN
G1 F1200 X176.943 Y126.54 E22.73203
G1 X177.458 Y126.481 E22.74927
G1 X177.884 Y126.332 E22.76428
G1 X178.265 Y126.09 E22.7793
G1 X178.591 Y125.762 E22.79468
G1 X178.835 Y125.377 E22.80984
G1 X178.981 Y124.958 E22.82459
G1 X179.04 Y124.449 E22.84164
G1 X179.04 Y110.552 E23.30385
G1 X178.982 Y110.042 E23.32093
G1 X178.832 Y109.616 E23.33595
G1 X178.592 Y109.239 E23.35081
G1 X178.261 Y108.908 E23.36638
G1 X177.884 Y108.668 E23.38124
G1 X177.458 Y108.518 E23.39627
G1 X176.948 Y108.46 E23.41334
G1 X58.057 Y108.46 E27.36767
G1 X57.542 Y108.518 E27.38491
G1 X57.116 Y108.668 E27.39993
G1 X56.738 Y108.908 E27.41482
G1 X56.409 Y109.238 E27.43032
G1 X56.165 Y109.623 E27.44548
G1 X56.019 Y110.042 E27.46024
G1 X55.961 Y110.551 E27.47728
G1 X55.961 Y124.449 E27.93952
G1 X56.019 Y124.958 E27.95656
G1 X56.165 Y125.377 E27.97132
G1 X56.409 Y125.762 E27.98648
G1 X56.739 Y126.092 E28.002
G1 X57.117 Y126.332 E28.0169
G1 X57.542 Y126.481 E28.03188
G1 X58.051 Y126.539 E28.04891
G0 F6000 X58.021 Y126.799
G0 X56.769 Y126.419
G0 X57.017 Y126.031
G1 F1200 X56.469 Y125.483 E28.07469
G0 F6000 X56.182 Y124.63
G1 F1200 X57.868 Y126.316 E28.154
G0 F6000 X58.456 Y126.338
G1 F1200 X56.16 Y124.042 E28.26199
G0 F6000 X56.16 Y123.477
G1 F1200 X59.022 Y126.338 E28.39659
G0 F6000 X59.587 Y126.338
G1 F1200 X56.16 Y122.911 E28.55778
G0 F6000 X56.16 Y122.345
G1 F1200 X60.153 Y126.338 E28.7456
G0 F6000 X60.719 Y126.338
G1 F1200 X56.16 Y121.78 E28.96002
G0 F6000 X56.16 Y121.214
G1 F1200 X61.284 Y126.338 E29.20104
G0 F6000 X61.85 Y126.338
G1 F1200 X56.16 Y120.648 E29.46868
G0 F6000 X56.16 Y120.082
G1 F1200 X62.416 Y126.338 E29.76294
G0 F6000 X62.982 Y126.338
G1 F1200 X56.16 Y119.517 E30.0838
G0 F6000 X56.16 Y118.951
G1 F1200 X63.547 Y126.338 E30.43126
G0 F6000 X64.113 Y126.338
G1 F1200 X56.16 Y118.385 E30.80535
G0 F6000 X56.16 Y117.82
G1 F1200 X64.679 Y126.338 E31.20603
G0 F6000 X65.244 Y126.338
G1 F1200 X56.16 Y117.254 E31.63332
G0 F6000 X56.16 Y116.688
G1 F1200 X65.81 Y126.338 E32.08722
G0 F6000 X66.376 Y126.338
G1 F1200 X56.16 Y116.123 E32.56773
G0 F6000 X56.16 Y115.557
G1 F1200 X66.941 Y126.338 E33.07483
G0 F6000 X67.507 Y126.338
G1 F1200 X56.16 Y114.991 E33.60856
G0 F6000 X56.16 Y114.426
G1 F1200 X68.073 Y126.338 E34.16889
G0 F6000 X68.638 Y126.338
G1 F1200 X56.16 Y113.86 E34.75582
G0 F6000 X56.16 Y113.294
G1 F1200 X69.204 Y126.338 E35.36937
G0 F6000 X69.77 Y126.338
G1 F1200 X56.16 Y112.729 E36.00952
G0 F6000 X56.16 Y112.163
G1 F1200 X70.335 Y126.338 E36.67626
G0 F6000 X70.901 Y126.338
G1 F1200 X56.16 Y111.597 E37.36964
G0 F6000 X56.16 Y111.032
G1 F1200 X71.467 Y126.338 E38.08961
G0 F6000 X72.032 Y126.338
G1 F1200 X56.169 Y110.475 E38.83575
G0 F6000 X56.248 Y109.989
G1 F1200 X72.598 Y126.338 E39.60478
G0 F6000 X73.164 Y126.338
G1 F1200 X56.419 Y109.593 E40.39242
G0 F6000 X56.659 Y109.268
G1 F1200 X73.73 Y126.338 E41.19536
G0 F6000 X74.295 Y126.338
G1 F1200 X56.96 Y109.003 E42.01075
G0 F6000 X57.327 Y108.805
G1 F1200 X74.861 Y126.338 E42.83547
G0 F6000 X75.427 Y126.338
G1 F1200 X57.78 Y108.692 E43.66551
G0 F6000 X58.313 Y108.659
G1 F1200 X75.992 Y126.338 E44.49707
G0 F6000 X76.558 Y126.338
G1 F1200 X58.879 Y108.659 E45.32864
G0 F6000 X59.445 Y108.659
G1 F1200 X77.124 Y126.338 E46.1602
G0 F6000 X77.689 Y126.338
G1 F1200 X60.01 Y108.659 E46.99177
G0 F6000 X60.576 Y108.659
G1 F1200 X78.255 Y126.338 E47.82334
G0 F6000 X78.821 Y126.338
G1 F1200 X61.142 Y108.659 E48.6549
G0 F6000 X61.707 Y108.659
G1 F1200 X79.386 Y126.338 E49.48647
G0 F6000 X79.952 Y126.338
G1 F1200 X62.273 Y108.659 E50.31803
G0 F6000 X62.839 Y108.659
G1 F1200 X80.518 Y126.338 E51.1496
G0 F6000 X81.083 Y126.338
G1 F1200 X63.404 Y108.659 E51.98117
G0 F6000 X63.97 Y108.659
G1 F1200 X81.649 Y126.338 E52.81273
G0 F6000 X82.215 Y126.338
G1 F1200 X64.536 Y108.659 E53.6443
G0 F6000 X65.101 Y108.659
G1 F1200 X82.78 Y126.338 E54.47586
G0 F6000 X83.346 Y126.338
G1 F1200 X65.667 Y108.659 E55.30743
G0 F6000 X66.233 Y108.659
G1 F1200 X83.912 Y126.338 E56.139
G0 F6000 X84.478 Y126.338
G1 F1200 X66.798 Y108.659 E56.97058
G0 F6000 X67.364 Y108.659
G1 F1200 X85.043 Y126.338 E57.80215
G0 F6000 X85.609 Y126.338
G1 F1200 X67.93 Y108.659 E58.63372
G0 F6000 X68.496 Y108.659
G1 F1200 X86.175 Y126.338 E59.46528
G0 F6000 X86.74 Y126.338
G1 F1200 X69.061 Y108.659 E60.29685
G0 F6000 X69.627 Y108.659
G1 F1200 X87.306 Y126.338 E61.12841
G0 F6000 X87.872 Y126.338
G1 F1200 X70.193 Y108.659 E61.95998
G0 F6000 X70.758 Y108.659
G1 F1200 X88.437 Y126.338 E62.79155
G0 F6000 X89.003 Y126.338
G1 F1200 X71.324 Y108.659 E63.62311
G0 F6000 X71.89 Y108.659
G1 F1200 X89.569 Y126.338 E64.45468
G0 F6000 X90.134 Y126.338
G1 F1200 X72.455 Y108.659 E65.28624
G0 F6000 X73.021 Y108.659
G1 F1200 X90.7 Y126.338 E66.11781
G0 F6000 X91.266 Y126.338
G1 F1200 X73.587 Y108.659 E66.94938
G0 F6000 X74.152 Y108.659
G1 F1200 X91.831 Y126.338 E67.78094
G0 F6000 X92.397 Y126.338
G1 F1200 X74.718 Y108.659 E68.61251
G0 F6000 X75.284 Y108.659
G1 F1200 X92.963 Y126.338 E69.44407
G0 F6000 X93.529 Y126.338
G1 F1200 X75.849 Y108.659 E70.27566
G0 F6000 X76.415 Y108.659
G1 F1200 X94.094 Y126.338 E71.10723
G0 F6000 X94.66 Y126.338
G1 F1200 X76.981 Y108.659 E71.9388
G0 F6000 X77.546 Y108.659
G1 F1200 X95.226 Y126.338 E72.77038
G0 F6000 X95.791 Y126.338
G1 F1200 X78.112 Y108.659 E73.60195
G0 F6000 X78.678 Y108.659
G1 F1200 X96.357 Y126.338 E74.43352
G0 F6000 X96.923 Y126.338
G1 F1200 X79.244 Y108.659 E75.26508
G0 F6000 X79.809 Y108.659
G1 F1200 X97.488 Y126.338 E76.09665
G0 F6000 X98.054 Y126.338
G1 F1200 X80.375 Y108.659 E76.92821
G0 F6000 X80.941 Y108.659
G1 F1200 X98.62 Y126.338 E77.75978
G0 F6000 X99.185 Y126.338
G1 F1200 X81.506 Y108.659 E78.59135
G0 F6000 X82.072 Y108.659
G1 F1200 X99.751 Y126.338 E79.42291
G0 F6000 X100.317 Y126.338
G1 F1200 X82.638 Y108.659 E80.25448
G0 F6000 X83.203 Y108.659
G1 F1200 X100.882 Y126.338 E81.08604
G0 F6000 X101.448 Y126.338
G1 F1200 X83.769 Y108.659 E81.91761
G0 F6000 X84.335 Y108.659
G1 F1200 X102.014 Y126.338 E82.74918
G0 F6000 X102.579 Y126.338
G1 F1200 X84.9 Y108.659 E83.58074
G0 F6000 X85.466 Y108.659
G1 F1200 X103.145 Y126.338 E84.41231
G0 F6000 X103.711 Y126.338
G1 F1200 X86.032 Y108.659 E85.24387
G0 F6000 X86.597 Y108.659
G1 F1200 X104.277 Y126.338 E86.07546
G0 F6000 X104.842 Y126.338
G1 F1200 X87.163 Y108.659 E86.90703
G0 F6000 X87.729 Y108.659
G1 F1200 X105.408 Y126.338 E87.7386
G0 F6000 X105.974 Y126.338
G1 F1200 X88.295 Y108.659 E88.57016
G0 F6000 X88.86 Y108.659
G1 F1200 X106.539 Y126.338 E89.40173
G0 F6000 X107.105 Y126.338
G1 F1200 X89.426 Y108.659 E90.23329
G0 F6000 X89.992 Y108.659
G1 F1200 X107.671 Y126.338 E91.06486
G0 F6000 X108.236 Y126.338
G1 F1200 X90.557 Y108.659 E91.89643
G0 F6000 X91.123 Y108.659
G1 F1200 X108.802 Y126.338 E92.72799
G0 F6000 X109.368 Y126.338
G1 F1200 X91.689 Y108.659 E93.55956
G0 F6000 X92.254 Y108.659
G1 F1200 X109.933 Y126.338 E94.39112
G0 F6000 X110.499 Y126.338
G1 F1200 X92.82 Y108.659 E95.22269
G0 F6000 X93.386 Y108.659
G1 F1200 X111.065 Y126.338 E96.05426
G0 F6000 X111.63 Y126.338
G1 F1200 X93.951 Y108.659 E96.88582
G0 F6000 X94.517 Y108.659
G1 F1200 X112.196 Y126.338 E97.71739
G0 F6000 X112.762 Y126.338
G1 F1200 X95.083 Y108.659 E98.54895
G0 F6000 X95.648 Y108.659
G1 F1200 X113.328 Y126.338 E99.38054
G0 F6000 X113.893 Y126.338
G1 F1200 X96.214 Y108.659 E100.21211
G0 F6000 X96.78 Y108.659
G1 F1200 X114.459 Y126.338 E101.04367
G0 F6000 X115.025 Y126.338
G1 F1200 X97.345 Y108.659 E101.87526
G0 F6000 X97.911 Y108.659
G1 F1200 X115.59 Y126.338 E102.70683
G0 F6000 X116.156 Y126.338
G1 F1200 X98.477 Y108.659 E103.5384
G0 F6000 X99.043 Y108.659
G1 F1200 X116.722 Y126.338 E104.36996
G0 F6000 X117.287 Y126.338
G1 F1200 X99.608 Y108.659 E105.20153
G0 F6000 X100.174 Y108.659
G1 F1200 X117.854 Y126.339 E106.03314
G0 F6000 X118.419 Y126.339
G1 F1200 X100.74 Y108.659 E106.86473
G0 F6000 X101.305 Y108.659
G1 F1200 X118.985 Y126.339 E107.69634
G0 F6000 X119.551 Y126.339
G1 F1200 X101.871 Y108.659 E108.52796
G0 F6000 X102.437 Y108.659
G1 F1200 X120.116 Y126.339 E109.35955
G0 F6000 X120.682 Y126.339
G1 F1200 X103.002 Y108.659 E110.19116
G0 F6000 X103.568 Y108.659
G1 F1200 X121.248 Y126.339 E111.02277
G0 F6000 X121.813 Y126.339
G1 F1200 X104.134 Y108.659 E111.85436
G0 F6000 X104.699 Y108.659
G1 F1200 X122.379 Y126.339 E112.68597
G0 F6000 X122.945 Y126.339
G1 F1200 X105.265 Y108.659 E113.51759
G0 F6000 X105.831 Y108.659
G1 F1200 X123.511 Y126.339 E114.3492
G0 F6000 X124.076 Y126.339
G1 F1200 X106.396 Y108.659 E115.18081
G0 F6000 X106.962 Y108.659
G1 F1200 X124.642 Y126.339 E116.01243
G0 F6000 X125.208 Y126.339
G1 F1200 X107.528 Y108.659 E116.84404
G0 F6000 X108.093 Y108.659
G1 F1200 X125.773 Y126.339 E117.67565
G0 F6000 X126.339 Y126.339
G1 F1200 X108.659 Y108.659 E118.50727
G0 F6000 X109.225 Y108.659
G1 F1200 X126.905 Y126.339 E119.33888
G0 F6000 X127.47 Y126.339
G1 F1200 X109.791 Y108.659 E120.17047
G0 F6000 X110.356 Y108.659
G1 F1200 X128.036 Y126.339 E121.00208
G0 F6000 X128.602 Y126.339
G1 F1200 X110.922 Y108.659 E121.83369
G0 F6000 X111.488 Y108.659
G1 F1200 X129.167 Y126.339 E122.66528
G0 F6000 X129.733 Y126.339
G1 F1200 X112.053 Y108.659 E123.4969
G0 F6000 X112.619 Y108.659
G1 F1200 X130.299 Y126.339 E124.32851
G0 F6000 X130.864 Y126.339
G1 F1200 X113.185 Y108.659 E125.1601
G0 F6000 X113.75 Y108.659
G1 F1200 X131.43 Y126.339 E125.99171
G0 F6000 X131.996 Y126.339
G1 F1200 X114.316 Y108.659 E126.82332
G0 F6000 X114.882 Y108.659
G1 F1200 X132.562 Y126.339 E127.65494
G0 F6000 X133.127 Y126.339
G1 F1200 X115.447 Y108.659 E128.48655
G0 F6000 X116.013 Y108.659
G1 F1200 X133.693 Y126.339 E129.31816
G0 F6000 X134.259 Y126.339
G1 F1200 X116.579 Y108.659 E130.14978
G0 F6000 X117.144 Y108.659
G1 F1200 X134.824 Y126.339 E130.98139
G0 F6000 X135.39 Y126.339
G1 F1200 X117.71 Y108.659 E131.813
G0 F6000 X118.276 Y108.659
G1 F1200 X135.956 Y126.339 E132.64462
G0 F6000 X136.521 Y126.339
G1 F1200 X118.842 Y108.659 E133.47621
G0 F6000 X119.407 Y108.659
G1 F1200 X137.087 Y126.339 E134.30782
G0 F6000 X137.653 Y126.339
G1 F1200 X119.973 Y108.659 E135.13943
G0 F6000 X120.539 Y108.659
G1 F1200 X138.218 Y126.339 E135.97102
G0 F6000 X138.784 Y126.339
G1 F1200 X121.104 Y108.659 E136.80263
G0 F6000 X121.67 Y108.659
G1 F1200 X139.35 Y126.339 E137.63425
G0 F6000 X139.915 Y126.339
G1 F1200 X122.236 Y108.659 E138.46584
G0 F6000 X122.801 Y108.659
G1 F1200 X140.481 Y126.339 E139.29745
G0 F6000 X141.047 Y126.339
G1 F1200 X123.367 Y108.659 E140.12906
G0 F6000 X123.933 Y108.659
G1 F1200 X141.612 Y126.339 E140.96065
G0 F6000 X142.178 Y126.339
G1 F1200 X124.498 Y108.659 E141.79226
G0 F6000 X125.064 Y108.659
G1 F1200 X142.744 Y126.339 E142.62388
G0 F6000 X143.31 Y126.339
G1 F1200 X125.63 Y108.659 E143.45549
G0 F6000 X126.195 Y108.659
G1 F1200 X143.875 Y126.339 E144.2871
G0 F6000 X144.441 Y126.339
G1 F1200 X126.761 Y108.659 E145.11872
G0 F6000 X127.327 Y108.659
G1 F1200 X145.007 Y126.339 E145.95033
G0 F6000 X145.572 Y126.339
G1 F1200 X127.892 Y108.659 E146.78194
G0 F6000 X128.458 Y108.659
G1 F1200 X146.138 Y126.339 E147.61356
G0 F6000 X146.704 Y126.339
G1 F1200 X129.024 Y108.659 E148.44517
G0 F6000 X129.59 Y108.659
G1 F1200 X147.269 Y126.339 E149.27676
G0 F6000 X147.835 Y126.339
G1 F1200 X130.155 Y108.659 E150.10837
G0 F6000 X130.721 Y108.659
G1 F1200 X148.401 Y126.339 E150.93998
G0 F6000 X148.966 Y126.339
G1 F1200 X131.287 Y108.659 E151.77157
G0 F6000 X131.852 Y108.659
G1 F1200 X149.532 Y126.339 E152.60319
G0 F6000 X150.098 Y126.339
G1 F1200 X132.418 Y108.659 E153.4348
G0 F6000 X132.984 Y108.659
G1 F1200 X150.663 Y126.339 E154.26639
G0 F6000 X151.229 Y126.339
G1 F1200 X133.549 Y108.659 E155.098
G0 F6000 X134.115 Y108.659
G1 F1200 X151.795 Y126.339 E155.92961
G0 F6000 X152.361 Y126.339
G1 F1200 X134.681 Y108.659 E156.76123
G0 F6000 X135.246 Y108.659
G1 F1200 X152.926 Y126.339 E157.59284
G0 F6000 X153.492 Y126.339
G1 F1200 X135.812 Y108.659 E158.42445
G0 F6000 X136.378 Y108.659
G1 F1200 X154.058 Y126.339 E159.25607
G0 F6000 X154.623 Y126.339
G1 F1200 X136.943 Y108.659 E160.08768
G0 F6000 X137.509 Y108.659
G1 F1200 X155.189 Y126.339 E160.91929
G0 F6000 X155.755 Y126.339
G1 F1200 X138.075 Y108.659 E161.75091
G0 F6000 X138.641 Y108.659
G1 F1200 X156.32 Y126.339 E162.5825
G0 F6000 X156.886 Y126.339
G1 F1200 X139.206 Y108.659 E163.41411
G0 F6000 X139.772 Y108.659
G1 F1200 X157.452 Y126.339 E164.24572
G0 F6000 X158.017 Y126.339
G1 F1200 X140.338 Y108.659 E165.07731
G0 F6000 X140.903 Y108.659
G1 F1200 X158.583 Y126.339 E165.90892
G0 F6000 X159.149 Y126.339
G1 F1200 X141.469 Y108.659 E166.74054
G0 F6000 X142.035 Y108.659
G1 F1200 X159.714 Y126.339 E167.57213
G0 F6000 X160.28 Y126.339
G1 F1200 X142.6 Y108.659 E168.40374
G0 F6000 X143.166 Y108.659
G1 F1200 X160.846 Y126.339 E169.23535
G0 F6000 X161.411 Y126.339
G1 F1200 X143.732 Y108.659 E170.06694
G0 F6000 X144.297 Y108.659
G1 F1200 X161.977 Y126.339 E170.89855
G0 F6000 X162.543 Y126.339
G1 F1200 X144.863 Y108.659 E171.73017
G0 F6000 X145.429 Y108.659
G1 F1200 X163.109 Y126.339 E172.56178
G0 F6000 X163.674 Y126.339
G1 F1200 X145.994 Y108.659 E173.39339
G0 F6000 X146.56 Y108.659
G1 F1200 X164.24 Y126.339 E174.22501
