;FLAVOR:Marlin
;TIME:19250
;Filament used: 12.972m
;Layer height: 0.2
;MINX:55.2
;MINY:73.7
;MINZ:0.2
;MAXX:179.8
;MAXY:161.3
;MAXZ:15
;Generated with Cura_SteamEngine 5.2.1
M140 S60
M105
M190 S60
M104 S200
M105
M109 S200
M82 ;absolute extrusion mode
M201 X500.00 Y500.00 Z100.00 E5000.00 ;Setup machine max acceleration
M203 X500.00 Y500.00 Z10.00 E50.00 ;Setup machine max feedrate
M204 P500.00 R1000.00 T500.00 ;Setup Print/Retract/Travel acceleration
M205 X8.00 Y8.00 Z0.40 E5.00 ;Setup Jerk
M220 S100 ;Reset Feedrate
M221 S100 ;Reset Flowrate

G28 ;Home

G92 E0 ;Reset Extruder
G1 Z2.0 F3000 ;Move Z Axis up
G1 X10.1 Y20 Z0.28 F5000.0 ;Move to start position
G1 X10.1 Y200.0 Z0.28 F1500.0 E15 ;Draw the first line
G1 X10.4 Y200.0 Z0.28 F5000.0 ;Move to side a little
G1 X10.4 Y20 Z0.28 F1500.0 E30 ;Draw the second line
G92 E0 ;Reset Extruder
G1 Z2.0 F3000 ;Move Z Axis up

G92 E0
G92 E0
G1 F1500 E-6.5
;LAYER_COUNT:75
;LAYER:0
M107
;MESH:Dinos_and_Barriers_v1.stl
G0 F6000 X58.031 Y160.9 Z0.2
;TYPE:WALL-INNER
G1 F1500 E0
G1 F1200 X176.965 Y160.9 E3.95576
G1 X177.536 Y160.836 E3.97487
G1 X178.04 Y160.659 E3.99264
G1 X178.49 Y160.374 E4.01035
G1 X178.874 Y159.99 E4.02842
G1 X179.159 Y159.54 E4.04613
G1 X179.335 Y159.04 E4.06376
G1 X179.4 Y158.469 E4.08288
G1 X179.4 Y76.533 E6.80808
G1 X179.336 Y75.964 E6.82712
G1 X179.159 Y75.46 E6.84489
G1 X178.874 Y75.01 E6.86261
G1 X178.49 Y74.626 E6.88067
G1 X178.044 Y74.343 E6.89824
G1 X177.539 Y74.165 E6.91605
G1 X176.969 Y74.1 E6.93513
G1 X58.035 Y74.1 E10.89089
G1 X57.464 Y74.164 E10.91
G1 X56.96 Y74.341 E10.92777
G1 X56.51 Y74.626 E10.94548
G1 X56.126 Y75.01 E10.96354
G1 X55.841 Y75.46 E10.98126
G1 X55.665 Y75.96 E10.99889
G1 X55.6 Y76.532 E11.01804
G1 X55.6 Y158.467 E13.74321
G1 X55.664 Y159.036 E13.76225
G1 X55.839 Y159.537 E13.7799
G1 X56.126 Y159.99 E13.79774
G1 X56.51 Y160.374 E13.8158
G1 X56.956 Y160.657 E13.83337
G1 X57.461 Y160.835 E13.85118
G1 X58.031 Y160.9 E13.87026
G0 F6000 X58.009 Y161.3
;TYPE:WALL-OUTER
G1 F1200 X176.987 Y161.3 E17.82748
G1 X177.626 Y161.228 E17.84887
G1 X178.216 Y161.021 E17.86967
G1 X178.742 Y160.688 E17.89037
G1 X179.188 Y160.242 E17.91135
G1 X179.521 Y159.716 E17.93206
G1 X179.727 Y159.13 E17.95272
G1 X179.8 Y158.491 E17.97411
G1 X179.8 Y76.511 E20.70078
G1 X179.728 Y75.874 E20.7221
G1 X179.521 Y75.284 E20.74289
G1 X179.188 Y74.758 E20.7636
G1 X178.742 Y74.312 E20.78458
G1 X178.22 Y73.981 E20.80514
G1 X177.629 Y73.773 E20.82597
G1 X176.991 Y73.7 E20.84733
G1 X58.013 Y73.7 E24.80456
G1 X57.374 Y73.772 E24.82594
G1 X56.784 Y73.979 E24.84674
G1 X56.258 Y74.312 E24.86745
G1 X55.812 Y74.758 E24.88843
G1 X55.479 Y75.284 E24.90913
G1 X55.273 Y75.87 E24.92979
G1 X55.2 Y76.509 E24.95118
G1 X55.2 Y158.489 E27.67785
G1 X55.272 Y159.126 E27.69917
G1 X55.477 Y159.712 E27.71982
G1 X55.812 Y160.242 E27.74067
G1 X56.258 Y160.688 E27.76165
G1 X56.78 Y161.019 E27.78221
G1 X57.371 Y161.227 E27.80305
G1 X58.009 Y161.3 E27.82441
G0 F6000 X58.054 Y160.539
;TYPE:SKIN
G1 F1200 X176.943 Y160.54 E31.77867
G1 X177.458 Y160.481 E31.79591
G1 X177.884 Y160.332 E31.81092
G1 X178.261 Y160.092 E31.82579
G1 X178.591 Y159.761 E31.84133
G1 X178.834 Y159.38 E31.85636
G1 X178.98 Y158.962 E31.87109
G1 X179.04 Y158.446 E31.88837
G1 X179.04 Y76.553 E34.61214
G1 X178.982 Y76.042 E34.62924
G1 X178.832 Y75.616 E34.64427
G1 X178.592 Y75.239 E34.65913
G1 X178.261 Y74.908 E34.6747
G1 X177.887 Y74.67 E34.68944
G1 X177.46 Y74.519 E34.70451
G1 X176.946 Y74.46 E34.72172
G1 X58.057 Y74.46 E38.67598
G1 X57.542 Y74.518 E38.69322
G1 X57.116 Y74.668 E38.70824
G1 X56.739 Y74.908 E38.7231
G1 X56.409 Y75.239 E38.73865
G1 X56.166 Y75.621 E38.75371
G1 X56.019 Y76.038 E38.76841
G1 X55.96 Y76.554 E38.78569
G1 X55.961 Y158.447 E41.50946
G1 X56.019 Y158.959 E41.5266
G1 X56.165 Y159.377 E41.54132
G1 X56.409 Y159.762 E41.55648
G1 X56.74 Y160.092 E41.57203
G1 X57.113 Y160.33 E41.58675
G1 X57.54 Y160.48 E41.6018
G1 X58.054 Y160.539 E41.61901
G0 F6000 X57.18 Y160.135
G1 F1200 X56.367 Y159.322 E41.65725
G0 F6000 X56.174 Y158.563
G1 F1200 X57.933 Y160.323 E41.74001
G0 F6000 X58.514 Y160.337
G1 F1200 X56.159 Y157.983 E41.85076
G0 F6000 X56.159 Y157.417
G1 F1200 X59.08 Y160.337 E41.98813
G0 F6000 X59.645 Y160.337
G1 F1200 X56.159 Y156.851 E42.1521
G0 F6000 X56.159 Y156.286
G1 F1200 X60.211 Y160.337 E42.34267
G0 F6000 X60.777 Y160.337
G1 F1200 X56.159 Y155.72 E42.55986
G0 F6000 X56.159 Y155.154
G1 F1200 X61.342 Y160.337 E42.80365
G0 F6000 X61.908 Y160.337
G1 F1200 X56.159 Y154.589 E43.07405
G0 F6000 X56.159 Y154.023
G1 F1200 X62.474 Y160.337 E43.37106
G0 F6000 X63.039 Y160.337
G1 F1200 X56.159 Y153.457 E43.69468
G0 F6000 X56.159 Y152.892
G1 F1200 X63.605 Y160.337 E44.04489
G0 F6000 X64.171 Y160.337
G1 F1200 X56.159 Y152.326 E44.42173
G0 F6000 X56.159 Y151.76
G1 F1200 X64.737 Y160.337 E44.82518
G0 F6000 X65.302 Y160.337
G1 F1200 X56.159 Y151.194 E45.25524
G0 F6000 X56.159 Y150.629
G1 F1200 X65.868 Y160.337 E45.7119
G0 F6000 X66.434 Y160.337
G1 F1200 X56.159 Y150.063 E46.19518
G0 F6000 X56.159 Y149.497
G1 F1200 X66.999 Y160.337 E46.70506
G0 F6000 X67.565 Y160.337
G1 F1200 X56.159 Y148.932 E47.24154
G0 F6000 X56.159 Y148.366
G1 F1200 X68.131 Y160.337 E47.80465
G0 F6000 X68.696 Y160.337
G1 F1200 X56.159 Y147.8 E48.39435
G0 F6000 X56.159 Y147.235
G1 F1200 X69.262 Y160.337 E49.01065
G0 F6000 X69.828 Y160.337
G1 F1200 X56.159 Y146.669 E49.65357
G0 F6000 X56.159 Y146.103
G1 F1200 X70.393 Y160.337 E50.3231
G0 F6000 X70.959 Y160.337
G1 F1200 X56.159 Y145.538 E51.01922
G0 F6000 X56.159 Y144.972
G1 F1200 X71.525 Y160.337 E51.74197
G0 F6000 X72.09 Y160.337
G1 F1200 X56.159 Y144.406 E52.49131
G0 F6000 X56.159 Y143.841
G1 F1200 X72.656 Y160.337 E53.26726
G0 F6000 X73.222 Y160.337
G1 F1200 X56.159 Y143.275 E54.06982
G0 F6000 X56.159 Y142.709
G1 F1200 X73.788 Y160.337 E54.89901
G0 F6000 X74.353 Y160.337
G1 F1200 X56.159 Y142.144 E55.75478
G0 F6000 X56.159 Y141.578
G1 F1200 X74.919 Y160.337 E56.63717
G0 F6000 X75.485 Y160.337
G1 F1200 X56.159 Y141.012 E57.54618
G0 F6000 X56.159 Y140.446
G1 F1200 X76.05 Y160.337 E58.48179
G0 F6000 X76.616 Y160.337
G1 F1200 X56.159 Y139.881 E59.44401
G0 F6000 X56.159 Y139.315
G1 F1200 X77.182 Y160.337 E60.43284
G0 F6000 X77.747 Y160.337
G1 F1200 X56.159 Y138.749 E61.44827
G0 F6000 X56.159 Y138.184
G1 F1200 X78.313 Y160.337 E62.49031
G0 F6000 X78.879 Y160.337
G1 F1200 X56.159 Y137.618 E63.55896
G0 F6000 X56.159 Y137.052
G1 F1200 X79.444 Y160.337 E64.65422
G0 F6000 X80.01 Y160.337
G1 F1200 X56.159 Y136.487 E65.77607
G0 F6000 X56.159 Y135.921
G1 F1200 X80.576 Y160.337 E66.92455
G0 F6000 X81.141 Y160.337
G1 F1200 X56.159 Y135.355 E68.09962
G0 F6000 X56.159 Y134.79
G1 F1200 X81.707 Y160.337 E69.3013
G0 F6000 X82.273 Y160.337
G1 F1200 X56.159 Y134.224 E70.5296
G0 F6000 X56.159 Y133.658
G1 F1200 X82.838 Y160.337 E71.7845
G0 F6000 X83.404 Y160.337
G1 F1200 X56.159 Y133.093 E73.066
G0 F6000 X56.159 Y132.527
G1 F1200 X83.97 Y160.337 E74.37412
G0 F6000 X84.536 Y160.337
G1 F1200 X56.159 Y131.961 E75.70886
G0 F6000 X56.159 Y131.395
G1 F1200 X85.101 Y160.337 E77.0702
G0 F6000 X85.667 Y160.337
G1 F1200 X56.159 Y130.83 E78.45814
G0 F6000 X56.159 Y130.264
G1 F1200 X86.233 Y160.337 E79.87271
G0 F6000 X86.798 Y160.337
G1 F1200 X56.159 Y129.698 E81.31387
G0 F6000 X56.159 Y129.133
G1 F1200 X87.364 Y160.337 E82.78164
G0 F6000 X87.93 Y160.337
G1 F1200 X56.159 Y128.567 E84.27603
G0 F6000 X56.159 Y128.001
G1 F1200 X88.495 Y160.337 E85.79701
G0 F6000 X89.061 Y160.337
G1 F1200 X56.159 Y127.436 E87.3446
G0 F6000 X56.159 Y126.87
G1 F1200 X89.627 Y160.337 E88.91881
G0 F6000 X90.192 Y160.337
G1 F1200 X56.159 Y126.304 E90.51961
G0 F6000 X56.159 Y125.739
G1 F1200 X90.758 Y160.337 E92.14702
G0 F6000 X91.324 Y160.337
G1 F1200 X56.159 Y125.173 E93.80105
G0 F6000 X56.159 Y124.607
G1 F1200 X91.889 Y160.337 E95.48168
G0 F6000 X92.455 Y160.337
G1 F1200 X56.159 Y124.042 E97.18891
G0 F6000 X56.159 Y123.476
G1 F1200 X93.021 Y160.337 E98.92276
G0 F6000 X93.586 Y160.337
G1 F1200 X56.159 Y122.91 E100.68321
G0 F6000 X56.159 Y122.345
G1 F1200 X94.152 Y160.337 E102.47026
G0 F6000 X94.718 Y160.337
G1 F1200 X56.159 Y121.779 E104.28394
G0 F6000 X56.159 Y121.213
G1 F1200 X95.284 Y160.337 E106.12423
G0 F6000 X95.849 Y160.337
G1 F1200 X56.159 Y120.647 E107.99113
G0 F6000 X56.159 Y120.082
G1 F1200 X96.415 Y160.337 E109.88463
G0 F6000 X96.981 Y160.337
G1 F1200 X56.159 Y119.516 E111.80474
G0 F6000 X56.159 Y118.95
G1 F1200 X97.546 Y160.337 E113.75146
G0 F6000 X98.113 Y160.338
G1 F1200 X56.159 Y118.385 E115.72483
G0 F6000 X56.159 Y117.819
G1 F1200 X98.678 Y160.338 E117.72479
G0 F6000 X99.244 Y160.338
G1 F1200 X56.159 Y117.253 E119.75138
G0 F6000 X56.159 Y116.688
G1 F1200 X99.81 Y160.338 E121.80456
G0 F6000 X100.375 Y160.338
G1 F1200 X56.159 Y116.122 E123.88435
G0 F6000 X56.159 Y115.556
G1 F1200 X100.941 Y160.338 E125.99075
G0 F6000 X101.507 Y160.338
G1 F1200 X56.159 Y114.991 E128.12376
G0 F6000 X56.159 Y114.425
G1 F1200 X102.072 Y160.338 E130.28337
G0 F6000 X102.638 Y160.338
G1 F1200 X56.159 Y113.859 E132.4696
G0 F6000 X56.159 Y113.294
G1 F1200 X103.204 Y160.338 E134.68243
G0 F6000 X103.77 Y160.338
G1 F1200 X56.159 Y112.728 E136.92188
G0 F6000 X56.159 Y112.162
G1 F1200 X104.335 Y160.338 E139.18793
G0 F6000 X104.901 Y160.338
G1 F1200 X56.159 Y111.597 E141.48058
G0 F6000 X56.159 Y111.031
G1 F1200 X105.467 Y160.338 E143.79985
G0 F6000 X106.032 Y160.338
G1 F1200 X56.159 Y110.465 E146.14573
G0 F6000 X56.159 Y109.899
G1 F1200 X106.598 Y160.338 E148.51822
G0 F6000 X107.164 Y160.338
G1 F1200 X56.159 Y109.334 E150.91732
G0 F6000 X56.159 Y108.768
G1 F1200 X107.729 Y160.338 E153.34301
G0 F6000 X108.295 Y160.338
G1 F1200 X56.159 Y108.202 E155.79533
G0 F6000 X56.159 Y107.637
G1 F1200 X108.861 Y160.338 E158.27425
G0 F6000 X109.426 Y160.338
G1 F1200 X56.159 Y107.071 E160.77976
G0 F6000 X56.159 Y106.505
G1 F1200 X109.992 Y160.338 E163.3119
G0 F6000 X110.558 Y160.338
G1 F1200 X56.159 Y105.94 E165.87064
G0 F6000 X56.159 Y105.374
G1 F1200 X111.123 Y160.338 E168.45598
G0 F6000 X111.689 Y160.338
G1 F1200 X56.159 Y104.808 E171.06794
G0 F6000 X56.159 Y104.243
G1 F1200 X112.255 Y160.338 E173.7065
G0 F6000 X112.821 Y160.338
G1 F1200 X56.159 Y103.677 E176.37168
G0 F6000 X56.159 Y103.111
G1 F1200 X113.386 Y160.338 E179.06347
G0 F6000 X113.952 Y160.338
G1 F1200 X56.159 Y102.546 E181.78185
G0 F6000 X56.159 Y101.98
G1 F1200 X114.518 Y160.338 E184.52685
G0 F6000 X115.083 Y160.338
G1 F1200 X56.159 Y101.414 E187.29846
G0 F6000 X56.159 Y100.848
G1 F1200 X115.649 Y160.338 E190.09669
G0 F6000 X116.215 Y160.338
G1 F1200 X56.159 Y100.283 E192.92151
G0 F6000 X56.159 Y99.717
G1 F1200 X116.78 Y160.338 E195.77294
G0 F6000 X117.346 Y160.338
G1 F1200 X56.159 Y99.151 E198.65099
G0 F6000 X56.159 Y98.586
G1 F1200 X117.912 Y160.338 E201.55564
G0 F6000 X118.477 Y160.338
G1 F1200 X56.159 Y98.02 E204.48688
G0 F6000 X56.159 Y97.454
G1 F1200 X119.043 Y160.338 E207.44475
G0 F6000 X119.609 Y160.338
G1 F1200 X56.159 Y96.889 E210.42922
G0 F6000 X56.159 Y96.323
G1 F1200 X120.174 Y160.338 E213.44029
G0 F6000 X120.74 Y160.338
G1 F1200 X56.159 Y95.757 E216.47799
G0 F6000 X56.159 Y95.192
G1 F1200 X121.306 Y160.338 E219.54228
G0 F6000 X121.871 Y160.338
G1 F1200 X56.159 Y94.626 E222.63317
G0 F6000 X56.159 Y94.06
G1 F1200 X122.437 Y160.338 E225.75068
G0 F6000 X123.003 Y160.338
G1 F1200 X56.159 Y93.495 E228.8948
G0 F6000 X56.159 Y92.929
G1 F1200 X123.569 Y160.338 E232.06553
G0 F6000 X124.134 Y160.338
G1 F1200 X56.159 Y92.363 E235.26287
G0 F6000 X56.159 Y91.798
G1 F1200 X124.7 Y160.338 E238.4868
G0 F6000 X125.266 Y160.338
G1 F1200 X56.159 Y91.232 E241.73736
G0 F6000 X56.159 Y90.666
G1 F1200 X125.831 Y160.338 E245.01452
G0 F6000 X126.397 Y160.338
G1 F1200 X56.159 Y90.1 E248.3183
G0 F6000 X56.159 Y89.535
G1 F1200 X126.963 Y160.338 E251.64868
G0 F6000 X127.528 Y160.338
G1 F1200 X56.159 Y88.969 E255.00566
G0 F6000 X56.159 Y88.403
G1 F1200 X128.094 Y160.338 E258.38926
G0 F6000 X128.66 Y160.338
G1 F1200 X56.159 Y87.838 E261.79946
G0 F6000 X56.159 Y87.272
G1 F1200 X129.225 Y160.338 E265.23626
G0 F6000 X129.791 Y160.338
G1 F1200 X56.159 Y86.706 E268.69968
G0 F6000 X56.159 Y86.141
G1 F1200 X130.357 Y160.338 E272.18971
G0 F6000 X130.922 Y160.338
G1 F1200 X56.159 Y85.575 E275.70633
G0 F6000 X56.159 Y85.009
G1 F1200 X131.488 Y160.338 E279.24957
G0 F6000 X132.054 Y160.338
G1 F1200 X56.159 Y84.444 E282.81942
G0 F6000 X56.159 Y83.878
G1 F1200 X132.619 Y160.338 E286.41586
G0 F6000 X133.185 Y160.338
G1 F1200 X56.159 Y83.312 E290.03893
G0 F6000 X56.159 Y82.747
G1 F1200 X133.751 Y160.338 E293.6886
G0 F6000 X134.317 Y160.338
G1 F1200 X56.159 Y82.181 E297.36488
G0 F6000 X56.159 Y81.615
G1 F1200 X134.882 Y160.338 E301.06777
G0 F6000 X135.448 Y160.338
G1 F1200 X56.159 Y81.049 E304.79728
G0 F6000 X56.159 Y80.484
G1 F1200 X136.014 Y160.338 E308.5534
G0 F6000 X136.579 Y160.338
G1 F1200 X56.159 Y79.918 E312.33611
G0 F6000 X56.159 Y79.352
G1 F1200 X137.145 Y160.338 E316.14544
G0 F6000 X137.711 Y160.339
G1 F1200 X56.159 Y78.787 E319.98139
G0 F6000 X56.159 Y78.221
G1 F1200 X138.277 Y160.339 E323.84397
G0 F6000 X138.843 Y160.339
G1 F1200 X56.159 Y77.655 E327.73318
G0 F6000 X56.159 Y77.09
G1 F1200 X139.408 Y160.339 E331.64895
G0 F6000 X139.974 Y160.339
G1 F1200 X56.163 Y76.528 E335.59117
G0 F6000 X56.232 Y76.031
G1 F1200 X140.54 Y160.339 E339.55676
G0 F6000 X141.105 Y160.339
G1 F1200 X56.396 Y75.629 E343.54123
G0 F6000 X56.63 Y75.298
G1 F1200 X141.671 Y160.339 E347.5413
G0 F6000 X142.237 Y160.339
G1 F1200 X56.924 Y75.026 E351.55416
G0 F6000 X57.284 Y74.82
G1 F1200 X142.803 Y160.339 E355.57671
G0 F6000 X143.368 Y160.339
G1 F1200 X57.726 Y74.697 E359.60505
G0 F6000 X58.254 Y74.659
G1 F1200 X143.934 Y160.339 E363.63517
G0 F6000 X144.5 Y160.339
G1 F1200 X58.82 Y74.659 E367.6653
G0 F6000 X59.386 Y74.659
G1 F1200 X145.065 Y160.339 E371.6954
G0 F6000 X145.631 Y160.339
G1 F1200 X59.952 Y74.659 E375.7255
G0 F6000 X60.517 Y74.659
G1 F1200 X146.197 Y160.339 E379.75562
G0 F6000 X146.762 Y160.339
G1 F1200 X61.083 Y74.659 E383.78573
G0 F6000 X61.649 Y74.659
G1 F1200 X147.328 Y160.339 E387.81583
G0 F6000 X147.894 Y160.339
G1 F1200 X62.214 Y74.659 E391.84595
G0 F6000 X62.78 Y74.659
G1 F1200 X148.459 Y160.339 E395.87605
G0 F6000 X149.025 Y160.339
G1 F1200 X63.346 Y74.659 E399.90615
G0 F6000 X63.911 Y74.659
G1 F1200 X149.591 Y160.339 E403.93628
G0 F6000 X150.156 Y160.339
G1 F1200 X64.477 Y74.659 E407.96638
G0 F6000 X65.043 Y74.659
G1 F1200 X150.722 Y160.339 E411.99648
G0 F6000 X151.288 Y160.339
G1 F1200 X65.608 Y74.659 E416.0266
G0 F6000 X66.174 Y74.659
G1 F1200 X151.854 Y160.339 E420.05673
G0 F6000 X152.419 Y160.339
G1 F1200 X66.74 Y74.659 E424.08683
G0 F6000 X67.305 Y74.659
G1 F1200 X152.985 Y160.339 E428.11695
G0 F6000 X153.551 Y160.339
G1 F1200 X67.871 Y74.659 E432.14708
G0 F6000 X68.437 Y74.659
G1 F1200 X154.116 Y160.339 E436.17718
G0 F6000 X154.682 Y160.339
G1 F1200 X69.003 Y74.659 E440.20728
G0 F6000 X69.568 Y74.659
G1 F1200 X155.248 Y160.339 E444.23741
G0 F6000 X155.813 Y160.339
G1 F1200 X70.134 Y74.659 E448.26751
G0 F6000 X70.7 Y74.659
G1 F1200 X156.379 Y160.339 E452.29761
G0 F6000 X156.945 Y160.339
G1 F1200 X71.265 Y74.659 E456.32773
G0 F6000 X71.831 Y74.659
G1 F1200 X157.51 Y160.339 E460.35783
G0 F6000 X158.076 Y160.339
G1 F1200 X72.397 Y74.659 E464.38793
G0 F6000 X72.962 Y74.659
G1 F1200 X158.642 Y160.339 E468.41806
G0 F6000 X159.207 Y160.339
G1 F1200 X73.528 Y74.659 E472.44816
G0 F6000 X74.094 Y74.659
G1 F1200 X159.773 Y160.339 E476.47826
G0 F6000 X160.339 Y160.339
G1 F1200 X74.659 Y74.659 E480.50838
G0 F6000 X75.225 Y74.659
G1 F1200 X160.904 Y160.339 E484.53849
G0 F6000 X161.47 Y160.339
G1 F1200 X75.791 Y74.659 E488.56859
G0 F6000 X76.356 Y74.659
G1 F1200 X162.036 Y160.339 E492.59871
G0 F6000 X162.602 Y160.339
G1 F1200 X76.922 Y74.659 E496.62884
G0 F6000 X77.488 Y74.659
G1 F1200 X163.167 Y160.339 E500.65894
G0 F6000 X163.733 Y160.339
G1 F1200 X78.053 Y74.659 E504.68906
G0 F6000 X78.619 Y74.659
G1 F1200 X164.299 Y160.339 E508.71919
G0 F6000 X164.864 Y160.339
G1 F1200 X79.185 Y74.659 E512.74929
G0 F6000 X79.751 Y74.659
G1 F1200 X165.43 Y160.339 E516.77939
G0 F6000 X165.996 Y160.339
G1 F1200 X80.316 Y74.659 E520.80951
G0 F6000 X80.882 Y74.659
