;FLAVOR:Marlin
;TIME:5362
;Filament used: 3.0449m
;Layer height: 0.2
;MINX:55.816
;MINY:74.7
;MINZ:0.2
;MAXX:179.184
;MAXY:160.3
;MAXZ:12
;Generated with Cura_SteamEngine 5.2.1
M140 S60
M105
M190 S60
M104 S200
M105
M109 S200
M82 ;absolute extrusion mode
M201 X500.00 Y500.00 Z100.00 E5000.00 ;Setup machine max acceleration
M203 X500.00 Y500.00 Z10.00 E50.00 ;Setup machine max feedrate
M204 P500.00 R1000.00 T500.00 ;Setup Print/Retract/Travel acceleration
M205 X8.00 Y8.00 Z0.40 E5.00 ;Setup Jerk
M220 S100 ;Reset Feedrate
M221 S100 ;Reset Flowrate

G28 ;Home

G92 E0 ;Reset Extruder
G1 Z2.0 F3000 ;Move Z Axis up
G1 X10.1 Y20 Z0.28 F5000.0 ;Move to start position
G1 X10.1 Y200.0 Z0.28 F1500.0 E15 ;Draw the first line
G1 X10.4 Y200.0 Z0.28 F5000.0 ;Move to side a little
G1 X10.4 Y20 Z0.28 F1500.0 E30 ;Draw the second line
G92 E0 ;Reset Extruder
G1 Z2.0 F3000 ;Move Z Axis up

G92 E0
G92 E0
G1 F1500 E-6.5
;LAYER_COUNT:60
;LAYER:0
M107
;MESH:Card_Organizer_v1.stl
G0 F6000 X110.746 Y159.846 Z0.2
;TYPE:WALL-INNER
G1 F1500 E0
G1 F1200 X111.078 Y159.708 E0.01196
G1 X111.371 Y159.483 E0.02425
G1 X111.59 Y159.197 E0.03623
G1 X111.729 Y158.865 E0.0482
G1 X111.784 Y158.462 E0.06173
G1 X111.788 Y120.423 E1.32691
G1 X111.866 Y119.824 E1.347
G1 X112.127 Y119.193 E1.36971
G1 X112.542 Y118.655 E1.39231
G1 X113.094 Y118.236 E1.41536
G1 X113.703 Y117.983 E1.43729
G1 X114.306 Y117.904 E1.45752
G1 X175.437 Y117.901 E3.49075
G1 X176.068 Y117.984 E3.51191
G1 X176.693 Y118.25 E3.53451
G1 X177.228 Y118.657 E3.55686
G1 X177.637 Y119.188 E3.57916
G1 X177.9 Y119.817 E3.60183
G1 X177.98 Y120.415 E3.6219
G1 X177.984 Y156.756 E4.83061
G1 X178.784 Y156.756 E4.85721
G1 X178.784 Y78.244 E7.46853
G1 X177.984 Y78.244 E7.49514
G1 X177.98 Y114.577 E8.70358
G1 X177.901 Y115.176 E8.72368
G1 X177.641 Y115.806 E8.74635
G1 X177.226 Y116.345 E8.76897
G1 X176.695 Y116.748 E8.79114
G1 X176.07 Y117.015 E8.81375
G1 X175.438 Y117.099 E8.83495
G1 X114.302 Y117.096 E10.86834
G1 X113.701 Y117.016 E10.88851
G1 X113.077 Y116.757 E10.91098
G1 X112.54 Y116.343 E10.93353
G1 X112.126 Y115.804 E10.95614
G1 X111.868 Y115.18 E10.9786
G1 X111.788 Y114.586 E10.99853
G1 X111.784 Y76.539 E12.26398
G1 X111.73 Y76.136 E12.2775
G1 X111.592 Y75.806 E12.2894
G1 X111.371 Y75.516 E12.30153
G1 X111.08 Y75.293 E12.31372
G1 X110.748 Y75.155 E12.32568
G1 X110.346 Y75.101 E12.33917
G1 X59.36 Y75.1 E14.03497
G1 X59.36 Y75.9 E14.06158
G1 X108.461 Y75.904 E15.69469
G1 X109.059 Y75.982 E15.71474
G1 X109.69 Y76.243 E15.73745
G1 X110.228 Y76.657 E15.76003
G1 X110.637 Y77.188 E15.78233
G1 X110.9 Y77.817 E15.805
G1 X110.98 Y78.415 E15.82507
G1 X110.98 Y156.577 E18.42475
G1 X110.901 Y157.179 E18.44494
G1 X110.64 Y157.808 E18.46759
G1 X110.225 Y158.34 E18.49003
G1 X109.695 Y158.755 E18.51242
G1 X109.068 Y159.016 E18.53501
G1 X108.466 Y159.096 E18.55521
G1 X59.36 Y159.1 E20.18848
G1 X59.36 Y159.9 E20.21509
G1 X110.343 Y159.9 E21.91079
G1 X110.746 Y159.846 E21.92432
G0 F6000 X110.85 Y160.236
;TYPE:WALL-OUTER
G1 F1200 X111.28 Y160.058 E21.93979
G1 X111.657 Y159.769 E21.95559
G1 X111.94 Y159.399 E21.97109
G1 X112.119 Y158.971 E21.98652
G1 X112.184 Y158.489 E22.00269
G1 X112.185 Y120.475 E23.26704
G1 X112.256 Y119.928 E23.28539
G1 X112.477 Y119.395 E23.30458
G1 X112.826 Y118.941 E23.32363
G1 X113.277 Y118.596 E23.34251
G1 X113.806 Y118.373 E23.36161
G1 X114.356 Y118.301 E23.38006
G1 X175.414 Y118.301 E25.41085
G1 X175.958 Y118.372 E25.4291
G1 X176.489 Y118.594 E25.44824
G1 X176.944 Y118.943 E25.46732
G1 X177.289 Y119.391 E25.48612
G1 X177.511 Y119.924 E25.50533
G1 X177.583 Y120.467 E25.52354
G1 X177.584 Y157.156 E26.74383
G1 X179.184 Y157.156 E26.79704
G1 X179.184 Y77.844 E29.43497
G1 X177.584 Y77.844 E29.48819
G1 X177.583 Y114.525 E30.7082
G1 X177.514 Y115.055 E30.72598
G1 X177.292 Y115.605 E30.7457
G1 X176.942 Y116.059 E30.76477
G1 X176.491 Y116.404 E30.78366
G1 X175.961 Y116.627 E30.80278
G1 X175.404 Y116.7 E30.82147
G1 X114.354 Y116.699 E32.852
G1 X113.811 Y116.628 E32.87021
G1 X113.279 Y116.408 E32.88936
G1 X112.826 Y116.058 E32.9084
G1 X112.477 Y115.604 E32.92745
G1 X112.255 Y115.059 E32.94702
G1 X112.185 Y114.533 E32.96467
G1 X112.184 Y76.513 E34.22922
G1 X112.12 Y76.031 E34.24539
G1 X111.942 Y75.604 E34.26078
G1 X111.657 Y75.231 E34.27639
G1 X111.282 Y74.944 E34.2921
G1 X110.854 Y74.765 E34.30753
G1 X110.373 Y74.701 E34.32366
G1 X58.96 Y74.7 E36.03367
G1 X58.96 Y76.3 E36.08688
G1 X108.409 Y76.301 E37.73156
G1 X108.955 Y76.372 E37.74988
G1 X109.489 Y76.593 E37.7691
G1 X109.925 Y76.928 E37.78739
G1 X110.289 Y77.391 E37.80698
G1 X110.511 Y77.924 E37.82618
G1 X110.583 Y78.467 E37.8444
G1 X110.583 Y156.525 E40.44062
G1 X110.514 Y157.056 E40.45843
G1 X110.292 Y157.605 E40.47812
G1 X109.956 Y158.041 E40.49643
G1 X109.493 Y158.405 E40.51602
G1 X108.943 Y158.629 E40.53577
G1 X108.414 Y158.699 E40.55352
G1 X58.96 Y158.7 E42.19837
G1 X58.96 Y160.3 E42.25158
G1 X110.369 Y160.3 E43.96145
G1 X110.85 Y160.236 E43.97759
G0 F6000 X110.317 Y159.54
;TYPE:SKIN
G1 F1200 X110.653 Y159.494 E43.98887
G1 X110.893 Y159.394 E43.99752
G1 X111.115 Y159.225 E44.0068
G1 X111.276 Y159.012 E44.01568
G1 X111.377 Y158.771 E44.02437
G1 X111.424 Y158.437 E44.03559
G1 X111.424 Y158.048 E44.04853
G1 F1019.1 X111.353 Y157.325 E44.07698
G1 F863.3 X111.339 Y157.263 E44.07992
G1 F989.7 X110.942 Y158.006 E44.11389
G1 F1200 X110.469 Y158.614 E44.13951
G1 X109.892 Y159.056 E44.16369
G1 F1086 X109.132 Y159.461 E44.19534
G1 X109.938 Y159.54 E44.2251
G1 F1200 X110.317 Y159.54 E44.23771
G0 F6000 X110.317 Y159.8
G0 X109.305 Y159.8
G0 X109.146 Y159.454
G1 F912.5 X108.474 Y159.499 E44.26716
G1 F997.9 X59.76 Y159.5 E46.2155
G1 F1500 E39.7155
G0 F6000 X59.46 Y159.501
G0 X108.417 Y158.939
G0 X109.02 Y158.859
G0 X109.609 Y158.613
G0 X110.014 Y158.301
G0 X111.018 Y157.063
G1 F1500 E46.2155
G0 F6000 X111.339 Y157.263
G1 F914.3 X111.384 Y156.552 E46.2466
G1 F997.9 X111.384 Y120.418 E47.69179
G1 F912.5 X111.427 Y119.744 E47.72132
G0 F6000 X111.419 Y119.759
G1 F1086 X111.827 Y118.992 E47.75325
G1 F1200 X112.274 Y118.409 E47.77769
G1 X112.877 Y117.948 E47.80293
G1 X113.584 Y117.64 E47.82858
G1 F1071.4 X114.25 Y117.5 E47.85393
G1 X113.587 Y117.359 E47.87918
G1 F1200 X112.928 Y117.086 E47.90291
G1 X112.294 Y116.61 E47.92928
G1 X111.829 Y116.011 E47.9545
G1 F987.7 X111.428 Y115.261 E47.98887
G1 F864.9 X111.41 Y115.337 E47.99247
G1 F1023.5 X111.341 Y116.057 E48.02068
G1 F1200 X111.341 Y118.946 E48.11677
G1 F1086 X111.419 Y119.759 E48.14678
G1 F1500 E41.64678
G0 F6000 X111.085 Y119.756
G0 X110.822 Y157.791
G0 X109.008 Y159.186
G0 X59.532 Y159.272
G0 X59.532 Y159.728
G0 X110.368 Y159.734
G0 X110.919 Y159.6
G0 X111.308 Y159.301
G0 X111.572 Y158.822
G0 X111.623 Y158.451
G0 X111.946 Y119.209
G0 X113.762 Y117.813
G0 X176.675 Y118.063
G0 X178.07 Y119.876
G0 X178.156 Y156.584
G0 X178.612 Y156.584
G0 X178.612 Y78.416
G0 X178.156 Y78.416
G0 X177.822 Y115.791
G0 X176.348 Y116.921
G0 X114.283 Y117.195
G1 F1500 E48.14678
G0 F6000 X114.25 Y117.5
G1 F971.7 X129.555 Y117.5 E48.77546
G1 F977.6 X144.86 Y117.5 E49.40031
G1 F983.6 X160.165 Y117.5 E50.02135
G1 F989.7 X175.47 Y117.5 E50.63857
G1 F1500 E44.13857
G0 F6000 X175.542 Y117.186
G0 X177.718 Y115.969
G0 X178.145 Y114.498
G0 X178.156 Y78.416
G0 X178.612 Y78.416
G0 X178.612 Y156.584
G0 X178.156 Y156.584
G0 X178.021 Y119.969
G1 F1500 E50.63857
G0 F6000 X178.347 Y119.758
G1 F1086 X178.424 Y118.945 E50.66858
G1 F1200 X178.424 Y116.045 E50.76503
G1 F1086 X178.346 Y115.249 E50.79443
G1 X177.945 Y116.002 E50.82578
G1 F1200 X177.493 Y116.592 E50.8505
G1 X176.874 Y117.065 E50.87641
G1 X176.182 Y117.359 E50.90142
G1 F1086 X175.469 Y117.5 E50.92813
G1 X176.178 Y117.641 E50.9547
G1 F1200 X176.841 Y117.913 E50.97854
G1 X177.489 Y118.404 E51.00558
G1 X177.94 Y118.99 E51.03017
G1 F1086 X178.347 Y119.758 E51.06212
G0 F6000 X178.339 Y119.742
G1 F912.5 X178.383 Y120.402 E51.09105
G1 F997.9 X178.384 Y156.356 E52.52904
G1 F1500 E46.02904
G0 F6000 X178.385 Y156.656
G0 X178.612 Y78.416
G0 X178.156 Y78.416
G0 X178.018 Y115.062
G1 F1500 E52.52904
G0 F6000 X178.339 Y115.262
G1 F912.5 X178.383 Y114.582 E52.55884
G1 F997.9 X178.384 Y78.644 E53.99619
G1 F1500 E47.49619
G0 F6000 X178.383 Y78.344
G0 X177.823 Y78.34
G0 X177.823 Y114.528
G0 X177.744 Y115.132
G0 X177.499 Y115.722
G0 X177.111 Y116.227
G0 X176.609 Y116.613
G0 X176.02 Y116.859
G0 X175.417 Y116.939
G0 X114.356 Y116.939
G0 X113.752 Y116.86
G0 X113.162 Y116.615
G0 X112.657 Y116.227
G0 X112.271 Y115.725
G0 X112.025 Y115.137
G0 X111.945 Y114.533
G0 X111.585 Y76.26
G0 X111.402 Y75.822
G0 X110.998 Y75.434
G0 X110.625 Y75.301
G0 X109.038 Y75.26
G0 X59.532 Y75.272
G0 X59.532 Y75.728
G0 X109.675 Y76.062
G0 X111.021 Y77.969
G1 F1500 E53.99619
G0 F6000 X111.347 Y77.758
G1 F1086 X111.424 Y76.948 E54.0261
G1 F1200 X111.424 Y76.562 E54.03894
G1 X111.378 Y76.229 E54.05012
G1 X111.279 Y75.991 E54.05869
G1 X111.115 Y75.775 E54.06771
G1 X110.894 Y75.607 E54.07694
G1 X110.656 Y75.507 E54.08553
G1 X110.322 Y75.462 E54.09674
G1 X109.937 Y75.461 E54.10954
G1 F1025.6 X109.215 Y75.529 E54.13776
G1 F869.6 X109.14 Y75.545 E54.14128
G1 F991.7 X109.892 Y75.943 E54.17553
G1 F1200 X110.484 Y76.398 E54.20036
G1 X110.942 Y76.994 E54.22536
G1 F1086 X111.347 Y77.758 E54.25714
G0 F6000 X111.339 Y77.742
G1 F907.4 X111.38 Y78.357 E54.28425
G1 F985.6 X111.383 Y114.593 E55.7516
G1 F907.4 X111.428 Y115.261 E55.78105
G1 F1500 E49.28105
G0 F6000 X111.75 Y115.057
G0 X111.585 Y76.26
G0 X111.402 Y75.822
G0 X110.998 Y75.434
G0 X110.697 Y75.327
G0 X109.142 Y75.201
G1 F1500 E55.78105
G0 F6000 X109.14 Y75.545
G1 F916 X108.435 Y75.5 E55.81183
G1 F1000 X59.76 Y75.5 E57.75455
G1 F1500 E51.25455
G0 F6000 X59.46 Y75.501
G0 X108.412 Y76.061
G0 X109.015 Y76.14
G0 X109.606 Y76.385
G0 X110.111 Y76.773
G0 X110.497 Y77.275
G0 X110.743 Y77.863
G0 X110.823 Y78.467
G0 X110.823 Y156.528
G0 X110.744 Y157.132
G0 X110.606 Y157.465
G0 X109.878 Y158.739
G1 F1500 E57.75455
G0 F6000 X110.004 Y159.219
G1 F1200 X110.124 Y159.338 E57.76017
G0 F6000 X110.326 Y158.975
G1 F1200 X110.634 Y159.283 E57.77466
G0 F6000 X110.983 Y159.067
G1 F1200 X110.636 Y158.72 E57.79098
G0 F6000 X110.884 Y158.401
G1 F1200 X111.184 Y158.702 E57.80512
G0 F6000 X111.224 Y158.176
G1 F1200 X111.123 Y158.075 E57.80987
G1 F1500 E51.30987
G0 F6000 X110.797 Y157.693
G0 X109.008 Y159.186
G0 X59.532 Y159.272
G0 X59.532 Y159.728
G0 X110.368 Y159.734
G0 X110.919 Y159.6
G0 X111.308 Y159.301
G0 X111.572 Y158.822
G0 X111.971 Y119.307
G1 F1500 E57.80987
G0 F6000 X111.619 Y118.973
G1 F1200 X111.541 Y118.895 E57.81354
G0 F6000 X111.847 Y118.635
G1 F1200 X111.541 Y118.329 E57.82793
G0 F6000 X112.092 Y118.315
G1 F1200 X111.541 Y117.763 E57.85387
G0 F6000 X111.54 Y117.197
G1 F1200 X112.401 Y118.058 E57.89437
G0 F6000 X112.722 Y117.813
G1 F1200 X111.54 Y116.631 E57.94997
G0 F6000 X111.89 Y116.415
G1 F1200 X111.54 Y116.065 E57.96643
G0 F6000 X111.085 Y116.065
G0 X110.819 Y77.204
G0 X109.001 Y75.813
G0 X59.532 Y75.728
G0 X59.532 Y75.272
G0 X110.372 Y75.267
G0 X110.921 Y75.401
G0 X111.308 Y75.699
G0 X111.573 Y76.179
G0 X111.623 Y76.551
G0 X111.949 Y115.796
G0 X112.745 Y116.627
G0 X112.465 Y116.99
G1 F1200 X113.103 Y117.628 E57.99644
G1 F1500 E51.49644
G0 F6000 X113.278 Y118.051
G0 X176.675 Y118.063
G0 X178.07 Y119.876
G0 X178.156 Y156.584
G0 X178.612 Y156.584
G0 X178.612 Y78.416
G0 X178.156 Y78.416
G0 X177.822 Y115.791
G0 X176.002 Y117.187
G0 X113.236 Y117
G0 X112.271 Y115.725
G0 X112.025 Y115.137
G0 X111.981 Y114.796
G0 X111.671 Y76.449
G1 F1500 E57.99644
G0 F6000 X111.223 Y76.716
G1 F1200 X110.168 Y75.661 E58.04606
G1 F1500 E51.54606
G0 F6000 X110.168 Y75.201
G0 X110.998 Y75.434
G0 X111.922 Y76.302
G0 X111.945 Y114.533
G0 X112.025 Y115.137
G0 X112.271 Y115.725
G0 X112.657 Y116.227
G0 X113.162 Y116.615
G0 X113.752 Y116.86
G0 X114.093 Y116.904
G0 X176.562 Y116.919
G1 F1500 E58.04606
G0 F6000 X176.737 Y117.34
G1 F1200 X178.223 Y118.826 E58.11596
G0 F6000 X178.223 Y118.26
G1 F1200 X177.104 Y117.141 E58.1686
G0 F6000 X177.425 Y116.896
G1 F1200 X178.223 Y117.695 E58.20616
G0 F6000 X178.223 Y117.129
G1 F1200 X177.718 Y116.624 E58.22991
G0 F6000 X177.963 Y116.304
G1 F1200 X178.223 Y116.563 E58.24211
G1 F1500 E51.74211
;MESH:NONMESH
G0 F300 X178.223 Y116.563 Z0.4
G0 F6000 X177.571 Y116.063
G0 X178.145 Y114.498
G0 X178.156 Y78.416
G0 X178.612 Y78.416
G0 X178.612 Y156.584
G0 X178.156 Y156.584
G0 X177.819 Y119.204
G0 X176.002 Y117.813
G0 X114.351 Y118.061
G0 X113.747 Y118.141
G0 X113.159 Y118.387
G0 X112.657 Y118.773
G0 X112.269 Y119.278
G0 X112.024 Y119.868
G0 X111.945 Y120.472
G0 X111.528 Y158.832
G0 X110.691 Y159.752
G1 F1500 E58.24211
G0 F6000 X110.746 Y159.846
;TIME_ELAPSED:131.992244
;LAYER:1
M106 S85
;TYPE:WALL-INNER
;MESH:Card_Organizer_v1.stl
G1 F1350 X111.078 Y159.708 E58.25407
G1 X111.371 Y159.484 E58.26634
G1 X111.592 Y159.194 E58.27847
G1 X111.73 Y158.862 E58.29043
G1 X111.783 Y158.471 E58.30355
G1 X111.788 Y120.423 E59.56903
G1 X111.866 Y119.824 E59.58912
G1 X112.127 Y119.194 E59.6118
G1 X112.542 Y118.654 E59.63445
G1 X113.095 Y118.236 E59.65751
G1 X113.706 Y117.983 E59.67951
G1 X114.372 Y117.9 E59.70183
G1 X175.439 Y117.901 E61.73292
G1 X176.063 Y117.984 E61.75386
G1 X176.673 Y118.235 E61.7758
G1 X177.228 Y118.657 E61.79899
G1 X177.641 Y119.194 E61.82152
G1 X177.903 Y119.827 E61.84431
G1 X177.983 Y120.485 E61.86635
G1 X177.984 Y157.418 E63.09475
G1 X178.784 Y157.418 E63.12136
G1 X178.784 Y77.582 E65.77672
G1 X177.984 Y77.582 E65.80332
G1 X177.98 Y114.577 E67.03378
G1 X177.901 Y115.179 E67.05398
G1 X177.641 Y115.806 E67.07655
G1 X177.228 Y116.343 E67.09908
G1 X176.673 Y116.765 E67.12227
G1 X176.063 Y117.016 E67.14421
G1 X175.444 Y117.098 E67.16498
G1 X114.293 Y117.095 E69.19887
G1 X113.704 Y117.016 E69.21864
G1 X113.095 Y116.764 E69.24056
G1 X112.542 Y116.346 E69.26361
G1 X112.127 Y115.806 E69.28627
G1 X111.867 Y115.179 E69.30884
G1 X111.789 Y114.594 E69.32847
G1 X111.784 Y76.539 E70.59419
G1 X111.73 Y76.136 E70.60771
G1 X111.592 Y75.806 E70.61961
G1 X111.371 Y75.516 E70.63173
G1 X111.078 Y75.292 E70.644
G1 X110.745 Y75.154 E70.65599
G1 X110.355 Y75.102 E70.66908
G1 X58.698 Y75.101 E72.38719
G1 X58.698 Y75.899 E72.41374
G1 X108.461 Y75.904 E74.06886
G1 X109.059 Y75.982 E74.08892
G1 X109.689 Y76.243 E74.1116
G1 X110.228 Y76.657 E74.1342
G1 X110.644 Y77.2 E74.15696
G1 X110.902 Y77.827 E74.17951
G1 X110.983 Y78.485 E74.20156
G1 X110.985 Y156.499 E76.79631
G1 X110.903 Y157.173 E76.8189
G1 X110.642 Y157.804 E76.84161
G1 X110.228 Y158.343 E76.86421
G1 X109.69 Y158.757 E76.88679
G1 X109.062 Y159.017 E76.9094
G1 X108.475 Y159.095 E76.92909
G1 X58.698 Y159.1 E78.58468
G1 X58.697 Y159.9 E78.61129
G1 X110.343 Y159.9 E80.32904
G1 X110.746 Y159.846 E80.34257
G0 F7500 X110.85 Y160.236
;TYPE:WALL-OUTER
G1 F1350 X111.28 Y160.058 E80.35805
G1 X111.657 Y159.769 E80.37385
G1 X111.942 Y159.396 E80.38946
G1 X112.12 Y158.967 E80.40491
G1 X112.183 Y158.498 E80.42065
G1 X112.185 Y120.475 E81.6853
G1 X112.256 Y119.928 E81.70364
G1 X112.477 Y119.395 E81.72283
G1 X112.826 Y118.941 E81.74188
G1 X113.28 Y118.594 E81.76088
G1 X113.812 Y118.372 E81.78006
G1 X114.372 Y118.3 E81.79884
G1 X175.423 Y118.302 E83.8294
G1 X175.955 Y118.372 E83.84725
G1 X176.488 Y118.594 E83.86645
G1 X176.944 Y118.943 E83.88555
G1 X177.291 Y119.395 E83.9045
G1 X177.512 Y119.928 E83.92369
G1 X177.582 Y120.458 E83.94148
G1 X177.584 Y157.818 E85.18407
G1 X179.184 Y157.818 E85.23729
G1 X179.184 Y77.182 E87.91925
G1 X177.584 Y77.182 E87.97247
G1 X177.583 Y114.525 E89.2145
G1 X177.514 Y115.056 E89.23231
G1 X177.292 Y115.605 E89.25201
G1 X176.944 Y116.057 E89.27098
G1 X176.488 Y116.406 E89.29008
G1 X175.955 Y116.628 E89.30929
G1 X175.412 Y116.699 E89.3275
G1 X114.345 Y116.698 E91.3586
G1 X113.812 Y116.628 E91.37648
G1 X113.28 Y116.406 E91.39565
G1 X112.826 Y116.059 E91.41466
G1 X112.476 Y115.605 E91.43372
G1 X112.254 Y115.056 E91.45342
G1 X112.186 Y114.542 E91.47066
G1 X112.184 Y76.513 E92.73551
G1 X112.12 Y76.031 E92.75168
G1 X111.942 Y75.604 E92.76707
G1 X111.657 Y75.231 E92.78268
G1 X111.28 Y74.942 E92.79848
G1 X110.85 Y74.764 E92.81396
G1 X110.382 Y74.702 E92.82966
G1 X58.298 Y74.701 E94.56198
G1 X58.298 Y76.299 E94.61513
G1 X108.409 Y76.301 E96.28183
