;FLAVOR:Marlin
;TIME:9597
;Filament used: 9.52984m
;Layer height: 0.28
;MINX:72.5
;MINY:60.5
;MINZ:0.28
;MAXX:162.5
;MAXY:174.5
;MAXZ:36.12
;TARGET_MACHINE.NAME:Creality CR-6 SE
;Generated with Cura_SteamEngine 5.8.1
M140 S60
M105
M190 S60
M104 S200
M105
M109 S200
M82 ;absolute extrusion mode
M201 X500.00 Y500.00 Z100.00 E5000.00 ;Setup machine max acceleration
M203 X500.00 Y500.00 Z10.00 E50.00 ;Setup machine max feedrate
M204 P500.00 R1000.00 T500.00 ;Setup Print/Retract/Travel acceleration
M205 X8.00 Y8.00 Z0.40 E5.00 ;Setup Jerk
M220 S100 ;Reset Feedrate
M221 S100 ;Reset Flowrate

G28 ;Home

G92 E0 ;Reset Extruder
G1 Z2.0 F3000 ;Move Z Axis up
G1 X10.1 Y20 Z0.28 F5000.0 ;Move to start position
G1 X10.1 Y200.0 Z0.28 F1500.0 E15 ;Draw the first line
G1 X10.4 Y200.0 Z0.28 F5000.0 ;Move to side a little
G1 X10.4 Y20 Z0.28 F1500.0 E30 ;Draw the second line
G92 E0 ;Reset Extruder
G1 Z2.0 F3000 ;Move Z Axis up

G92 E0
G92 E0
G1 F1500 E-6.5
;LAYER_COUNT:129
;LAYER:0
M107
G0 F6000 X75.267 Y64.226 Z0.28
;TYPE:SKIRT
G1 F1500 E0
G1 F1200 X75.969 Y63.501 E0.04699
G1 X76.679 Y62.887 E0.0907
G1 X77.498 Y62.297 E0.1377
G1 X78.337 Y61.801 E0.18308
G1 X79.151 Y61.41 E0.22513
G1 X80.128 Y61.042 E0.27375
G1 X81.032 Y60.792 E0.31742
G1 X82.034 Y60.609 E0.36485
G1 X83.205 Y60.513 E0.41956
G1 X83.812 Y60.5 E0.44783
G1 X150.804 Y60.5 E3.56726
G1 X151.684 Y60.513 E3.60824
G1 X152.656 Y60.572 E3.65358
G1 X153.619 Y60.718 E3.69894
G1 X154.566 Y60.949 E3.74433
G1 X155.454 Y61.249 E3.78797
G1 X156.346 Y61.639 E3.8333
G1 X157.229 Y62.126 E3.88026
G1 X157.98 Y62.628 E3.92232
G1 X158.795 Y63.286 E3.9711
G1 X159.493 Y63.964 E4.01641
G1 X160.129 Y64.701 E4.06174
G1 X160.699 Y65.491 E4.1071
G1 X161.161 Y66.267 E4.14915
G1 X161.615 Y67.209 E4.19784
G1 X161.944 Y68.087 E4.2415
G1 X162.213 Y69.059 E4.28846
G1 X162.39 Y70.025 E4.33419
G1 X162.485 Y71.155 E4.387
G1 X162.5 Y71.83 E4.41843
G1 X162.499 Y79.326 E4.76748
G1 X162.489 Y80.05 E4.8012
G1 X162.471 Y80.506 E4.82245
G1 X162.309 Y83.339 E4.95458
G1 X162.238 Y85.882 E5.07304
G1 X162.238 Y88.395 E5.19005
G1 X162.311 Y90.953 E5.30921
G1 X162.484 Y94.159 E5.45871
G1 X162.499 Y94.727 E5.48517
G1 X162.5 Y109.512 E6.17362
G1 X162.489 Y110.377 E6.2139
G1 X162.471 Y110.832 E6.23511
G1 X162.309 Y113.66 E6.36701
G1 X162.236 Y116.214 E6.48598
G1 X162.236 Y118.727 E6.603
G1 X162.307 Y121.25 E6.72052
G1 X162.403 Y123.077 E6.80571
G1 X162.47 Y124.122 E6.85447
G1 X162.488 Y124.595 E6.87651
G1 X162.5 Y125.337 E6.91107
G1 X162.499 Y139.998 E7.59375
G1 X162.471 Y141.175 E7.64857
G1 X162.307 Y144.037 E7.78205
G1 X162.236 Y146.575 E7.90028
G1 X162.236 Y149.087 E8.01725
G1 X162.31 Y151.649 E8.1366
G1 X162.415 Y153.616 E8.22832
G1 X162.467 Y154.401 E8.26495
G1 X162.487 Y154.9 E8.28821
G1 X162.5 Y155.708 E8.32583
G1 X162.499 Y162.916 E8.66147
G1 X162.487 Y163.677 E8.69691
G1 X162.429 Y164.65 E8.7423
G1 X162.283 Y165.613 E8.78765
G1 X162.052 Y166.56 E8.83304
G1 X161.739 Y167.482 E8.87838
G1 X161.347 Y168.373 E8.9237
G1 X160.895 Y169.195 E8.96739
G1 X160.333 Y170.033 E9.01437
G1 X159.743 Y170.763 E9.05807
G1 X159.04 Y171.489 E9.10513
G1 X158.304 Y172.125 E9.15043
G1 X157.514 Y172.695 E9.19579
G1 X156.738 Y173.158 E9.23786
G1 X155.798 Y173.611 E9.28645
G1 X154.885 Y173.953 E9.33185
G1 X153.947 Y174.212 E9.37716
G1 X152.981 Y174.389 E9.42289
G1 X151.845 Y174.485 E9.47598
G1 X151.17 Y174.5 E9.50741
G1 X84.064 Y174.499 E12.63215
G1 X83.331 Y174.488 E12.66629
G1 X82.359 Y174.431 E12.71162
G1 X81.396 Y174.285 E12.75698
G1 X80.45 Y174.056 E12.8023
G1 X79.526 Y173.744 E12.84771
G1 X78.636 Y173.352 E12.893
G1 X77.813 Y172.901 E12.9367
G1 X76.974 Y172.34 E12.98369
G1 X76.27 Y171.774 E13.02575
G1 X75.517 Y171.049 E13.07443
G1 X74.88 Y170.313 E13.11975
G1 X74.35 Y169.582 E13.1618
G1 X73.814 Y168.685 E13.21045
G1 X73.392 Y167.807 E13.25581
G1 X73.05 Y166.895 E13.30117
G1 X72.79 Y165.957 E13.34649
G1 X72.612 Y164.988 E13.39237
G1 X72.514 Y163.809 E13.44746
G1 X72.5 Y163.158 E13.47778
G1 X72.501 Y155.656 E13.8271
G1 X72.53 Y154.476 E13.88206
G1 X72.691 Y151.66 E14.0134
G1 X72.762 Y149.118 E14.13181
G1 X72.762 Y146.605 E14.24883
G1 X72.688 Y144.029 E14.36883
G1 X72.607 Y142.449 E14.4425
G1 X72.529 Y141.191 E14.50119
G1 X72.501 Y140.273 E14.54395
G1 X72.5 Y125.488 E15.2324
G1 X72.511 Y124.617 E15.27296
G1 X72.529 Y124.157 E15.2944
G1 X72.691 Y121.335 E15.42602
G1 X72.764 Y118.786 E15.54476
G1 X72.764 Y116.273 E15.66178
G1 X72.693 Y113.75 E15.77931
G1 X72.591 Y111.811 E15.86972
G1 X72.53 Y110.872 E15.91353
G1 X72.512 Y110.403 E15.93539
G1 X72.5 Y109.663 E15.96985
G1 X72.501 Y94.989 E16.65313
G1 X72.53 Y93.812 E16.70796
G1 X72.693 Y90.964 E16.84079
G1 X72.764 Y88.424 E16.95911
G1 X72.764 Y85.913 E17.07603
G1 X72.69 Y83.351 E17.19538
G1 X72.588 Y81.429 E17.285
G1 X72.531 Y80.565 E17.32532
G1 X72.511 Y80.065 E17.34862
G1 X72.501 Y79.48 E17.37586
G1 X72.501 Y72.009 E17.72374
G1 X72.513 Y71.308 E17.75639
G1 X72.573 Y70.335 E17.80178
G1 X72.72 Y69.374 E17.84705
G1 X72.951 Y68.426 E17.89249
G1 X73.253 Y67.537 E17.93621
G1 X73.66 Y66.615 E17.98313
G1 X74.131 Y65.763 E18.02847
G1 X74.676 Y64.954 E18.07389
G1 X75.267 Y64.226 E18.11755
G0 F6000 X75.578 Y64.478
G1 F1200 X76.231 Y63.804 E18.16125
G1 X76.941 Y63.19 E18.20496
G1 X77.702 Y62.641 E18.24865
G1 X78.51 Y62.162 E18.29239
G1 X79.324 Y61.771 E18.33444
G1 X80.235 Y61.428 E18.37976
G1 X81.139 Y61.178 E18.42344
G1 X82.067 Y61.008 E18.46737
G1 X83.214 Y60.913 E18.52096
G1 X83.821 Y60.9 E18.54923
G1 X150.798 Y60.9 E21.66796
G1 X151.66 Y60.912 E21.7081
G1 X152.597 Y60.968 E21.75181
G1 X153.525 Y61.107 E21.79551
G1 X154.438 Y61.328 E21.83925
G1 X155.294 Y61.616 E21.8813
G1 X156.186 Y62.006 E21.92663
G1 X157.007 Y62.459 E21.9703
G1 X157.758 Y62.961 E22.01236
G1 X158.517 Y63.573 E22.05776
G1 X159.191 Y64.226 E22.10146
G1 X159.805 Y64.935 E22.14513
G1 X160.355 Y65.696 E22.18885
G1 X160.817 Y66.472 E22.2309
G1 X161.24 Y67.349 E22.27624
G1 X161.569 Y68.227 E22.3199
G1 X161.82 Y69.132 E22.36363
G1 X161.991 Y70.059 E22.40753
G1 X162.086 Y71.189 E22.46033
G1 X162.1 Y71.83 E22.49018
G1 X162.099 Y79.32 E22.83895
G1 X162.089 Y80.035 E22.87225
G1 X162.072 Y80.483 E22.89312
G1 X161.909 Y83.328 E23.02582
G1 X161.838 Y85.871 E23.14427
G1 X161.838 Y88.395 E23.2618
G1 X161.912 Y90.965 E23.38152
G1 X162.084 Y94.17 E23.53097
G1 X162.099 Y94.727 E23.55692
G1 X162.1 Y109.507 E24.24514
G1 X162.089 Y110.362 E24.28495
G1 X162.072 Y110.809 E24.30578
G1 X161.909 Y113.649 E24.43824
G1 X161.836 Y116.203 E24.55722
G1 X161.836 Y118.727 E24.67475
G1 X161.907 Y121.261 E24.79279
G1 X162.004 Y123.102 E24.87863
G1 X162.07 Y124.138 E24.92697
G1 X162.088 Y124.602 E24.94859
G1 X162.1 Y125.337 E24.98282
G1 X162.099 Y139.989 E25.66508
G1 X162.072 Y141.152 E25.71925
G1 X161.907 Y144.026 E25.85329
G1 X161.836 Y146.564 E25.97152
G1 X161.836 Y149.087 E26.089
G1 X161.91 Y151.66 E26.20886
G1 X162.016 Y153.642 E26.30128
G1 X162.067 Y154.417 E26.33745
G1 X162.087 Y154.906 E26.36023
G1 X162.1 Y155.708 E26.39758
G1 X162.099 Y162.91 E26.73294
G1 X162.088 Y163.654 E26.76759
G1 X162.033 Y164.591 E26.81129
G1 X161.894 Y165.519 E26.85499
G1 X161.673 Y166.432 E26.89873
G1 X161.373 Y167.321 E26.94242
G1 X160.996 Y168.18 E26.9861
G1 X160.544 Y169.002 E27.02978
G1 X160.021 Y169.782 E27.07351
G1 X159.455 Y170.485 E27.11553
G1 X158.778 Y171.187 E27.16095
G1 X158.07 Y171.801 E27.20458
G1 X157.309 Y172.351 E27.2483
G1 X156.533 Y172.814 E27.29038
G1 X155.657 Y173.237 E27.33568
G1 X154.778 Y173.568 E27.37941
G1 X153.874 Y173.819 E27.4231
G1 X152.947 Y173.99 E27.46699
G1 X151.811 Y174.086 E27.52008
G1 X151.17 Y174.1 E27.54993
G1 X84.07 Y174.099 E30.67439
G1 X83.354 Y174.089 E30.70773
G1 X82.418 Y174.035 E30.75139
G1 X81.489 Y173.896 E30.79513
G1 X80.577 Y173.677 E30.8388
G1 X79.687 Y173.378 E30.88252
G1 X78.828 Y173.001 E30.9262
G1 X78.005 Y172.55 E30.9699
G1 X77.225 Y172.028 E31.01361
G1 X76.521 Y171.462 E31.05567
G1 X75.819 Y170.787 E31.10102
G1 X75.204 Y170.078 E31.14472
G1 X74.674 Y169.347 E31.18676
G1 X74.174 Y168.511 E31.23212
G1 X73.766 Y167.666 E31.27581
G1 X73.435 Y166.788 E31.31951
G1 X73.183 Y165.884 E31.36321
G1 X73.011 Y164.955 E31.4072
G1 X72.913 Y163.776 E31.46229
G1 X72.9 Y163.158 E31.49107
G1 X72.901 Y155.666 E31.83993
G1 X72.929 Y154.499 E31.89429
G1 X73.091 Y151.671 E32.02618
G1 X73.162 Y149.129 E32.1446
G1 X73.162 Y146.605 E32.26213
G1 X73.088 Y144.018 E32.38264
G1 X73.006 Y142.428 E32.45677
G1 X72.929 Y141.179 E32.51504
G1 X72.901 Y140.273 E32.55725
G1 X72.9 Y125.493 E33.24547
G1 X72.911 Y124.632 E33.28556
G1 X72.928 Y124.18 E33.30662
G1 X73.091 Y121.346 E33.4388
G1 X73.164 Y118.797 E33.55755
G1 X73.164 Y116.273 E33.67507
G1 X73.093 Y113.739 E33.79311
G1 X72.99 Y111.79 E33.88399
G1 X72.93 Y110.856 E33.92757
G1 X72.912 Y110.396 E33.94901
G1 X72.9 Y109.663 E33.98315
G1 X72.901 Y94.999 E34.66596
G1 X72.929 Y93.835 E34.72018
G1 X73.093 Y90.975 E34.85357
G1 X73.164 Y88.435 E34.97189
G1 X73.164 Y85.913 E35.08933
G1 X73.09 Y83.34 E35.20919
G1 X72.987 Y81.408 E35.29928
G1 X72.931 Y80.549 E35.33936
G1 X72.911 Y80.058 E35.36224
G1 X72.901 Y79.473 E35.38948
G1 X72.901 Y72.015 E35.73676
G1 X72.912 Y71.332 E35.76857
G1 X72.969 Y70.395 E35.81228
G1 X73.109 Y69.468 E35.85593
G1 X73.33 Y68.555 E35.89967
G1 X73.632 Y67.666 E35.94339
G1 X74.01 Y66.808 E35.98705
G1 X74.463 Y65.986 E36.03075
G1 X74.987 Y65.206 E36.07451
G1 X75.578 Y64.478 E36.11817
G0 F6000 X75.866 Y64.756
G1 F1200 X76.493 Y64.106 E36.16023
G1 X77.175 Y63.514 E36.20228
G1 X77.907 Y62.985 E36.24433
G1 X78.683 Y62.523 E36.28638
G1 X79.497 Y62.132 E36.32843
G1 X80.342 Y61.813 E36.37049
G1 X81.212 Y61.571 E36.41254
G1 X82.1 Y61.407 E36.45459
G1 X83.223 Y61.313 E36.50706
G1 X83.83 Y61.3 E36.53533
G1 X150.793 Y61.3 E39.65341
G1 X151.637 Y61.311 E39.69271
G1 X152.539 Y61.364 E39.73479
G1 X153.432 Y61.496 E39.77682
G1 X154.31 Y61.707 E39.81887
G1 X155.166 Y61.995 E39.86092
G1 X155.993 Y62.357 E39.90296
G1 X156.785 Y62.792 E39.94503
G1 X157.536 Y63.294 E39.9871
G1 X158.239 Y63.861 E40.02915
G1 X158.889 Y64.488 E40.07121
G1 X159.481 Y65.17 E40.11326
G1 X160.011 Y65.901 E40.1553
G1 X160.473 Y66.677 E40.19735
G1 X160.866 Y67.49 E40.2394
G1 X161.184 Y68.335 E40.28144
G1 X161.427 Y69.205 E40.3235
G1 X161.592 Y70.093 E40.36556
G1 X161.687 Y71.223 E40.41836
G1 X161.7 Y71.83 E40.44663
G1 X161.699 Y79.314 E40.79512
G1 X161.689 Y80.02 E40.828
G1 X161.673 Y80.46 E40.8485
G1 X161.509 Y83.317 E40.98175
G1 X161.438 Y85.86 E41.10021
G1 X161.438 Y88.395 E41.21825
G1 X161.512 Y90.976 E41.33848
G1 X161.684 Y94.181 E41.48794
G1 X161.699 Y94.727 E41.51337
G1 X161.7 Y109.502 E42.20136
G1 X161.689 Y110.347 E42.24071
G1 X161.673 Y110.786 E42.26116
G1 X161.509 Y113.638 E42.39418
G1 X161.436 Y116.192 E42.51316
G1 X161.436 Y118.727 E42.6312
G1 X161.507 Y121.272 E42.74975
G1 X161.605 Y123.127 E42.83625
G1 X161.67 Y124.154 E42.88416
G1 X161.688 Y124.609 E42.90537
G1 X161.7 Y125.337 E42.93927
G1 X161.699 Y139.98 E43.62111
G1 X161.673 Y141.129 E43.67462
G1 X161.507 Y144.015 E43.80923
G1 X161.436 Y146.553 E43.92746
G1 X161.436 Y149.087 E44.04545
G1 X161.51 Y151.671 E44.16582
G1 X161.617 Y153.668 E44.25894
G1 X161.667 Y154.434 E44.29469
G1 X161.687 Y154.913 E44.31701
G1 X161.7 Y155.708 E44.35404
G1 X161.699 Y162.904 E44.68911
G1 X161.689 Y163.631 E44.72297
G1 X161.637 Y164.533 E44.76504
G1 X161.505 Y165.426 E44.80707
G1 X161.294 Y166.305 E44.84916
G1 X161.007 Y167.161 E44.8912
G1 X160.645 Y167.988 E44.93324
G1 X160.211 Y168.78 E44.97529
G1 X159.709 Y169.531 E45.01735
G1 X159.143 Y170.234 E45.05938
G1 X158.516 Y170.885 E45.10147
G1 X157.835 Y171.477 E45.14348
G1 X157.104 Y172.007 E45.18553
G1 X156.328 Y172.47 E45.2276
G1 X155.515 Y172.863 E45.26965
G1 X154.67 Y173.183 E45.31173
G1 X153.801 Y173.426 E45.35374
G1 X152.913 Y173.591 E45.3958
G1 X151.777 Y173.687 E45.44888
G1 X151.17 Y173.7 E45.47716
G1 X84.075 Y173.699 E48.60138
G1 X83.377 Y173.69 E48.63388
G1 X82.476 Y173.639 E48.67591
G1 X81.582 Y173.507 E48.71799
G1 X80.704 Y173.298 E48.76001
G1 X79.847 Y173.011 E48.80209
G1 X79.02 Y172.65 E48.84411
G1 X78.227 Y172.217 E48.88618
G1 X77.476 Y171.716 E48.92822
G1 X76.772 Y171.15 E48.97028
G1 X76.121 Y170.524 E49.01234
G1 X75.528 Y169.843 E49.05438
G1 X74.998 Y169.112 E49.09643
G1 X74.534 Y168.337 E49.13849
G1 X74.14 Y167.524 E49.18056
G1 X73.82 Y166.68 E49.22259
G1 X73.576 Y165.81 E49.26466
G1 X73.41 Y164.922 E49.30673
G1 X73.313 Y163.767 E49.3607
G1 X73.3 Y163.158 E49.38906
G1 X73.301 Y155.675 E49.7375
G1 X73.328 Y154.522 E49.7912
G1 X73.491 Y151.683 E49.92362
G1 X73.562 Y149.14 E50.04208
G1 X73.562 Y146.605 E50.16012
G1 X73.488 Y144.007 E50.28114
G1 X73.405 Y142.407 E50.35574
G1 X73.329 Y141.166 E50.41364
G1 X73.301 Y140.273 E50.45524
G1 X73.3 Y125.498 E51.14323
G1 X73.311 Y124.646 E51.1829
G1 X73.327 Y124.203 E51.20354
G1 X73.491 Y121.357 E51.33628
G1 X73.564 Y118.808 E51.45502
G1 X73.564 Y116.273 E51.57307
G1 X73.493 Y113.728 E51.69162
G1 X73.389 Y111.769 E51.78296
G1 X73.33 Y110.84 E51.82631
G1 X73.312 Y110.389 E51.84733
G1 X73.3 Y109.663 E51.88114
G1 X73.301 Y95.008 E52.56354
G1 X73.328 Y93.858 E52.6171
G1 X73.493 Y90.986 E52.75105
G1 X73.564 Y88.446 E52.86937
G1 X73.564 Y85.913 E52.98732
G1 X73.49 Y83.329 E53.10769
G1 X73.386 Y81.387 E53.19825
G1 X73.331 Y80.532 E53.23814
G1 X73.311 Y80.051 E53.26056
G1 X73.301 Y79.466 E53.2878
G1 X73.301 Y72.021 E53.63447
G1 X73.311 Y71.356 E53.66544
G1 X73.365 Y70.454 E53.70752
G1 X73.498 Y69.561 E53.74956
G1 X73.709 Y68.683 E53.79161
G1 X73.998 Y67.827 E53.83367
G1 X74.361 Y67 E53.87573
G1 X74.795 Y66.209 E53.91774
G1 X75.298 Y65.458 E53.95983
G1 X75.866 Y64.756 E54.00188
G1 F1500 E47.50188
;MESH:gah_rooms_x1.stl
G0 F6000 X86.905 Y93.836
G0 X117.5 Y162.9
;TYPE:WALL-INNER
G1 F1500 E54.00188
G1 F1200 X150.9 Y162.9 E55.55712
G1 X150.9 Y155.764 E55.8894
G1 X148.74 Y155.756 E55.98998
G1 X148.5 Y155.725 E56.00125
G1 X148.248 Y155.757 E56.01308
G1 X145.157 Y155.76 E56.15701
G1 X144.741 Y155.708 E56.17653
G1 X144.15 Y155.564 E56.20486
G1 X143.601 Y155.299 E56.23324
G1 X143.293 Y155.103 E56.25024
G1 X142.883 Y154.764 E56.27501
G1 X142.523 Y154.382 E56.29946
G1 X142.237 Y153.93 E56.32436
G1 X142.013 Y153.459 E56.34865
G1 X141.849 Y152.948 E56.37364
G1 X141.776 Y152.323 E56.40294
G1 X141.78 Y143.282 E56.82392
G1 X141.846 Y142.732 E56.84972
G1 X142.04 Y142.141 E56.87868
G1 X142.261 Y141.673 E56.90278
G1 X142.677 Y141.102 E56.93568
G1 X143.154 Y140.647 E56.96637
G1 X143.632 Y140.347 E56.99265
G1 X144.037 Y140.153 E57.01356
G1 X144.465 Y140.014 E57.03452
G1 X145.032 Y139.906 E57.06139
G1 X148.197 Y139.903 E57.20877
G1 X148.498 Y139.936 E57.22287
G1 X148.747 Y139.907 E57.23454
G1 X150.9 Y139.9 E57.33479
G1 X150.9 Y125.432 E58.00849
G1 X148.743 Y125.421 E58.10893
G1 X148.499 Y125.392 E58.12037
G1 X148.247 Y125.421 E58.13218
G1 X145.331 Y125.431 E58.26796
G1 X144.813 Y125.399 E58.29213
G1 X144.273 Y125.26 E58.31809
G1 X143.849 Y125.096 E58.33926
G1 X143.459 Y124.883 E58.35995
G1 X143.006 Y124.556 E58.38597
G1 X142.529 Y124.053 E58.41825
G1 X142.21 Y123.552 E58.4459
G1 X142.024 Y123.153 E58.4664
G1 X141.855 Y122.639 E58.4916
G1 X141.777 Y122.029 E58.52023
G1 X141.782 Y112.918 E58.94448
G1 X141.846 Y112.399 E58.96883
G1 X142.037 Y111.811 E58.99762
G1 X142.26 Y111.341 E59.02184
G1 X142.65 Y110.8 E59.05289
G1 X143.112 Y110.365 E59.08244
G1 X143.418 Y110.144 E59.10002
G1 X143.823 Y109.917 E59.12164
G1 X144.248 Y109.746 E59.14297
G1 X144.659 Y109.637 E59.16277
G1 X145.182 Y109.572 E59.18731
G1 X148.13 Y109.564 E59.32458
G1 X148.502 Y109.603 E59.342
G1 X148.809 Y109.572 E59.35636
G1 X150.9 Y109.564 E59.45373
G1 X150.9 Y95.1 E60.12723
G1 X148.743 Y95.089 E60.22768
G1 X148.499 Y95.06 E60.23912
G1 X148.247 Y95.089 E60.25093
G1 X145.157 Y95.096 E60.39481
G1 X144.587 Y95.025 E60.42156
G1 X144.058 Y94.851 E60.44749
G1 X143.518 Y94.593 E60.47536
G1 X143.001 Y94.215 E60.50518
G1 X142.539 Y93.734 E60.53623
G1 X142.211 Y93.217 E60.56474
G1 X142.024 Y92.821 E60.58514
G1 X141.855 Y92.307 E60.61033
G1 X141.777 Y91.705 E60.6386
G1 X141.781 Y82.604 E61.06238
G1 X141.849 Y82.047 E61.08851
G1 X142.041 Y81.471 E61.11678
G1 X142.266 Y81 E61.14108
G1 X142.626 Y80.504 E61.16962
G1 X142.878 Y80.236 E61.18675
