;FLAVOR:Marlin
;TIME:8500
;Filament used: 8.60275m
;Layer height: 0.28
;MINX:66.5
;MINY:46.5
;MINZ:0.28
;MAXX:168.5
;MAXY:188.5
;MAXZ:17.92
;TARGET_MACHINE.NAME:Creality CR-6 SE
;Generated with Cura_SteamEngine 5.8.1
M140 S60
M105
M190 S60
M104 S200
M105
M109 S200
M82 ;absolute extrusion mode
M201 X500.00 Y500.00 Z100.00 E5000.00 ;Setup machine max acceleration
M203 X500.00 Y500.00 Z10.00 E50.00 ;Setup machine max feedrate
M204 P500.00 R1000.00 T500.00 ;Setup Print/Retract/Travel acceleration
M205 X8.00 Y8.00 Z0.40 E5.00 ;Setup Jerk
M220 S100 ;Reset Feedrate
M221 S100 ;Reset Flowrate

G28 ;Home

G92 E0 ;Reset Extruder
G1 Z2.0 F3000 ;Move Z Axis up
G1 X10.1 Y20 Z0.28 F5000.0 ;Move to start position
G1 X10.1 Y200.0 Z0.28 F1500.0 E15 ;Draw the first line
G1 X10.4 Y200.0 Z0.28 F5000.0 ;Move to side a little
G1 X10.4 Y20 Z0.28 F1500.0 E30 ;Draw the second line
G92 E0 ;Reset Extruder
G1 Z2.0 F3000 ;Move Z Axis up

G92 E0
G92 E0
G1 F1500 E-6.5
;LAYER_COUNT:64
;LAYER:0
M107
G0 F6000 X68.676 Y50.954 Z0.28
;TYPE:SKIRT
G1 F1500 E0
G1 F1200 X69.267 Y50.226 E0.04366
G1 X69.969 Y49.501 E0.09065
G1 X70.679 Y48.887 E0.13436
G1 X71.498 Y48.297 E0.18136
G1 X72.337 Y47.801 E0.22675
G1 X73.151 Y47.41 E0.2688
G1 X74.128 Y47.042 E0.31741
G1 X75.032 Y46.792 E0.36108
G1 X76.034 Y46.609 E0.40851
G1 X77.205 Y46.513 E0.46322
G1 X77.812 Y46.5 E0.49149
G1 X156.804 Y46.5 E4.16969
G1 X157.684 Y46.513 E4.21067
G1 X158.656 Y46.572 E4.25602
G1 X159.619 Y46.718 E4.30137
G1 X160.566 Y46.949 E4.34676
G1 X161.454 Y47.249 E4.3904
G1 X162.346 Y47.639 E4.43574
G1 X163.229 Y48.126 E4.48269
G1 X163.98 Y48.628 E4.52475
G1 X164.795 Y49.286 E4.57353
G1 X165.493 Y49.964 E4.61884
G1 X166.129 Y50.701 E4.66417
G1 X166.699 Y51.491 E4.70953
G1 X167.161 Y52.267 E4.75158
G1 X167.615 Y53.209 E4.80027
G1 X167.944 Y54.087 E4.84393
G1 X168.213 Y55.059 E4.8909
G1 X168.39 Y56.025 E4.93663
G1 X168.485 Y57.155 E4.98943
G1 X168.5 Y57.83 E5.02087
G1 X168.499 Y176.9 E10.56527
G1 X168.488 Y177.663 E10.6008
G1 X168.431 Y178.636 E10.64618
G1 X168.286 Y179.599 E10.69153
G1 X168.057 Y180.545 E10.73685
G1 X167.746 Y181.469 E10.78225
G1 X167.354 Y182.36 E10.82757
G1 X166.886 Y183.212 E10.87284
G1 X166.364 Y183.993 E10.91658
G1 X165.731 Y184.778 E10.96354
G1 X165.106 Y185.429 E11.00556
G1 X164.317 Y186.117 E11.0543
G1 X163.557 Y186.667 E11.09799
G1 X162.69 Y187.184 E11.14499
G1 X161.812 Y187.606 E11.19035
G1 X160.901 Y187.948 E11.23566
G1 X159.962 Y188.209 E11.28104
G1 X158.996 Y188.387 E11.32678
G1 X157.845 Y188.485 E11.38057
G1 X157.17 Y188.5 E11.41201
G1 X78.064 Y188.499 E15.09552
G1 X77.331 Y188.488 E15.12965
G1 X76.359 Y188.431 E15.17499
G1 X75.396 Y188.285 E15.22034
G1 X74.45 Y188.056 E15.26567
G1 X73.526 Y187.744 E15.31108
G1 X72.636 Y187.352 E15.35636
G1 X71.813 Y186.901 E15.40006
G1 X70.974 Y186.34 E15.44706
G1 X70.27 Y185.774 E15.48912
G1 X69.517 Y185.049 E15.53779
G1 X68.88 Y184.313 E15.58312
G1 X68.35 Y183.582 E15.62516
G1 X67.814 Y182.685 E15.67382
G1 X67.392 Y181.807 E15.71918
G1 X67.05 Y180.895 E15.76453
G1 X66.79 Y179.957 E15.80986
G1 X66.612 Y178.988 E15.85573
G1 X66.514 Y177.809 E15.91082
G1 X66.5 Y177.158 E15.94114
G1 X66.501 Y167.339 E16.39835
G1 X66.511 Y166.615 E16.43207
G1 X66.547 Y165.889 E16.46592
G1 X66.754 Y163.428 E16.58092
G1 X66.893 Y160.922 E16.69779
G1 X66.964 Y158.39 E16.81573
G1 X66.962 Y155.878 E16.9327
G1 X66.889 Y153.331 E17.05135
G1 X66.747 Y150.866 E17.16632
G1 X66.547 Y148.434 E17.27995
G1 X66.515 Y147.894 E17.30514
G1 X66.502 Y147.299 E17.33285
G1 X66.5 Y127.821 E18.23983
G1 X66.511 Y126.947 E18.28053
G1 X66.547 Y126.217 E18.31456
G1 X66.751 Y123.801 E18.42746
G1 X66.891 Y121.297 E18.54424
G1 X66.964 Y118.758 E18.66251
G1 X66.964 Y116.245 E18.77953
G1 X66.893 Y113.74 E18.89622
G1 X66.751 Y111.233 E19.01314
G1 X66.545 Y108.766 E19.12842
G1 X66.512 Y108.08 E19.1604
G1 X66.5 Y107.338 E19.19495
G1 X66.501 Y88.006 E20.09513
G1 X66.511 Y87.281 E20.12889
G1 X66.547 Y86.552 E20.16288
G1 X66.752 Y84.117 E20.27666
G1 X66.891 Y81.665 E20.39102
G1 X66.964 Y79.101 E20.51046
G1 X66.964 Y76.589 E20.62743
G1 X66.893 Y74.077 E20.74445
G1 X66.752 Y71.575 E20.86113
G1 X66.547 Y69.117 E20.97599
G1 X66.511 Y68.392 E21.00979
G1 X66.501 Y67.805 E21.03712
G1 X66.501 Y58.009 E21.49327
G1 X66.513 Y57.308 E21.52591
G1 X66.573 Y56.335 E21.57131
G1 X66.72 Y55.374 E21.61658
G1 X66.951 Y54.426 E21.66201
G1 X67.253 Y53.537 E21.70573
G1 X67.66 Y52.615 E21.75266
G1 X68.131 Y51.763 E21.79799
G1 X68.676 Y50.954 E21.84341
G0 F6000 X68.987 Y51.206
G1 F1200 X69.578 Y50.478 E21.88707
G1 X70.231 Y49.804 E21.93077
G1 X70.941 Y49.19 E21.97448
G1 X71.702 Y48.641 E22.01817
G1 X72.51 Y48.162 E22.06191
G1 X73.324 Y47.771 E22.10396
G1 X74.235 Y47.428 E22.14929
G1 X75.139 Y47.178 E22.19296
G1 X76.067 Y47.008 E22.23689
G1 X77.214 Y46.913 E22.29048
G1 X77.821 Y46.9 E22.31876
G1 X156.798 Y46.9 E25.99626
G1 X157.66 Y46.912 E26.0364
G1 X158.597 Y46.968 E26.08011
G1 X159.525 Y47.107 E26.1238
G1 X160.438 Y47.328 E26.16754
G1 X161.294 Y47.616 E26.20959
G1 X162.186 Y48.006 E26.25493
G1 X163.007 Y48.459 E26.29859
G1 X163.758 Y48.961 E26.34065
G1 X164.517 Y49.573 E26.38605
G1 X165.191 Y50.226 E26.42975
G1 X165.805 Y50.935 E26.47342
G1 X166.355 Y51.696 E26.51714
G1 X166.817 Y52.472 E26.5592
G1 X167.24 Y53.349 E26.60454
G1 X167.569 Y54.227 E26.6482
G1 X167.82 Y55.132 E26.69193
G1 X167.991 Y56.059 E26.73582
G1 X168.086 Y57.189 E26.78862
G1 X168.1 Y57.83 E26.81848
G1 X168.099 Y176.895 E32.36264
G1 X168.089 Y177.64 E32.39734
G1 X168.035 Y178.577 E32.44104
G1 X167.897 Y179.506 E32.48477
G1 X167.678 Y180.418 E32.52845
G1 X167.38 Y181.308 E32.57215
G1 X167.003 Y182.168 E32.61587
G1 X166.553 Y182.99 E32.65951
G1 X166.031 Y183.771 E32.70325
G1 X165.442 Y184.501 E32.74693
G1 X164.817 Y185.152 E32.78895
G1 X164.082 Y185.793 E32.83436
G1 X163.322 Y186.343 E32.87805
G1 X162.516 Y186.824 E32.92175
G1 X161.671 Y187.232 E32.96544
G1 X160.793 Y187.563 E33.00914
G1 X159.889 Y187.816 E33.05285
G1 X158.962 Y187.988 E33.09675
G1 X157.811 Y188.086 E33.15054
G1 X157.17 Y188.1 E33.18039
G1 X78.07 Y188.099 E36.86362
G1 X77.354 Y188.089 E36.89696
G1 X76.418 Y188.035 E36.94062
G1 X75.489 Y187.896 E36.98436
G1 X74.577 Y187.677 E37.02803
G1 X73.687 Y187.378 E37.07175
G1 X72.828 Y187.001 E37.11543
G1 X72.005 Y186.55 E37.15913
G1 X71.225 Y186.028 E37.20284
G1 X70.521 Y185.462 E37.2449
G1 X69.819 Y184.787 E37.29025
G1 X69.204 Y184.078 E37.33395
G1 X68.674 Y183.347 E37.37599
G1 X68.174 Y182.511 E37.42135
G1 X67.766 Y181.666 E37.46504
G1 X67.435 Y180.788 E37.50874
G1 X67.183 Y179.884 E37.55244
G1 X67.011 Y178.955 E37.59643
G1 X66.913 Y177.776 E37.65152
G1 X66.9 Y177.158 E37.6803
G1 X66.901 Y167.345 E38.13724
G1 X66.911 Y166.635 E38.1703
G1 X66.946 Y165.922 E38.20354
G1 X67.152 Y163.461 E38.31853
G1 X67.293 Y160.933 E38.43643
G1 X67.364 Y158.401 E38.55438
G1 X67.362 Y155.878 E38.67186
G1 X67.289 Y153.32 E38.79102
G1 X67.146 Y150.833 E38.90702
G1 X66.946 Y148.41 E39.02022
G1 X66.915 Y147.885 E39.04471
G1 X66.902 Y147.299 E39.07201
G1 X66.9 Y127.826 E39.97875
G1 X66.911 Y126.967 E40.01875
G1 X66.946 Y126.25 E40.05218
G1 X67.149 Y123.834 E40.16508
G1 X67.291 Y121.308 E40.28288
G1 X67.364 Y118.769 E40.40116
G1 X67.364 Y116.245 E40.51869
G1 X67.293 Y113.729 E40.63589
G1 X67.15 Y111.2 E40.75384
G1 X66.945 Y108.746 E40.8685
G1 X66.912 Y108.073 E40.89988
G1 X66.9 Y107.338 E40.93411
G1 X66.901 Y88.012 E41.83401
G1 X66.911 Y87.301 E41.86712
G1 X66.946 Y86.585 E41.9005
G1 X67.15 Y84.15 E42.01428
G1 X67.291 Y81.676 E42.12967
G1 X67.364 Y79.112 E42.2491
G1 X67.364 Y76.589 E42.36659
G1 X67.293 Y74.066 E42.48411
G1 X67.151 Y71.542 E42.60183
G1 X66.946 Y69.084 E42.71668
G1 X66.911 Y68.385 E42.74927
G1 X66.901 Y67.798 E42.77661
G1 X66.901 Y58.015 E43.23214
G1 X66.912 Y57.332 E43.26395
G1 X66.969 Y56.395 E43.30766
G1 X67.109 Y55.468 E43.35132
G1 X67.33 Y54.555 E43.39506
G1 X67.632 Y53.666 E43.43878
G1 X68.01 Y52.808 E43.48243
G1 X68.463 Y51.986 E43.52614
G1 X68.987 Y51.206 E43.56989
G0 F6000 X69.298 Y51.458
G1 F1200 X69.866 Y50.756 E43.61194
G1 X70.493 Y50.106 E43.65399
G1 X71.175 Y49.514 E43.69604
G1 X71.907 Y48.985 E43.7381
G1 X72.683 Y48.523 E43.78015
G1 X73.497 Y48.132 E43.8222
G1 X74.342 Y47.813 E43.86426
G1 X75.212 Y47.571 E43.90631
G1 X76.1 Y47.407 E43.94836
G1 X77.223 Y47.313 E44.00083
G1 X77.83 Y47.3 E44.0291
G1 X156.793 Y47.3 E47.70595
G1 X157.637 Y47.311 E47.74525
G1 X158.539 Y47.364 E47.78733
G1 X159.432 Y47.496 E47.82936
G1 X160.31 Y47.707 E47.87141
G1 X161.166 Y47.995 E47.91346
G1 X161.993 Y48.357 E47.9555
G1 X162.785 Y48.792 E47.99757
G1 X163.536 Y49.294 E48.03964
G1 X164.239 Y49.861 E48.08169
G1 X164.889 Y50.488 E48.12374
G1 X165.481 Y51.17 E48.1658
G1 X166.011 Y51.901 E48.20784
G1 X166.473 Y52.677 E48.24989
G1 X166.866 Y53.49 E48.29194
G1 X167.184 Y54.335 E48.33398
G1 X167.427 Y55.205 E48.37604
G1 X167.592 Y56.093 E48.4181
G1 X167.687 Y57.223 E48.4709
G1 X167.7 Y57.83 E48.49917
G1 X167.699 Y176.89 E54.04311
G1 X167.69 Y177.617 E54.07696
G1 X167.639 Y178.519 E54.11903
G1 X167.508 Y179.413 E54.1611
G1 X167.299 Y180.291 E54.20313
G1 X167.013 Y181.148 E54.2452
G1 X166.652 Y181.976 E54.28726
G1 X166.22 Y182.768 E54.32926
G1 X165.719 Y183.52 E54.37134
G1 X165.153 Y184.224 E54.4134
G1 X164.528 Y184.875 E54.45542
G1 X163.847 Y185.469 E54.4975
G1 X163.116 Y186 E54.53957
G1 X162.342 Y186.464 E54.58159
G1 X161.529 Y186.858 E54.62366
G1 X160.685 Y187.178 E54.66569
G1 X159.815 Y187.423 E54.70778
G1 X158.928 Y187.589 E54.7498
G1 X157.777 Y187.687 E54.80359
G1 X157.17 Y187.7 E54.83186
G1 X78.075 Y187.699 E58.51485
G1 X77.377 Y187.69 E58.54736
G1 X76.476 Y187.639 E58.58938
G1 X75.582 Y187.507 E58.63146
G1 X74.704 Y187.298 E58.67348
G1 X73.847 Y187.011 E58.71557
G1 X73.02 Y186.65 E58.75759
G1 X72.227 Y186.217 E58.79966
G1 X71.476 Y185.716 E58.84169
G1 X70.772 Y185.15 E58.88376
G1 X70.121 Y184.524 E58.92581
G1 X69.528 Y183.843 E58.96786
G1 X68.998 Y183.112 E59.0099
G1 X68.534 Y182.337 E59.05196
G1 X68.14 Y181.524 E59.09403
G1 X67.82 Y180.68 E59.13606
G1 X67.576 Y179.81 E59.17813
G1 X67.41 Y178.922 E59.2202
G1 X67.313 Y177.767 E59.27417
G1 X67.3 Y177.158 E59.30253
G1 X67.301 Y167.351 E59.75919
G1 X67.311 Y166.654 E59.79165
G1 X67.345 Y165.955 E59.82423
G1 X67.55 Y163.494 E59.93923
G1 X67.693 Y160.944 E60.05815
G1 X67.764 Y158.412 E60.1761
G1 X67.762 Y155.878 E60.29409
G1 X67.689 Y153.309 E60.41376
G1 X67.545 Y150.8 E60.53079
G1 X67.345 Y148.387 E60.64353
G1 X67.315 Y147.876 E60.66737
G1 X67.302 Y147.299 E60.69424
G1 X67.3 Y127.831 E61.60075
G1 X67.311 Y126.986 E61.6401
G1 X67.345 Y126.283 E61.67287
G1 X67.547 Y123.867 E61.78577
G1 X67.691 Y121.319 E61.9046
G1 X67.764 Y118.78 E62.02288
G1 X67.764 Y116.245 E62.14092
G1 X67.693 Y113.718 E62.25863
G1 X67.549 Y111.167 E62.3776
G1 X67.345 Y108.726 E62.49166
G1 X67.312 Y108.066 E62.52243
G1 X67.3 Y107.338 E62.55634
G1 X67.301 Y88.018 E63.45596
G1 X67.311 Y87.32 E63.48846
G1 X67.345 Y86.618 E63.52119
G1 X67.548 Y84.183 E63.63497
G1 X67.691 Y81.687 E63.75138
G1 X67.764 Y79.123 E63.87082
G1 X67.764 Y76.589 E63.98881
G1 X67.693 Y74.055 E64.10685
G1 X67.55 Y71.509 E64.22559
G1 X67.345 Y69.051 E64.34045
G1 X67.311 Y68.378 E64.37182
G1 X67.301 Y67.791 E64.39916
G1 X67.301 Y58.021 E64.85409
G1 X67.311 Y57.356 E64.88506
G1 X67.365 Y56.454 E64.92714
G1 X67.498 Y55.561 E64.96918
G1 X67.709 Y54.683 E65.01123
G1 X67.998 Y53.827 E65.05329
G1 X68.361 Y53 E65.09535
G1 X68.795 Y52.209 E65.13736
G1 X69.298 Y51.458 E65.17945
G1 F1500 E58.67945
;MESH:gah_emporer_x1.stl
G0 F6000 X80.904 Y86.836
G0 X117.5 Y176.9
;TYPE:WALL-INNER
G1 F1500 E65.17945
G1 F1200 X156.9 Y176.9 E67.01408
G1 X156.9 Y58.1 E72.54591
G1 X78.1 Y58.1 E76.21516
G1 X78.1 Y67.564 E76.65585
G1 X80.255 Y67.575 E76.75619
G1 X80.499 Y67.604 E76.76764
G1 X80.749 Y67.575 E76.77935
G1 X87.793 Y67.565 E77.10735
G1 X88.31 Y67.597 E77.13147
G1 X88.83 Y67.73 E77.15647
G1 X89.252 Y67.895 E77.17756
G1 X89.709 Y68.146 E77.20184
G1 X90.133 Y68.454 E77.22624
G1 X90.602 Y68.947 E77.25793
G1 X90.926 Y69.469 E77.28654
G1 X91.106 Y69.871 E77.30705
G1 X91.275 Y70.399 E77.33286
G1 X91.34 Y70.936 E77.35805
G1 X91.343 Y84.736 E78.00064
G1 X91.275 Y85.26 E78.02524
G1 X91.081 Y85.856 E78.05442
G1 X90.87 Y86.311 E78.07778
G1 X90.469 Y86.869 E78.10977
G1 X89.95 Y87.358 E78.14298
G1 X89.482 Y87.654 E78.16876
G1 X89.037 Y87.86 E78.1916
G1 X88.677 Y87.976 E78.20921
G1 X88.066 Y88.092 E78.23817
G1 X80.865 Y88.1 E78.57348
G1 X80.498 Y88.061 E78.59066
G1 X80.187 Y88.092 E78.60522
G1 X78.1 Y88.1 E78.7024
G1 X78.1 Y107.232 E79.59326
G1 X80.262 Y107.24 E79.69393
G1 X80.499 Y107.271 E79.70506
G1 X80.749 Y107.239 E79.7168
G1 X87.901 Y107.232 E80.04983
G1 X88.401 Y107.291 E80.07327
G1 X88.957 Y107.434 E80.1
G1 X89.456 Y107.66 E80.12551
G1 X89.866 Y107.917 E80.14804
G1 X90.195 Y108.191 E80.16798
G1 X90.585 Y108.598 E80.19423
G1 X90.894 Y109.076 E80.22073
G1 X91.103 Y109.525 E80.24379
G1 X91.267 Y110.031 E80.26856
G1 X91.344 Y110.643 E80.29728
G1 X91.343 Y124.403 E80.93801
G1 X91.273 Y124.955 E80.96391
G1 X91.085 Y125.513 E80.99133
G1 X90.858 Y126.001 E81.01639
G1 X90.52 Y126.462 E81.04301
G1 X90.216 Y126.785 E81.06367
G1 X89.875 Y127.071 E81.08439
G1 X89.406 Y127.368 E81.11024
G1 X88.87 Y127.585 E81.13716
G1 X88.42 Y127.701 E81.1588
G1 X87.977 Y127.759 E81.17961
G1 X80.865 Y127.764 E81.51077
G1 X80.502 Y127.725 E81.52777
G1 X80.249 Y127.757 E81.53965
G1 X78.1 Y127.763 E81.63971
G1 X78.1 Y146.9 E82.53081
G1 X80.255 Y146.907 E82.63116
G1 X80.499 Y146.936 E82.6426
G1 X80.749 Y146.907 E82.65432
G1 X87.967 Y146.904 E82.99042
G1 X88.549 Y146.981 E83.01776
G1 X89.063 Y147.146 E83.04289
G1 X89.608 Y147.407 E83.07103
G1 X90.128 Y147.785 E83.10097
G1 X90.592 Y148.276 E83.13242
G1 X90.913 Y148.778 E83.16017
G1 X91.094 Y149.168 E83.18019
G1 X91.263 Y149.683 E83.20543
G1 X91.342 Y150.285 E83.2337
G1 X91.343 Y164.062 E83.87521
G1 X91.27 Y164.615 E83.90119
G1 X91.107 Y165.123 E83.92603
G1 X90.859 Y165.663 E83.9537
G1 X90.458 Y166.214 E83.98543
G1 X90.066 Y166.583 E84.0105
G1 X89.645 Y166.894 E84.03487
G1 X89.248 Y167.107 E84.05585
G1 X88.818 Y167.271 E84.07728
G1 X88.44 Y167.364 E84.09541
G1 X87.941 Y167.424 E84.11881
G1 X80.865 Y167.432 E84.4483
G1 X80.498 Y167.393 E84.46548
G1 X80.187 Y167.424 E84.48004
G1 X78.1 Y167.432 E84.57722
G1 X78.1 Y176.9 E85.01809
G1 X117.5 Y176.9 E86.85272
G0 F6000 X117.5 Y177.3
;TYPE:WALL-OUTER
G1 F1200 X157.3 Y177.3 E88.70597
G1 X157.3 Y57.7 E94.27505
G1 X77.7 Y57.7 E97.98156
G1 X77.7 Y67.982 E98.46033
G1 X77.993 Y67.964 E98.474
G1 X80.209 Y67.973 E98.57719
G1 X80.499 Y68.006 E98.59078
G1 X80.791 Y67.973 E98.60446
G1 X87.769 Y67.964 E98.92938
G1 X88.262 Y67.998 E98.9524
G1 X88.755 Y68.126 E98.97611
G1 X89.125 Y68.276 E98.9947
G1 X89.453 Y68.456 E99.01212
G1 X89.854 Y68.746 E99.03517
G1 X90.282 Y69.193 E99.06399
G1 X90.562 Y69.636 E99.08839
G1 X90.718 Y69.976 E99.10581
G1 X90.878 Y70.458 E99.12946
G1 X90.944 Y70.996 E99.15469
G1 X90.943 Y84.714 E99.79346
G1 X90.875 Y85.215 E99.817
G1 X90.718 Y85.688 E99.84021
G1 X90.51 Y86.135 E99.86317
G1 X90.142 Y86.634 E99.89204
G1 X89.728 Y87.024 E99.91852
G1 X89.289 Y87.304 E99.94277
G1 X88.925 Y87.475 E99.9615
G1 X88.53 Y87.601 E99.9808
G1 X88.044 Y87.692 E100.00382
G1 X80.824 Y87.698 E100.34002
G1 X80.499 Y87.658 E100.35527
G1 X80.205 Y87.691 E100.36904
G1 X77.7 Y87.699 E100.48569
G1 X77.7 Y107.632 E101.41385
G1 X80.212 Y107.637 E101.53082
G1 X80.499 Y107.674 E101.54429
G1 X80.791 Y107.637 E101.558
G1 X87.911 Y107.632 E101.88954
G1 X88.355 Y107.69 E101.91039
G1 X88.831 Y107.814 E101.93329
G1 X89.297 Y108.028 E101.95717
G1 X89.637 Y108.246 E101.97597
G1 X89.943 Y108.503 E101.99458
G1 X90.278 Y108.855 E102.01721
G1 X90.562 Y109.303 E102.04191
G1 X90.727 Y109.661 E102.06026
G1 X90.881 Y110.137 E102.08356
G1 X90.944 Y110.672 E102.10864
G1 X90.943 Y124.382 E102.74704
G1 X90.881 Y124.86 E102.76948
G1 X90.718 Y125.352 E102.79362
G1 X90.51 Y125.803 E102.81674
G1 X90.202 Y126.218 E102.84081
G1 X89.933 Y126.502 E102.85902
G1 X89.619 Y126.762 E102.87801
G1 X89.201 Y127.024 E102.90098
G1 X88.741 Y127.206 E102.92401
G1 X88.343 Y127.309 E102.94315
G1 X87.953 Y127.36 E102.96147
G1 X80.84 Y127.363 E103.29268
G1 X80.501 Y127.322 E103.30858
