;FLAVOR:Marlin
;TIME:6117
;Filament used: 6.22343m
;Layer height: 0.28
;MINX:66.5
;MINY:57.5
;MINZ:0.28
;MAXX:168.5
;MAXY:177.5
;MAXZ:17.92
;TARGET_MACHINE.NAME:Creality CR-6 SE
;Generated with Cura_SteamEngine 5.8.1
M140 S60
M105
M190 S60
M104 S200
M105
M109 S200
M82 ;absolute extrusion mode
M201 X500.00 Y500.00 Z100.00 E5000.00 ;Setup machine max acceleration
M203 X500.00 Y500.00 Z10.00 E50.00 ;Setup machine max feedrate
M204 P500.00 R1000.00 T500.00 ;Setup Print/Retract/Travel acceleration
M205 X8.00 Y8.00 Z0.40 E5.00 ;Setup Jerk
M220 S100 ;Reset Feedrate
M221 S100 ;Reset Flowrate

G28 ;Home

G92 E0 ;Reset Extruder
G1 Z2.0 F3000 ;Move Z Axis up
G1 X10.1 Y20 Z0.28 F5000.0 ;Move to start position
G1 X10.1 Y200.0 Z0.28 F1500.0 E15 ;Draw the first line
G1 X10.4 Y200.0 Z0.28 F5000.0 ;Move to side a little
G1 X10.4 Y20 Z0.28 F1500.0 E30 ;Draw the second line
G92 E0 ;Reset Extruder
G1 Z2.0 F3000 ;Move Z Axis up

G92 E0
G92 E0
G1 F1500 E-6.5
;LAYER_COUNT:64
;LAYER:0
M107
G0 F6000 X69.231 Y61.265 Z0.28
;TYPE:SKIRT
G1 F1500 E0
G1 F1200 X69.956 Y60.513 E0.04864
G1 X70.692 Y59.876 E0.09396
G1 X71.424 Y59.346 E0.13605
G1 X72.321 Y58.811 E0.18468
G1 X73.199 Y58.39 E0.23002
G1 X74.112 Y58.048 E0.27542
G1 X75.049 Y57.789 E0.32068
G1 X76.016 Y57.611 E0.36647
G1 X77.155 Y57.515 E0.41969
G1 X77.812 Y57.5 E0.45029
G1 X156.804 Y57.5 E4.12849
G1 X157.684 Y57.513 E4.16947
G1 X158.656 Y57.572 E4.21482
G1 X159.619 Y57.718 E4.26017
G1 X160.566 Y57.949 E4.30556
G1 X161.454 Y58.249 E4.3492
G1 X162.346 Y58.639 E4.39454
G1 X163.229 Y59.126 E4.44149
G1 X163.98 Y59.628 E4.48355
G1 X164.795 Y60.286 E4.53233
G1 X165.493 Y60.964 E4.57764
G1 X166.129 Y61.701 E4.62297
G1 X166.699 Y62.491 E4.66833
G1 X167.161 Y63.267 E4.71038
G1 X167.615 Y64.209 E4.75907
G1 X167.944 Y65.087 E4.80273
G1 X168.213 Y66.059 E4.8497
G1 X168.39 Y67.025 E4.89543
G1 X168.485 Y68.155 E4.94823
G1 X168.5 Y68.83 E4.97967
G1 X168.499 Y165.9 E9.49965
G1 X168.488 Y166.663 E9.53518
G1 X168.431 Y167.636 E9.58057
G1 X168.286 Y168.599 E9.62592
G1 X168.057 Y169.545 E9.67124
G1 X167.746 Y170.469 E9.71664
G1 X167.354 Y171.36 E9.76196
G1 X166.886 Y172.212 E9.80723
G1 X166.364 Y172.993 E9.85097
G1 X165.731 Y173.778 E9.89792
G1 X165.106 Y174.429 E9.93995
G1 X164.317 Y175.117 E9.98869
G1 X163.557 Y175.667 E10.03237
G1 X162.69 Y176.184 E10.07938
G1 X161.812 Y176.606 E10.12474
G1 X160.901 Y176.948 E10.17005
G1 X159.962 Y177.209 E10.21543
G1 X158.996 Y177.387 E10.26117
G1 X157.845 Y177.485 E10.31496
G1 X157.17 Y177.5 E10.3464
G1 X78.064 Y177.499 E14.0299
G1 X77.331 Y177.488 E14.06404
G1 X76.359 Y177.431 E14.10938
G1 X75.396 Y177.285 E14.15473
G1 X74.45 Y177.056 E14.20005
G1 X73.526 Y176.744 E14.24546
G1 X72.636 Y176.352 E14.29075
G1 X71.813 Y175.901 E14.33445
G1 X70.974 Y175.34 E14.38144
G1 X70.27 Y174.774 E14.42351
G1 X69.517 Y174.049 E14.47218
G1 X68.88 Y173.313 E14.5175
G1 X68.35 Y172.582 E14.55955
G1 X67.814 Y171.685 E14.6082
G1 X67.392 Y170.807 E14.65356
G1 X67.05 Y169.895 E14.69892
G1 X66.79 Y168.957 E14.74424
G1 X66.612 Y167.988 E14.79012
G1 X66.514 Y166.809 E14.84521
G1 X66.5 Y166.158 E14.87553
G1 X66.501 Y69.025 E19.39845
G1 X66.512 Y68.325 E19.43105
G1 X66.57 Y67.352 E19.47643
G1 X66.716 Y66.389 E19.52179
G1 X66.946 Y65.443 E19.56712
G1 X67.259 Y64.52 E19.6125
G1 X67.651 Y63.63 E19.65779
G1 X68.121 Y62.777 E19.70314
G1 X68.664 Y61.969 E19.74847
G1 X69.231 Y61.265 E19.79056
G0 F6000 X69.543 Y61.516
G1 F1200 X70.218 Y60.815 E19.83587
G1 X70.927 Y60.2 E19.87958
G1 X71.659 Y59.67 E19.92166
G1 X72.495 Y59.171 E19.96699
G1 X73.34 Y58.764 E20.01066
G1 X74.219 Y58.433 E20.0544
G1 X75.122 Y58.182 E20.09804
G1 X76.05 Y58.01 E20.14199
G1 X77.189 Y57.914 E20.19521
G1 X77.821 Y57.9 E20.22465
G1 X156.798 Y57.9 E23.90215
G1 X157.66 Y57.912 E23.94229
G1 X158.597 Y57.968 E23.986
G1 X159.525 Y58.107 E24.02969
G1 X160.438 Y58.328 E24.07344
G1 X161.294 Y58.616 E24.11549
G1 X162.186 Y59.006 E24.16082
G1 X163.007 Y59.459 E24.20448
G1 X163.758 Y59.961 E24.24655
G1 X164.517 Y60.573 E24.29195
G1 X165.191 Y61.226 E24.33564
G1 X165.805 Y61.935 E24.37932
G1 X166.355 Y62.696 E24.42304
G1 X166.817 Y63.472 E24.46509
G1 X167.24 Y64.349 E24.51043
G1 X167.569 Y65.227 E24.55409
G1 X167.82 Y66.132 E24.59782
G1 X167.991 Y67.059 E24.64171
G1 X168.086 Y68.189 E24.69452
G1 X168.1 Y68.83 E24.72437
G1 X168.099 Y165.895 E29.24413
G1 X168.089 Y166.64 E29.27882
G1 X168.035 Y167.577 E29.32252
G1 X167.897 Y168.506 E29.36625
G1 X167.678 Y169.418 E29.40993
G1 X167.38 Y170.308 E29.45363
G1 X167.003 Y171.168 E29.49736
G1 X166.553 Y171.99 E29.54099
G1 X166.031 Y172.771 E29.58473
G1 X165.442 Y173.501 E29.62841
G1 X164.817 Y174.152 E29.67043
G1 X164.082 Y174.793 E29.71584
G1 X163.322 Y175.343 E29.75953
G1 X162.516 Y175.824 E29.80323
G1 X161.671 Y176.232 E29.84693
G1 X160.793 Y176.563 E29.89062
G1 X159.889 Y176.816 E29.93433
G1 X158.962 Y176.988 E29.97823
G1 X157.811 Y177.086 E30.03202
G1 X157.17 Y177.1 E30.06188
G1 X78.07 Y177.099 E33.7451
G1 X77.354 Y177.089 E33.77845
G1 X76.418 Y177.035 E33.8221
G1 X75.489 Y176.896 E33.86584
G1 X74.577 Y176.677 E33.90952
G1 X73.687 Y176.378 E33.95324
G1 X72.828 Y176.001 E33.99692
G1 X72.005 Y175.55 E34.04062
G1 X71.225 Y175.028 E34.08432
G1 X70.521 Y174.462 E34.12638
G1 X69.819 Y173.787 E34.17173
G1 X69.204 Y173.078 E34.21543
G1 X68.674 Y172.347 E34.25748
G1 X68.174 Y171.511 E34.30283
G1 X67.766 Y170.666 E34.34653
G1 X67.435 Y169.788 E34.39022
G1 X67.183 Y168.884 E34.43392
G1 X67.011 Y167.955 E34.47791
G1 X66.913 Y166.776 E34.533
G1 X66.9 Y166.158 E34.56178
G1 X66.901 Y69.031 E39.08442
G1 X66.911 Y68.348 E39.11623
G1 X66.966 Y67.411 E39.15994
G1 X67.105 Y66.483 E39.20363
G1 X67.325 Y65.571 E39.24731
G1 X67.625 Y64.681 E39.29105
G1 X68.002 Y63.822 E39.33473
G1 X68.453 Y63 E39.37839
G1 X68.976 Y62.22 E39.42212
G1 X69.543 Y61.516 E39.46421
G0 F6000 X69.855 Y61.767
G1 F1200 X70.481 Y61.117 E39.50623
G1 X71.162 Y60.524 E39.54828
G1 X71.894 Y59.994 E39.59036
G1 X72.669 Y59.531 E39.63239
G1 X73.482 Y59.138 E39.67444
G1 X74.327 Y58.818 E39.71651
G1 X75.196 Y58.575 E39.75853
G1 X76.084 Y58.409 E39.8006
G1 X77.223 Y58.313 E39.85382
G1 X77.83 Y58.3 E39.88209
G1 X156.793 Y58.3 E43.55894
G1 X157.637 Y58.311 E43.59824
G1 X158.539 Y58.364 E43.64032
G1 X159.432 Y58.496 E43.68235
G1 X160.31 Y58.707 E43.7244
G1 X161.166 Y58.995 E43.76645
G1 X161.993 Y59.357 E43.80849
G1 X162.785 Y59.792 E43.85056
G1 X163.536 Y60.294 E43.89263
G1 X164.239 Y60.861 E43.93468
G1 X164.889 Y61.488 E43.97674
G1 X165.481 Y62.17 E44.01879
G1 X166.011 Y62.901 E44.06083
G1 X166.473 Y63.677 E44.10288
G1 X166.866 Y64.49 E44.14493
G1 X167.184 Y65.335 E44.18697
G1 X167.427 Y66.205 E44.22903
G1 X167.592 Y67.093 E44.27109
G1 X167.687 Y68.223 E44.32389
G1 X167.7 Y68.83 E44.35216
G1 X167.699 Y165.89 E48.87168
G1 X167.69 Y166.617 E48.90554
G1 X167.639 Y167.519 E48.94761
G1 X167.508 Y168.413 E48.98968
G1 X167.299 Y169.291 E49.03171
G1 X167.013 Y170.148 E49.07377
G1 X166.652 Y170.976 E49.11584
G1 X166.22 Y171.768 E49.15784
G1 X165.719 Y172.52 E49.19992
G1 X165.153 Y173.224 E49.24198
G1 X164.528 Y173.875 E49.284
G1 X163.847 Y174.469 E49.32608
G1 X163.116 Y175 E49.36815
G1 X162.342 Y175.464 E49.41017
G1 X161.529 Y175.858 E49.45224
G1 X160.685 Y176.178 E49.49427
G1 X159.815 Y176.423 E49.53636
G1 X158.928 Y176.589 E49.57838
G1 X157.777 Y176.687 E49.63217
G1 X157.17 Y176.7 E49.66044
G1 X78.075 Y176.699 E53.34343
G1 X77.377 Y176.69 E53.37594
G1 X76.476 Y176.639 E53.41796
G1 X75.582 Y176.507 E53.46004
G1 X74.704 Y176.298 E53.50206
G1 X73.847 Y176.011 E53.54415
G1 X73.02 Y175.65 E53.58616
G1 X72.227 Y175.217 E53.62824
G1 X71.476 Y174.716 E53.67027
G1 X70.772 Y174.15 E53.71233
G1 X70.121 Y173.524 E53.75439
G1 X69.528 Y172.843 E53.79644
G1 X68.998 Y172.112 E53.83848
G1 X68.534 Y171.337 E53.88054
G1 X68.14 Y170.524 E53.92261
G1 X67.82 Y169.68 E53.96464
G1 X67.576 Y168.81 E54.00671
G1 X67.41 Y167.922 E54.04878
G1 X67.313 Y166.767 E54.10275
G1 X67.3 Y166.158 E54.13111
G1 X67.301 Y69.036 E58.65352
G1 X67.31 Y68.371 E58.68449
G1 X67.362 Y67.469 E58.72656
G1 X67.494 Y66.576 E58.76859
G1 X67.704 Y65.698 E58.81063
G1 X67.991 Y64.841 E58.85271
G1 X68.353 Y64.014 E58.89475
G1 X68.786 Y63.222 E58.93678
G1 X69.288 Y62.471 E58.97884
G1 X69.855 Y61.767 E59.02093
G1 F1500 E52.52093
;MESH:gah_dice.x1.stl
G0 F6000 X76.835 Y68.92
G0 X117.5 Y165.9
;TYPE:WALL-INNER
G1 F1500 E59.02093
G1 F1200 X156.9 Y165.9 E60.85556
G1 X156.9 Y69.1 E65.36298
G1 X78.1 Y69.1 E69.03223
G1 X78.1 Y165.9 E73.53965
G1 X117.5 Y165.9 E75.37428
G0 F6000 X117.5 Y166.3
;TYPE:WALL-OUTER
G1 F1200 X157.3 Y166.3 E77.22753
G1 X157.3 Y68.7 E81.7722
G1 X77.7 Y68.7 E85.47871
G1 X77.7 Y166.3 E90.02337
G1 X117.5 Y166.3 E91.87663
G0 F6000 X117.5 Y165.54
;TYPE:SKIN
G1 F1200 X78.46 Y165.54 E93.69449
G1 X78.46 Y69.46 E98.16838
G1 X156.54 Y69.46 E101.80411
G1 X156.54 Y165.54 E106.278
G1 X117.5 Y165.54 E108.09586
G1 F1500 E101.59586
G0 F6000 X117.5 Y165.8
G0 X78.272 Y165.728
G0 X78.2 Y165.21
G0 X78.66 Y165.21
G1 F1500 E108.09586
G1 F1200 X78.79 Y165.34 E108.10442
G0 F6000 X79.356 Y165.34
G1 F1200 X78.66 Y164.644 E108.15026
G0 F6000 X78.66 Y164.078
G1 F1200 X79.921 Y165.34 E108.23333
G0 F6000 X80.487 Y165.34
G1 F1200 X78.66 Y163.513 E108.35364
G0 F6000 X78.66 Y162.947
G1 F1200 X81.053 Y165.34 E108.51122
G0 F6000 X81.619 Y165.34
G1 F1200 X78.66 Y162.381 E108.70608
G0 F6000 X78.66 Y161.816
G1 F1200 X82.184 Y165.34 E108.93814
G0 F6000 X82.75 Y165.34
G1 F1200 X78.66 Y161.25 E109.20747
G0 F6000 X78.66 Y160.684
G1 F1200 X83.316 Y165.34 E109.51408
G0 F6000 X83.881 Y165.34
G1 F1200 X78.66 Y160.119 E109.85789
G0 F6000 X78.66 Y159.553
G1 F1200 X84.447 Y165.34 E110.23897
G0 F6000 X85.013 Y165.34
G1 F1200 X78.66 Y158.987 E110.65733
G0 F6000 X78.66 Y158.422
G1 F1200 X85.578 Y165.34 E111.11289
G0 F6000 X86.144 Y165.34
G1 F1200 X78.66 Y157.856 E111.60573
G0 F6000 X78.66 Y157.29
G1 F1200 X86.71 Y165.34 E112.13583
G0 F6000 X87.275 Y165.34
G1 F1200 X78.66 Y156.725 E112.70315
G0 F6000 X78.66 Y156.159
G1 F1200 X87.841 Y165.34 E113.30773
G0 F6000 X88.407 Y165.34
G1 F1200 X78.66 Y155.593 E113.94959
G0 F6000 X78.66 Y155.028
G1 F1200 X88.972 Y165.34 E114.62865
G0 F6000 X89.538 Y165.34
G1 F1200 X78.66 Y154.462 E115.34498
G0 F6000 X78.66 Y153.896
G1 F1200 X90.104 Y165.34 E116.09859
G0 F6000 X90.669 Y165.34
G1 F1200 X78.66 Y153.33 E116.88944
G0 F6000 X78.66 Y152.765
G1 F1200 X91.235 Y165.34 E117.71752
G0 F6000 X91.801 Y165.34
G1 F1200 X78.66 Y152.199 E118.58288
G0 F6000 X78.66 Y151.633
G1 F1200 X92.367 Y165.34 E119.48551
G0 F6000 X92.932 Y165.34
G1 F1200 X78.66 Y151.068 E120.42535
G0 F6000 X78.66 Y150.502
G1 F1200 X93.498 Y165.34 E121.40245
G0 F6000 X94.064 Y165.34
G1 F1200 X78.66 Y149.936 E122.41683
G0 F6000 X78.66 Y149.371
G1 F1200 X94.629 Y165.34 E123.46842
G0 F6000 X95.195 Y165.34
G1 F1200 X78.66 Y148.805 E124.55728
G0 F6000 X78.66 Y148.239
G1 F1200 X95.761 Y165.34 E125.68341
G0 F6000 X96.326 Y165.34
G1 F1200 X78.66 Y147.674 E126.84674
G0 F6000 X78.66 Y147.108
G1 F1200 X96.892 Y165.34 E128.04735
G0 F6000 X97.458 Y165.34
G1 F1200 X78.66 Y146.542 E129.28523
G0 F6000 X78.66 Y145.977
G1 F1200 X98.023 Y165.34 E130.56032
G0 F6000 X98.589 Y165.34
G1 F1200 X78.66 Y145.411 E131.87268
G0 F6000 X78.66 Y144.845
G1 F1200 X99.155 Y165.34 E133.22231
G0 F6000 X99.72 Y165.34
G1 F1200 X78.66 Y144.279 E134.60918
G0 F6000 X78.66 Y143.714
G1 F1200 X100.286 Y165.34 E136.03329
G0 F6000 X100.852 Y165.34
G1 F1200 X78.66 Y143.148 E137.49467
G0 F6000 X78.66 Y142.582
G1 F1200 X101.417 Y165.34 E138.99329
G0 F6000 X101.983 Y165.34
G1 F1200 X78.66 Y142.017 E140.52915
G0 F6000 X78.66 Y141.451
G1 F1200 X102.549 Y165.34 E142.10228
G0 F6000 X103.115 Y165.34
G1 F1200 X78.66 Y140.885 E143.71268
G0 F6000 X78.66 Y140.32
G1 F1200 X103.68 Y165.34 E145.36029
G0 F6000 X104.246 Y165.34
G1 F1200 X78.66 Y139.754 E147.04517
G0 F6000 X78.66 Y139.188
G1 F1200 X104.812 Y165.34 E148.76733
G0 F6000 X105.377 Y165.34
G1 F1200 X78.66 Y138.623 E150.52669
G0 F6000 X78.66 Y138.057
G1 F1200 X105.943 Y165.34 E152.32332
G0 F6000 X106.509 Y165.34
G1 F1200 X78.66 Y137.491 E154.15722
G0 F6000 X78.66 Y136.926
G1 F1200 X107.074 Y165.34 E156.02833
G0 F6000 X107.64 Y165.34
G1 F1200 X78.66 Y136.36 E157.93672
G0 F6000 X78.66 Y135.794
G1 F1200 X108.206 Y165.34 E159.88237
G0 F6000 X108.771 Y165.34
G1 F1200 X78.66 Y135.229 E161.86523
G0 F6000 X78.66 Y134.663
G1 F1200 X109.337 Y165.34 E163.88536
G0 F6000 X109.903 Y165.34
G1 F1200 X78.66 Y134.097 E165.94277
G0 F6000 X78.66 Y133.531
G1 F1200 X110.468 Y165.34 E168.03741
G0 F6000 X111.034 Y165.34
G1 F1200 X78.66 Y132.966 E170.1693
G0 F6000 X78.66 Y132.4
G1 F1200 X111.6 Y165.34 E172.33845
G0 F6000 X112.166 Y165.34
G1 F1200 X78.66 Y131.834 E174.54488
G0 F6000 X78.66 Y131.269
G1 F1200 X112.731 Y165.34 E176.78851
G0 F6000 X113.297 Y165.34
G1 F1200 X78.66 Y130.703 E179.06942
G0 F6000 X78.66 Y130.137
G1 F1200 X113.863 Y165.34 E181.3876
G0 F6000 X114.428 Y165.34
G1 F1200 X78.66 Y129.572 E183.74298
G0 F6000 X78.66 Y129.006
G1 F1200 X114.994 Y165.34 E186.13564
G0 F6000 X115.56 Y165.34
G1 F1200 X78.66 Y128.44 E188.56556
G0 F6000 X78.66 Y127.875
G1 F1200 X116.125 Y165.34 E191.0327
G0 F6000 X116.691 Y165.34
G1 F1200 X78.66 Y127.309 E193.5371
G0 F6000 X78.66 Y126.743
G1 F1200 X117.257 Y165.34 E196.07878
G0 F6000 X117.822 Y165.34
G1 F1200 X78.66 Y126.178 E198.65767
G0 F6000 X78.66 Y125.612
G1 F1200 X118.388 Y165.34 E201.27382
G0 F6000 X118.954 Y165.34
G1 F1200 X78.66 Y125.046 E203.92725
G0 F6000 X78.66 Y124.48
G1 F1200 X119.519 Y165.34 E206.61792
G0 F6000 X120.085 Y165.34
G1 F1200 X78.66 Y123.915 E209.34583
G0 F6000 X78.66 Y123.349
G1 F1200 X120.651 Y165.34 E212.11101
G0 F6000 X121.216 Y165.34
G1 F1200 X78.66 Y122.783 E214.91343
G0 F6000 X78.66 Y122.218
G1 F1200 X121.782 Y165.34 E217.75308
G0 F6000 X122.348 Y165.34
G1 F1200 X78.66 Y121.652 E220.63001
G0 F6000 X78.66 Y121.086
G1 F1200 X122.914 Y165.34 E223.54421
G0 F6000 X123.479 Y165.34
G1 F1200 X78.66 Y120.521 E226.49562
G0 F6000 X78.66 Y119.955
G1 F1200 X124.045 Y165.34 E229.4843
G0 F6000 X124.611 Y165.34
G1 F1200 X78.66 Y119.389 E232.51025
G0 F6000 X78.66 Y118.824
G1 F1200 X125.176 Y165.34 E235.57341
G0 F6000 X125.742 Y165.34
G1 F1200 X78.66 Y118.258 E238.67384
G0 F6000 X78.66 Y117.692
G1 F1200 X126.308 Y165.34 E241.81154
G0 F6000 X126.873 Y165.34
G1 F1200 X78.66 Y117.127 E244.98645
G0 F6000 X78.66 Y116.561
G1 F1200 X127.439 Y165.34 E248.19863
G0 F6000 X128.005 Y165.34
G1 F1200 X78.66 Y115.995 E251.44808
G0 F6000 X78.66 Y115.43
G1 F1200 X128.57 Y165.34 E254.73474
G0 F6000 X129.136 Y165.34
G1 F1200 X78.66 Y114.864 E258.05867
G0 F6000 X78.66 Y114.298
G1 F1200 X129.702 Y165.34 E261.41988
G0 F6000 X130.267 Y165.34
G1 F1200 X78.66 Y113.732 E264.81832
G0 F6000 X78.66 Y113.167
G1 F1200 X130.833 Y165.34 E268.254
G0 F6000 X131.399 Y165.34
G1 F1200 X78.66 Y112.601 E271.72695
G0 F6000 X78.66 Y112.035
G1 F1200 X131.965 Y165.34 E275.23718
G0 F6000 X132.53 Y165.34
G1 F1200 X78.66 Y111.47 E278.78461
G0 F6000 X78.66 Y110.904
G1 F1200 X133.096 Y165.34 E282.36931
G0 F6000 X133.662 Y165.34
G1 F1200 X78.66 Y110.338 E285.99129
G0 F6000 X78.66 Y109.773
G1 F1200 X134.227 Y165.34 E289.65047
G0 F6000 X134.793 Y165.34
G1 F1200 X78.66 Y109.207 E293.34692
G0 F6000 X78.66 Y108.641
G1 F1200 X135.359 Y165.34 E297.08065
G0 F6000 X135.924 Y165.34
G1 F1200 X78.66 Y108.076 E300.85158
G0 F6000 X78.66 Y107.51
G1 F1200 X136.49 Y165.34 E304.65979
G0 F6000 X137.056 Y165.34
G1 F1200 X78.66 Y106.944 E308.50526
G0 F6000 X78.66 Y106.379
G1 F1200 X137.621 Y165.34 E312.38795
G0 F6000 X138.187 Y165.34
G1 F1200 X78.66 Y105.813 E316.3079
G0 F6000 X78.66 Y105.247
G1 F1200 X138.753 Y165.34 E320.26513
G0 F6000 X139.318 Y165.34
G1 F1200 X78.66 Y104.682 E324.25956
G0 F6000 X78.66 Y104.116
G1 F1200 X139.884 Y165.34 E328.29127
G0 F6000 X140.45 Y165.34
G1 F1200 X78.66 Y103.55 E332.36024
G0 F6000 X78.66 Y102.984
G1 F1200 X141.015 Y165.34 E336.46646
G0 F6000 X141.581 Y165.34
G1 F1200 X78.66 Y102.419 E340.60991
G0 F6000 X78.66 Y101.853
G1 F1200 X142.147 Y165.34 E344.79064
G0 F6000 X142.713 Y165.34
G1 F1200 X78.66 Y101.287 E349.00864
G0 F6000 X78.66 Y100.722
G1 F1200 X143.278 Y165.34 E353.26385
G0 F6000 X143.844 Y165.34
G1 F1200 X78.66 Y100.156 E357.55632
G0 F6000 X78.66 Y99.59
