;FLAVOR:Marlin
;TIME:12573
;Filament used: 12.8068m
;Layer height: 0.28
;MINX:23.5
;MINY:60.5
;MINZ:0.28
;MAXX:211.5
;MAXY:174.5
;MAXZ:14
;TARGET_MACHINE.NAME:Creality CR-6 SE
;Generated with Cura_SteamEngine 5.8.1
M140 S60
M105
M190 S60
M104 S200
M105
M109 S200
M82 ;absolute extrusion mode
M201 X500.00 Y500.00 Z100.00 E5000.00 ;Setup machine max acceleration
M203 X500.00 Y500.00 Z10.00 E50.00 ;Setup machine max feedrate
M204 P500.00 R1000.00 T500.00 ;Setup Print/Retract/Travel acceleration
M205 X8.00 Y8.00 Z0.40 E5.00 ;Setup Jerk
M220 S100 ;Reset Feedrate
M221 S100 ;Reset Flowrate

G28 ;Home

G92 E0 ;Reset Extruder
G1 Z2.0 F3000 ;Move Z Axis up
G1 X10.1 Y20 Z0.28 F5000.0 ;Move to start position
G1 X10.1 Y200.0 Z0.28 F1500.0 E15 ;Draw the first line
G1 X10.4 Y200.0 Z0.28 F5000.0 ;Move to side a little
G1 X10.4 Y20 Z0.28 F1500.0 E30 ;Draw the second line
G92 E0 ;Reset Extruder
G1 Z2.0 F3000 ;Move Z Axis up

G92 E0
G92 E0
G1 F1500 E-6.5
;LAYER_COUNT:50
;LAYER:0
M107
G0 F6000 X29.321 Y61.811 Z0.28
;TYPE:SKIRT
G1 F1500 E0
G1 F1200 X30.199 Y61.39 E0.04534
G1 X31.112 Y61.048 E0.09074
G1 X32.049 Y60.789 E0.136
G1 X33.016 Y60.611 E0.18179
G1 X34.155 Y60.515 E0.23501
G1 X34.812 Y60.5 E0.26561
G1 X199.804 Y60.5 E7.94833
G1 X200.684 Y60.513 E7.98931
G1 X201.656 Y60.572 E8.03466
G1 X202.619 Y60.718 E8.08001
G1 X203.566 Y60.949 E8.1254
G1 X204.454 Y61.249 E8.16905
G1 X205.346 Y61.639 E8.21438
G1 X206.229 Y62.126 E8.26133
G1 X206.98 Y62.628 E8.3034
G1 X207.795 Y63.286 E8.35217
G1 X208.493 Y63.964 E8.39748
G1 X209.129 Y64.701 E8.44281
G1 X209.699 Y65.491 E8.48817
G1 X210.161 Y66.267 E8.53022
G1 X210.615 Y67.209 E8.57892
G1 X210.944 Y68.087 E8.62258
G1 X211.213 Y69.059 E8.66954
G1 X211.39 Y70.025 E8.71527
G1 X211.485 Y71.155 E8.76807
G1 X211.5 Y71.83 E8.79951
G1 X211.499 Y162.9 E13.04011
G1 X211.488 Y163.663 E13.07564
G1 X211.431 Y164.636 E13.12103
G1 X211.286 Y165.599 E13.16637
G1 X211.057 Y166.545 E13.21169
G1 X210.746 Y167.469 E13.25709
G1 X210.354 Y168.36 E13.30242
G1 X209.886 Y169.212 E13.34768
G1 X209.364 Y169.993 E13.39142
G1 X208.731 Y170.778 E13.43838
G1 X208.106 Y171.429 E13.4804
G1 X207.317 Y172.117 E13.52915
G1 X206.557 Y172.667 E13.57283
G1 X205.69 Y173.184 E13.61983
G1 X204.812 Y173.606 E13.6652
G1 X203.901 Y173.948 E13.71051
G1 X202.962 Y174.209 E13.75589
G1 X201.996 Y174.387 E13.80163
G1 X200.845 Y174.485 E13.85542
G1 X200.17 Y174.5 E13.88685
G1 X35.064 Y174.499 E21.57488
G1 X34.331 Y174.488 E21.60902
G1 X33.359 Y174.431 E21.65435
G1 X32.396 Y174.285 E21.69971
G1 X31.45 Y174.056 E21.74503
G1 X30.526 Y173.744 E21.79044
G1 X29.636 Y173.352 E21.83573
G1 X28.813 Y172.901 E21.87942
G1 X27.974 Y172.34 E21.92642
G1 X27.27 Y171.774 E21.96848
G1 X26.517 Y171.049 E22.01716
G1 X25.88 Y170.313 E22.06248
G1 X25.35 Y169.582 E22.10452
G1 X24.814 Y168.685 E22.15318
G1 X24.392 Y167.807 E22.19854
G1 X24.05 Y166.895 E22.2439
G1 X23.79 Y165.957 E22.28922
G1 X23.612 Y164.988 E22.3351
G1 X23.514 Y163.809 E22.39018
G1 X23.5 Y163.158 E22.4205
G1 X23.501 Y72.025 E26.66404
G1 X23.512 Y71.325 E26.69664
G1 X23.57 Y70.352 E26.74203
G1 X23.716 Y69.389 E26.78738
G1 X23.946 Y68.443 E26.83271
G1 X24.259 Y67.52 E26.87809
G1 X24.651 Y66.63 E26.92338
G1 X25.121 Y65.777 E26.96873
G1 X25.664 Y64.969 E27.01406
G1 X26.231 Y64.265 E27.05615
G1 X26.956 Y63.513 E27.10479
G1 X27.692 Y62.876 E27.15011
G1 X28.424 Y62.346 E27.1922
G1 X29.321 Y61.811 E27.24083
G0 F6000 X29.495 Y62.171
G1 F1200 X30.34 Y61.764 E27.2845
G1 X31.219 Y61.433 E27.32824
G1 X32.122 Y61.182 E27.37188
G1 X33.05 Y61.01 E27.41583
G1 X34.189 Y60.914 E27.46905
G1 X34.821 Y60.9 E27.49849
G1 X199.798 Y60.9 E35.18051
G1 X200.66 Y60.912 E35.22065
G1 X201.597 Y60.968 E35.26436
G1 X202.525 Y61.107 E35.30805
G1 X203.438 Y61.328 E35.35179
G1 X204.294 Y61.616 E35.39385
G1 X205.186 Y62.006 E35.43918
G1 X206.007 Y62.459 E35.48284
G1 X206.758 Y62.961 E35.5249
G1 X207.517 Y63.573 E35.5703
G1 X208.191 Y64.226 E35.614
G1 X208.805 Y64.935 E35.65767
G1 X209.355 Y65.696 E35.7014
G1 X209.817 Y66.472 E35.74345
G1 X210.24 Y67.349 E35.78879
G1 X210.569 Y68.227 E35.83245
G1 X210.82 Y69.132 E35.87618
G1 X210.991 Y70.059 E35.92007
G1 X211.086 Y71.189 E35.97287
G1 X211.1 Y71.83 E36.00273
G1 X211.099 Y162.895 E40.2431
G1 X211.089 Y163.64 E40.27779
G1 X211.035 Y164.577 E40.32149
G1 X210.897 Y165.506 E40.36523
G1 X210.678 Y166.418 E40.4089
G1 X210.38 Y167.308 E40.4526
G1 X210.003 Y168.168 E40.49633
G1 X209.553 Y168.99 E40.53996
G1 X209.031 Y169.771 E40.58371
G1 X208.442 Y170.501 E40.62738
G1 X207.817 Y171.152 E40.6694
G1 X207.082 Y171.793 E40.71482
G1 X206.322 Y172.343 E40.7585
G1 X205.516 Y172.824 E40.80221
G1 X204.671 Y173.232 E40.8459
G1 X203.793 Y173.563 E40.88959
G1 X202.889 Y173.816 E40.9333
G1 X201.962 Y173.988 E40.9772
G1 X200.811 Y174.086 E41.03099
G1 X200.17 Y174.1 E41.06085
G1 X35.07 Y174.099 E48.7486
G1 X34.354 Y174.089 E48.78194
G1 X33.418 Y174.035 E48.8256
G1 X32.489 Y173.896 E48.86933
G1 X31.577 Y173.677 E48.91301
G1 X30.687 Y173.378 E48.95673
G1 X29.828 Y173.001 E49.00041
G1 X29.005 Y172.55 E49.04411
G1 X28.225 Y172.028 E49.08781
G1 X27.521 Y171.462 E49.12987
G1 X26.819 Y170.787 E49.17522
G1 X26.204 Y170.078 E49.21892
G1 X25.674 Y169.347 E49.26097
G1 X25.174 Y168.511 E49.30633
G1 X24.766 Y167.666 E49.35002
G1 X24.435 Y166.788 E49.39371
G1 X24.183 Y165.884 E49.43741
G1 X24.011 Y164.955 E49.4814
G1 X23.913 Y163.776 E49.53649
G1 X23.9 Y163.158 E49.56528
G1 X23.901 Y72.031 E53.80853
G1 X23.911 Y71.348 E53.84034
G1 X23.966 Y70.411 E53.88404
G1 X24.105 Y69.483 E53.92774
G1 X24.325 Y68.571 E53.97142
G1 X24.625 Y67.681 E54.01515
G1 X25.002 Y66.822 E54.05884
G1 X25.453 Y66 E54.10249
G1 X25.976 Y65.22 E54.14622
G1 X26.543 Y64.516 E54.18831
G1 X27.218 Y63.815 E54.23363
G1 X27.927 Y63.2 E54.27733
G1 X28.659 Y62.67 E54.31941
G1 X29.495 Y62.171 E54.36475
G0 F6000 X29.669 Y62.531
G1 F1200 X30.482 Y62.138 E54.4068
G1 X31.327 Y61.818 E54.44887
G1 X32.196 Y61.575 E54.49089
G1 X33.084 Y61.409 E54.53295
G1 X34.223 Y61.313 E54.58618
G1 X34.83 Y61.3 E54.61445
G1 X199.793 Y61.3 E62.29581
G1 X200.637 Y61.311 E62.33512
G1 X201.539 Y61.364 E62.37719
G1 X202.432 Y61.496 E62.41923
G1 X203.31 Y61.707 E62.46127
G1 X204.166 Y61.995 E62.50333
G1 X204.993 Y62.357 E62.54536
G1 X205.785 Y62.792 E62.58744
G1 X206.536 Y63.294 E62.6295
G1 X207.239 Y63.861 E62.67156
G1 X207.889 Y64.488 E62.71361
G1 X208.481 Y65.17 E62.75566
G1 X209.011 Y65.901 E62.79771
G1 X209.473 Y66.677 E62.83976
G1 X209.866 Y67.49 E62.88181
G1 X210.184 Y68.335 E62.92385
G1 X210.427 Y69.205 E62.96591
G1 X210.592 Y70.093 E63.00796
G1 X210.687 Y71.223 E63.06077
G1 X210.7 Y71.83 E63.08904
G1 X210.699 Y162.89 E67.32917
G1 X210.69 Y163.617 E67.36303
G1 X210.639 Y164.519 E67.4051
G1 X210.508 Y165.413 E67.44717
G1 X210.299 Y166.291 E67.4892
G1 X210.013 Y167.148 E67.53126
G1 X209.652 Y167.976 E67.57332
G1 X209.22 Y168.768 E67.61533
G1 X208.719 Y169.52 E67.65741
G1 X208.153 Y170.224 E67.69947
G1 X207.528 Y170.875 E67.74149
G1 X206.847 Y171.469 E67.78357
G1 X206.116 Y172 E67.82564
G1 X205.342 Y172.464 E67.86766
G1 X204.529 Y172.858 E67.90973
G1 X203.685 Y173.178 E67.95176
G1 X202.815 Y173.423 E67.99385
G1 X201.928 Y173.589 E68.03587
G1 X200.777 Y173.687 E68.08966
G1 X200.17 Y173.7 E68.11793
G1 X35.075 Y173.699 E75.80544
G1 X34.377 Y173.69 E75.83795
G1 X33.476 Y173.639 E75.87997
G1 X32.582 Y173.507 E75.92205
G1 X31.704 Y173.298 E75.96407
G1 X30.847 Y173.011 E76.00616
G1 X30.02 Y172.65 E76.04817
G1 X29.227 Y172.217 E76.09025
G1 X28.476 Y171.716 E76.13228
G1 X27.772 Y171.15 E76.17434
G1 X27.121 Y170.524 E76.2164
G1 X26.528 Y169.843 E76.25845
G1 X25.998 Y169.112 E76.30049
G1 X25.534 Y168.337 E76.34255
G1 X25.14 Y167.524 E76.38462
G1 X24.82 Y166.68 E76.42665
G1 X24.576 Y165.81 E76.46872
G1 X24.41 Y164.922 E76.51079
G1 X24.313 Y163.767 E76.56476
G1 X24.3 Y163.158 E76.59312
G1 X24.301 Y72.036 E80.83614
G1 X24.31 Y71.371 E80.86711
G1 X24.362 Y70.469 E80.90918
G1 X24.494 Y69.576 E80.95122
G1 X24.704 Y68.698 E80.99325
G1 X24.991 Y67.841 E81.03534
G1 X25.353 Y67.014 E81.07737
G1 X25.786 Y66.222 E81.1194
G1 X26.288 Y65.471 E81.16147
G1 X26.855 Y64.767 E81.20356
G1 X27.481 Y64.117 E81.24558
G1 X28.162 Y63.524 E81.28763
G1 X28.894 Y62.994 E81.32971
G1 X29.669 Y62.531 E81.37174
G1 F1500 E74.87174
;MESH:gah_food_x1.stl
G0 F6000 X35.3 Y70.835
G0 X117.5 Y162.9
;TYPE:WALL-INNER
G1 F1500 E81.37174
G1 F1200 X199.9 Y162.9 E85.20863
G1 X199.9 Y72.1 E89.43666
G1 X35.1 Y72.1 E97.11044
G1 X35.1 Y162.9 E101.33847
G1 X117.5 Y162.9 E105.17536
G0 F6000 X117.5 Y163.3
;TYPE:WALL-OUTER
G1 F1200 X200.3 Y163.3 E109.03087
G1 X200.3 Y71.7 E113.29615
G1 X34.7 Y71.7 E121.00718
G1 X34.7 Y163.3 E125.27246
G1 X117.5 Y163.3 E129.12798
G0 F6000 X117.5 Y162.54
;TYPE:SKIN
G1 F1200 X35.46 Y162.54 E132.9481
G1 X35.46 Y72.46 E137.14261
G1 X199.54 Y72.46 E144.78286
G1 X199.54 Y162.54 E148.97736
G1 X117.5 Y162.54 E152.79749
G1 F1500 E146.29749
G0 F6000 X117.5 Y162.8
G0 X35.272 Y162.728
G0 X35.2 Y161.808
G0 X35.66 Y161.808
G1 F1500 E152.79749
G1 F1200 X36.192 Y162.34 E152.83252
G0 F6000 X36.758 Y162.34
G1 F1200 X35.66 Y161.242 E152.90482
G0 F6000 X35.66 Y160.677
G1 F1200 X37.323 Y162.34 E153.01434
G0 F6000 X37.889 Y162.34
G1 F1200 X35.66 Y160.111 E153.16112
G0 F6000 X35.66 Y159.545
G1 F1200 X38.455 Y162.34 E153.34517
G0 F6000 X39.02 Y162.34
G1 F1200 X35.66 Y158.98 E153.56644
G0 F6000 X35.66 Y158.414
G1 F1200 X39.586 Y162.34 E153.82497
G0 F6000 X40.152 Y162.34
G1 F1200 X35.66 Y157.848 E154.12078
G0 F6000 X35.66 Y157.282
G1 F1200 X40.717 Y162.34 E154.45382
G0 F6000 X41.283 Y162.34
G1 F1200 X35.66 Y156.717 E154.8241
G0 F6000 X35.66 Y156.151
G1 F1200 X41.849 Y162.34 E155.23166
G0 F6000 X42.414 Y162.34
G1 F1200 X35.66 Y155.585 E155.67646
G0 F6000 X35.66 Y155.02
G1 F1200 X42.98 Y162.34 E156.15849
G0 F6000 X43.546 Y162.34
G1 F1200 X35.66 Y154.454 E156.6778
G0 F6000 X35.66 Y153.888
G1 F1200 X44.111 Y162.34 E157.23434
G0 F6000 X44.677 Y162.34
G1 F1200 X35.66 Y153.323 E157.82813
G0 F6000 X35.66 Y152.757
G1 F1200 X45.243 Y162.34 E158.45918
G0 F6000 X45.808 Y162.34
G1 F1200 X35.66 Y152.191 E159.12748
G0 F6000 X35.66 Y151.626
G1 F1200 X46.374 Y162.34 E159.83302
G0 F6000 X46.94 Y162.34
G1 F1200 X35.66 Y151.06 E160.57582
G0 F6000 X35.66 Y150.494
G1 F1200 X47.506 Y162.34 E161.3559
G0 F6000 X48.071 Y162.34
G1 F1200 X35.66 Y149.929 E162.17319
G0 F6000 X35.66 Y149.363
G1 F1200 X48.637 Y162.34 E163.02775
G0 F6000 X49.203 Y162.34
G1 F1200 X35.66 Y148.797 E163.91958
G0 F6000 X35.66 Y148.232
G1 F1200 X49.768 Y162.34 E164.84861
G0 F6000 X50.334 Y162.34
G1 F1200 X35.66 Y147.666 E165.81492
G0 F6000 X35.66 Y147.1
G1 F1200 X50.9 Y162.34 E166.8185
G0 F6000 X51.465 Y162.34
G1 F1200 X35.66 Y146.534 E167.85932
G0 F6000 X35.66 Y145.969
G1 F1200 X52.031 Y162.34 E168.93738
G0 F6000 X52.597 Y162.34
G1 F1200 X35.66 Y145.403 E170.05271
G0 F6000 X35.66 Y144.837
G1 F1200 X53.162 Y162.34 E171.20528
G0 F6000 X53.728 Y162.34
G1 F1200 X35.66 Y144.272 E172.39509
G0 F6000 X35.66 Y143.706
G1 F1200 X54.294 Y162.34 E173.62217
G0 F6000 X54.859 Y162.34
G1 F1200 X35.66 Y143.14 E174.88649
G0 F6000 X35.66 Y142.575
G1 F1200 X55.425 Y162.34 E176.18805
G0 F6000 X55.991 Y162.34
G1 F1200 X35.66 Y142.009 E177.52688
G0 F6000 X35.66 Y141.443
G1 F1200 X56.557 Y162.34 E178.90298
G0 F6000 X57.122 Y162.34
G1 F1200 X35.66 Y140.878 E180.31629
G0 F6000 X35.66 Y140.312
G1 F1200 X57.688 Y162.34 E181.76687
G0 F6000 X58.254 Y162.34
G1 F1200 X35.66 Y139.746 E183.25472
G0 F6000 X35.66 Y139.181
G1 F1200 X58.819 Y162.34 E184.77978
G0 F6000 X59.385 Y162.34
G1 F1200 X35.66 Y138.615 E186.34212
G0 F6000 X35.66 Y138.049
G1 F1200 X59.951 Y162.34 E187.94172
G0 F6000 X60.516 Y162.34
G1 F1200 X35.66 Y137.483 E189.57856
G0 F6000 X35.66 Y136.918
G1 F1200 X61.082 Y162.34 E191.25264
G0 F6000 X61.648 Y162.34
G1 F1200 X35.66 Y136.352 E192.964
G0 F6000 X35.66 Y135.786
G1 F1200 X62.213 Y162.34 E194.71259
G0 F6000 X62.779 Y162.34
G1 F1200 X35.66 Y135.221 E196.49842
G0 F6000 X35.66 Y134.655
G1 F1200 X63.345 Y162.34 E198.32153
G0 F6000 X63.91 Y162.34
G1 F1200 X35.66 Y134.089 E200.18187
G0 F6000 X35.66 Y133.524
G1 F1200 X64.476 Y162.34 E202.07945
G0 F6000 X65.042 Y162.34
G1 F1200 X35.66 Y132.958 E204.01431
G0 F6000 X35.66 Y132.392
G1 F1200 X65.607 Y162.34 E205.9864
G0 F6000 X66.173 Y162.34
G1 F1200 X35.66 Y131.827 E207.99574
G0 F6000 X35.66 Y131.261
G1 F1200 X66.739 Y162.34 E210.04234
G0 F6000 X67.305 Y162.34
G1 F1200 X35.66 Y130.695 E212.12622
G0 F6000 X35.66 Y130.13
G1 F1200 X67.87 Y162.34 E214.2473
G0 F6000 X68.436 Y162.34
G1 F1200 X35.66 Y129.564 E216.40566
G0 F6000 X35.66 Y128.998
G1 F1200 X69.002 Y162.34 E218.60129
G0 F6000 X69.567 Y162.34
G1 F1200 X35.66 Y128.433 E220.83412
G0 F6000 X35.66 Y127.867
G1 F1200 X70.133 Y162.34 E223.10423
G0 F6000 X70.699 Y162.34
G1 F1200 X35.66 Y127.301 E225.4116
G0 F6000 X35.66 Y126.735
G1 F1200 X71.264 Y162.34 E227.75622
G0 F6000 X71.83 Y162.34
G1 F1200 X35.66 Y126.17 E230.13808
G0 F6000 X35.66 Y125.604
G1 F1200 X72.396 Y162.34 E232.55721
G0 F6000 X72.961 Y162.34
G1 F1200 X35.66 Y125.038 E235.01357
G0 F6000 X35.66 Y124.473
G1 F1200 X73.527 Y162.34 E237.50718
G0 F6000 X74.093 Y162.34
G1 F1200 X35.66 Y123.907 E240.03806
G0 F6000 X35.66 Y123.341
G1 F1200 X74.658 Y162.34 E242.60618
G0 F6000 X75.224 Y162.34
G1 F1200 X35.66 Y122.776 E245.21153
G0 F6000 X35.66 Y122.21
G1 F1200 X75.79 Y162.34 E247.85416
G0 F6000 X76.356 Y162.34
G1 F1200 X35.66 Y121.644 E250.53406
G0 F6000 X35.66 Y121.079
G1 F1200 X76.921 Y162.34 E253.25117
G0 F6000 X77.487 Y162.34
G1 F1200 X35.66 Y120.513 E256.00555
G0 F6000 X35.66 Y119.947
G1 F1200 X78.053 Y162.34 E258.7972
G0 F6000 X78.618 Y162.34
G1 F1200 X35.66 Y119.382 E261.62606
G0 F6000 X35.66 Y118.816
G1 F1200 X79.184 Y162.34 E264.49219
G0 F6000 X79.75 Y162.34
G1 F1200 X35.66 Y118.25 E267.39559
G0 F6000 X35.66 Y117.684
G1 F1200 X80.315 Y162.34 E270.33623
G0 F6000 X80.881 Y162.34
G1 F1200 X35.66 Y117.119 E273.31411
G0 F6000 X35.66 Y116.553
G1 F1200 X81.447 Y162.34 E276.32926
G0 F6000 X82.012 Y162.34
G1 F1200 X35.66 Y115.987 E279.38166
G0 F6000 X35.66 Y115.422
G1 F1200 X82.578 Y162.34 E282.47129
G0 F6000 X83.144 Y162.34
G1 F1200 X35.66 Y114.856 E285.59819
G0 F6000 X35.66 Y114.29
G1 F1200 X83.709 Y162.34 E288.76233
G0 F6000 X84.275 Y162.34
G1 F1200 X35.66 Y113.725 E291.96371
G0 F6000 X35.66 Y113.159
G1 F1200 X84.841 Y162.34 E295.20236
G0 F6000 X85.406 Y162.34
G1 F1200 X35.66 Y112.593 E298.47826
G0 F6000 X35.66 Y112.028
G1 F1200 X85.972 Y162.34 E301.79139
G0 F6000 X86.538 Y162.34
G1 F1200 X35.66 Y111.462 E305.14179
G0 F6000 X35.66 Y110.896
G1 F1200 X87.104 Y162.34 E308.52946
G0 F6000 X87.669 Y162.34
G1 F1200 X35.66 Y110.331 E311.95435
G0 F6000 X35.66 Y109.765
G1 F1200 X88.235 Y162.34 E315.4165
G0 F6000 X88.801 Y162.34
G1 F1200 X35.66 Y109.199 E318.91593
G0 F6000 X35.66 Y108.634
G1 F1200 X89.366 Y162.34 E322.45256
G0 F6000 X89.932 Y162.34
G1 F1200 X35.66 Y108.068 E326.02646
G0 F6000 X35.66 Y107.502
G1 F1200 X90.498 Y162.34 E329.63764
G0 F6000 X91.063 Y162.34
G1 F1200 X35.66 Y106.936 E333.28605
G0 F6000 X35.66 Y106.371
G1 F1200 X91.629 Y162.34 E336.97171
G0 F6000 X92.195 Y162.34
G1 F1200 X35.66 Y105.805 E340.69463
G0 F6000 X35.66 Y105.239
G1 F1200 X92.76 Y162.34 E344.4548
G0 F6000 X93.326 Y162.34
G1 F1200 X35.66 Y104.674 E348.2522
G0 F6000 X35.66 Y104.108
G1 F1200 X93.892 Y162.34 E352.08688
G0 F6000 X94.457 Y162.34
G1 F1200 X35.66 Y103.542 E355.9588
G0 F6000 X35.66 Y102.977
G1 F1200 X95.023 Y162.34 E359.86795
G0 F6000 X95.589 Y162.34
G1 F1200 X35.66 Y102.411 E363.81438
G0 F6000 X35.66 Y101.845
G1 F1200 X96.155 Y162.34 E367.79808
G0 F6000 X96.72 Y162.34
G1 F1200 X35.66 Y101.28 E371.81898
G0 F6000 X35.66 Y100.714
G1 F1200 X97.286 Y162.34 E375.87716
G0 F6000 X97.852 Y162.34
G1 F1200 X35.66 Y100.148 E379.97261
G0 F6000 X35.66 Y99.583
G1 F1200 X98.417 Y162.34 E384.10526
G0 F6000 X98.983 Y162.34
G1 F1200 X35.66 Y99.017 E388.27519
G0 F6000 X35.66 Y98.451
G1 F1200 X99.549 Y162.34 E392.48239
G0 F6000 X100.114 Y162.34
G1 F1200 X35.66 Y97.885 E396.72683
G0 F6000 X35.66 Y97.32
G1 F1200 X100.68 Y162.34 E401.00851
G0 F6000 X101.246 Y162.34
G1 F1200 X35.66 Y96.754 E405.32746
G0 F6000 X35.66 Y96.188
G1 F1200 X101.811 Y162.34 E409.68365
G0 F6000 X102.377 Y162.34
