;FLAVOR:Marlin
;TIME:4879
;Filament used: 4.82499m
;Layer height: 0.28
;MINX:60.5
;MINY:82
;MINZ:0.28
;MAXX:174.5
;MAXY:153
;MAXZ:17.92
;TARGET_MACHINE.NAME:Creality CR-6 SE
;Generated with Cura_SteamEngine 5.8.1
M140 S60
M105
M190 S60
M104 S200
M105
M109 S200
M82 ;absolute extrusion mode
M201 X500.00 Y500.00 Z100.00 E5000.00 ;Setup machine max acceleration
M203 X500.00 Y500.00 Z10.00 E50.00 ;Setup machine max feedrate
M204 P500.00 R1000.00 T500.00 ;Setup Print/Retract/Travel acceleration
M205 X8.00 Y8.00 Z0.40 E5.00 ;Setup Jerk
M220 S100 ;Reset Feedrate
M221 S100 ;Reset Flowrate

G28 ;Home

G92 E0 ;Reset Extruder
G1 Z2.0 F3000 ;Move Z Axis up
G1 X10.1 Y20 Z0.28 F5000.0 ;Move to start position
G1 X10.1 Y200.0 Z0.28 F1500.0 E15 ;Draw the first line
G1 X10.4 Y200.0 Z0.28 F5000.0 ;Move to side a little
G1 X10.4 Y20 Z0.28 F1500.0 E30 ;Draw the second line
G92 E0 ;Reset Extruder
G1 Z2.0 F3000 ;Move Z Axis up

G92 E0
G92 E0
G1 F1500 E-6.5
;LAYER_COUNT:64
;LAYER:0
M107
G0 F6000 X64.692 Y84.376 Z0.28
;TYPE:SKIRT
G1 F1500 E0
G1 F1200 X65.424 Y83.846 E0.04208
G1 X66.321 Y83.311 E0.09071
G1 X67.199 Y82.89 E0.13605
G1 X68.112 Y82.548 E0.18145
G1 X69.049 Y82.289 E0.22672
G1 X70.016 Y82.111 E0.2725
G1 X71.155 Y82.015 E0.32573
G1 X71.812 Y82 E0.35633
G1 X162.804 Y82 E4.5933
G1 X163.684 Y82.013 E4.63428
G1 X164.656 Y82.072 E4.67962
G1 X165.619 Y82.218 E4.72498
G1 X166.566 Y82.449 E4.77037
G1 X167.454 Y82.749 E4.81401
G1 X168.346 Y83.139 E4.85934
G1 X169.229 Y83.626 E4.9063
G1 X169.98 Y84.128 E4.94836
G1 X170.795 Y84.786 E4.99713
G1 X171.493 Y85.464 E5.04244
G1 X172.129 Y86.201 E5.08777
G1 X172.699 Y86.991 E5.13314
G1 X173.161 Y87.767 E5.17519
G1 X173.615 Y88.709 E5.22388
G1 X173.944 Y89.587 E5.26754
G1 X174.213 Y90.559 E5.3145
G1 X174.39 Y91.525 E5.36023
G1 X174.485 Y92.655 E5.41303
G1 X174.5 Y93.33 E5.44447
G1 X174.499 Y141.4 E7.68281
G1 X174.488 Y142.163 E7.71835
G1 X174.431 Y143.136 E7.76373
G1 X174.286 Y144.099 E7.80908
G1 X174.057 Y145.045 E7.8544
G1 X173.746 Y145.969 E7.8998
G1 X173.354 Y146.86 E7.94512
G1 X172.886 Y147.712 E7.99039
G1 X172.364 Y148.493 E8.03413
G1 X171.731 Y149.278 E8.08108
G1 X171.106 Y149.929 E8.12311
G1 X170.317 Y150.617 E8.17185
G1 X169.557 Y151.167 E8.21554
G1 X168.69 Y151.684 E8.26254
G1 X167.812 Y152.106 E8.3079
G1 X166.901 Y152.448 E8.35321
G1 X165.962 Y152.709 E8.39859
G1 X164.996 Y152.887 E8.44433
G1 X163.845 Y152.985 E8.49812
G1 X163.17 Y153 E8.52956
G1 X72.064 Y152.999 E12.77183
G1 X71.331 Y152.988 E12.80597
G1 X70.359 Y152.931 E12.85131
G1 X69.396 Y152.785 E12.89666
G1 X68.45 Y152.556 E12.94198
G1 X67.526 Y152.244 E12.9874
G1 X66.636 Y151.852 E13.03268
G1 X65.813 Y151.401 E13.07638
G1 X64.974 Y150.84 E13.12338
G1 X64.27 Y150.274 E13.16544
G1 X63.517 Y149.549 E13.21411
G1 X62.88 Y148.813 E13.25943
G1 X62.35 Y148.082 E13.30148
G1 X61.814 Y147.185 E13.35014
G1 X61.392 Y146.307 E13.3955
G1 X61.05 Y145.395 E13.44085
G1 X60.79 Y144.457 E13.48617
G1 X60.612 Y143.488 E13.53205
G1 X60.514 Y142.309 E13.58714
G1 X60.5 Y141.658 E13.61746
G1 X60.501 Y93.525 E15.85873
G1 X60.512 Y92.825 E15.89133
G1 X60.57 Y91.852 E15.93672
G1 X60.716 Y90.889 E15.98207
G1 X60.946 Y89.943 E16.02741
G1 X61.259 Y89.02 E16.07279
G1 X61.651 Y88.13 E16.11807
G1 X62.121 Y87.277 E16.16342
G1 X62.664 Y86.469 E16.20875
G1 X63.231 Y85.765 E16.25084
G1 X63.956 Y85.013 E16.29948
G1 X64.692 Y84.376 E16.34481
G0 F6000 X64.927 Y84.7
G1 F1200 X65.659 Y84.17 E16.38689
G1 X66.495 Y83.671 E16.43222
G1 X67.34 Y83.264 E16.4759
G1 X68.219 Y82.933 E16.51963
G1 X69.122 Y82.682 E16.56327
G1 X70.05 Y82.51 E16.60722
G1 X71.189 Y82.414 E16.66045
G1 X71.821 Y82.4 E16.68988
G1 X162.798 Y82.4 E20.92615
G1 X163.66 Y82.412 E20.96629
G1 X164.597 Y82.468 E21.01
G1 X165.525 Y82.607 E21.0537
G1 X166.438 Y82.828 E21.09744
G1 X167.294 Y83.116 E21.13949
G1 X168.186 Y83.506 E21.18482
G1 X169.007 Y83.959 E21.22849
G1 X169.758 Y84.461 E21.27055
G1 X170.517 Y85.073 E21.31595
G1 X171.191 Y85.726 E21.35965
G1 X171.805 Y86.435 E21.40332
G1 X172.355 Y87.196 E21.44704
G1 X172.817 Y87.972 E21.48909
G1 X173.24 Y88.849 E21.53443
G1 X173.569 Y89.727 E21.57809
G1 X173.82 Y90.632 E21.62182
G1 X173.991 Y91.559 E21.66572
G1 X174.086 Y92.689 E21.71852
G1 X174.1 Y93.33 E21.74838
G1 X174.099 Y141.395 E23.98648
G1 X174.089 Y142.14 E24.02118
G1 X174.035 Y143.077 E24.06488
G1 X173.897 Y144.006 E24.10861
G1 X173.678 Y144.918 E24.15229
G1 X173.38 Y145.808 E24.19599
G1 X173.003 Y146.668 E24.23971
G1 X172.553 Y147.49 E24.28335
G1 X172.031 Y148.271 E24.32709
G1 X171.442 Y149.001 E24.37077
G1 X170.817 Y149.652 E24.41279
G1 X170.082 Y150.293 E24.4582
G1 X169.322 Y150.843 E24.50189
G1 X168.516 Y151.324 E24.54559
G1 X167.671 Y151.732 E24.58928
G1 X166.793 Y152.063 E24.63298
G1 X165.889 Y152.316 E24.67669
G1 X164.962 Y152.488 E24.72059
G1 X163.811 Y152.586 E24.77438
G1 X163.17 Y152.6 E24.80423
G1 X72.07 Y152.599 E29.04623
G1 X71.354 Y152.589 E29.07957
G1 X70.418 Y152.535 E29.12323
G1 X69.489 Y152.396 E29.16697
G1 X68.577 Y152.177 E29.21064
G1 X67.687 Y151.878 E29.25436
G1 X66.828 Y151.501 E29.29804
G1 X66.005 Y151.05 E29.34174
G1 X65.225 Y150.528 E29.38545
G1 X64.521 Y149.962 E29.42751
G1 X63.819 Y149.287 E29.47286
G1 X63.204 Y148.578 E29.51656
G1 X62.674 Y147.847 E29.5586
G1 X62.174 Y147.011 E29.60396
G1 X61.766 Y146.166 E29.64766
G1 X61.435 Y145.288 E29.69135
G1 X61.183 Y144.384 E29.73505
G1 X61.011 Y143.455 E29.77904
G1 X60.913 Y142.276 E29.83413
G1 X60.9 Y141.658 E29.86291
G1 X60.901 Y93.531 E32.10391
G1 X60.911 Y92.848 E32.13571
G1 X60.966 Y91.911 E32.17942
G1 X61.105 Y90.983 E32.22311
G1 X61.325 Y90.071 E32.2668
G1 X61.625 Y89.181 E32.31053
G1 X62.002 Y88.322 E32.35421
G1 X62.453 Y87.5 E32.39787
G1 X62.976 Y86.72 E32.4416
G1 X63.543 Y86.016 E32.48369
G1 X64.218 Y85.315 E32.529
G1 X64.927 Y84.7 E32.57271
G0 F6000 X65.162 Y85.024
G1 F1200 X65.894 Y84.494 E32.61479
G1 X66.669 Y84.031 E32.65683
G1 X67.482 Y83.638 E32.69887
G1 X68.327 Y83.318 E32.74095
G1 X69.196 Y83.075 E32.78296
G1 X70.084 Y82.909 E32.82503
G1 X71.223 Y82.813 E32.87825
G1 X71.83 Y82.8 E32.90652
G1 X162.793 Y82.8 E37.14214
G1 X163.637 Y82.811 E37.18145
G1 X164.539 Y82.864 E37.22352
G1 X165.432 Y82.996 E37.26555
G1 X166.31 Y83.207 E37.3076
G1 X167.166 Y83.495 E37.34965
G1 X167.993 Y83.857 E37.39169
G1 X168.785 Y84.292 E37.43377
G1 X169.536 Y84.794 E37.47583
G1 X170.239 Y85.361 E37.51788
G1 X170.889 Y85.988 E37.55994
G1 X171.481 Y86.67 E37.60199
G1 X172.011 Y87.401 E37.64403
G1 X172.473 Y88.177 E37.68609
G1 X172.866 Y88.99 E37.72813
G1 X173.184 Y89.835 E37.77017
G1 X173.427 Y90.705 E37.81224
G1 X173.592 Y91.593 E37.85429
G1 X173.687 Y92.723 E37.9071
G1 X173.7 Y93.33 E37.93537
G1 X173.699 Y141.39 E40.17324
G1 X173.69 Y142.117 E40.2071
G1 X173.639 Y143.019 E40.24916
G1 X173.508 Y143.913 E40.29124
G1 X173.299 Y144.791 E40.33326
G1 X173.013 Y145.648 E40.37533
G1 X172.652 Y146.476 E40.41739
G1 X172.22 Y147.268 E40.4594
G1 X171.719 Y148.02 E40.50148
G1 X171.153 Y148.724 E40.54354
G1 X170.528 Y149.375 E40.58556
G1 X169.847 Y149.969 E40.62764
G1 X169.116 Y150.5 E40.66971
G1 X168.342 Y150.964 E40.71173
G1 X167.529 Y151.358 E40.7538
G1 X166.685 Y151.678 E40.79583
G1 X165.815 Y151.923 E40.83791
G1 X164.928 Y152.089 E40.87993
G1 X163.777 Y152.187 E40.93372
G1 X163.17 Y152.2 E40.96199
G1 X72.075 Y152.199 E45.20376
G1 X71.377 Y152.19 E45.23626
G1 X70.476 Y152.139 E45.27828
G1 X69.582 Y152.007 E45.32036
G1 X68.704 Y151.798 E45.36239
G1 X67.847 Y151.511 E45.40447
G1 X67.02 Y151.15 E45.44649
G1 X66.227 Y150.717 E45.48856
G1 X65.476 Y150.216 E45.5306
G1 X64.772 Y149.65 E45.57266
G1 X64.121 Y149.024 E45.61472
G1 X63.528 Y148.343 E45.65676
G1 X62.998 Y147.612 E45.69881
G1 X62.534 Y146.837 E45.74087
G1 X62.14 Y146.024 E45.78294
G1 X61.82 Y145.18 E45.82497
G1 X61.576 Y144.31 E45.86704
G1 X61.41 Y143.422 E45.90911
G1 X61.313 Y142.267 E45.96308
G1 X61.3 Y141.658 E45.99144
G1 X61.301 Y93.536 E48.2322
G1 X61.31 Y92.871 E48.26317
G1 X61.362 Y91.969 E48.30524
G1 X61.494 Y91.076 E48.34727
G1 X61.704 Y90.198 E48.38931
G1 X61.991 Y89.341 E48.43139
G1 X62.353 Y88.514 E48.47343
G1 X62.786 Y87.722 E48.51546
G1 X63.288 Y86.971 E48.55752
G1 X63.855 Y86.267 E48.59962
G1 X64.481 Y85.617 E48.64164
G1 X65.162 Y85.024 E48.68368
G1 F1500 E42.18368
;MESH:gah_player_x4.stl
G0 F6000 X71.92 Y92.335
G0 X117.5 Y141.4
;TYPE:WALL-INNER
G1 F1500 E48.68368
G1 F1200 X162.9 Y141.4 E50.7977
G1 X162.9 Y93.6 E53.02347
G1 X72.1 Y93.6 E57.25149
G1 X72.1 Y141.4 E59.47726
G1 X117.5 Y141.4 E61.59128
G0 F6000 X117.5 Y141.8
;TYPE:WALL-OUTER
G1 F1200 X163.3 Y141.8 E63.72392
G1 X163.3 Y93.2 E65.98694
G1 X71.7 Y93.2 E70.25222
G1 X71.7 Y141.8 E72.51524
G1 X117.5 Y141.8 E74.64788
G0 F6000 X117.5 Y141.04
;TYPE:SKIN
G1 F1200 X72.46 Y141.04 E76.74513
G1 X72.46 Y93.96 E78.93737
G1 X162.54 Y93.96 E83.13187
G1 X162.54 Y141.04 E85.32411
G1 X117.5 Y141.04 E87.42136
G1 F1500 E80.92136
G0 F6000 X117.5 Y141.3
G0 X72.272 Y141.228
G0 X72.2 Y140.542
G0 X72.659 Y140.542
G1 F1500 E87.42136
G1 F1200 X72.958 Y140.84 E87.44102
G0 F6000 X73.524 Y140.84
G1 F1200 X72.659 Y139.976 E87.49795
G0 F6000 X72.659 Y139.41
G1 F1200 X74.089 Y140.84 E87.59212
G0 F6000 X74.655 Y140.84
G1 F1200 X72.659 Y138.845 E87.72352
G0 F6000 X72.659 Y138.279
G1 F1200 X75.221 Y140.84 E87.8922
G0 F6000 X75.786 Y140.84
G1 F1200 X72.659 Y137.713 E88.09812
G0 F6000 X72.659 Y137.148
G1 F1200 X76.352 Y140.84 E88.34128
G0 F6000 X76.918 Y140.84
G1 F1200 X72.659 Y136.582 E88.62171
G0 F6000 X72.659 Y136.016
G1 F1200 X77.483 Y140.84 E88.93938
G0 F6000 X78.049 Y140.84
G1 F1200 X72.659 Y135.451 E89.29429
G0 F6000 X72.659 Y134.885
G1 F1200 X78.615 Y140.84 E89.68647
G0 F6000 X79.18 Y140.84
G1 F1200 X72.659 Y134.319 E90.11588
G0 F6000 X72.659 Y133.753
G1 F1200 X79.746 Y140.84 E90.58258
G0 F6000 X80.312 Y140.84
G1 F1200 X72.659 Y133.188 E91.08651
G0 F6000 X72.659 Y132.622
G1 F1200 X80.877 Y140.84 E91.62767
G0 F6000 X81.443 Y140.84
G1 F1200 X72.659 Y132.056 E92.20612
G0 F6000 X72.659 Y131.491
G1 F1200 X82.009 Y140.84 E92.8218
G0 F6000 X82.575 Y140.84
G1 F1200 X72.659 Y130.925 E93.47475
G0 F6000 X72.659 Y130.359
G1 F1200 X83.14 Y140.84 E94.16494
G0 F6000 X83.706 Y140.84
G1 F1200 X72.659 Y129.794 E94.89237
G0 F6000 X72.659 Y129.228
G1 F1200 X84.272 Y140.84 E95.65708
G0 F6000 X84.837 Y140.84
G1 F1200 X72.659 Y128.662 E96.45902
G0 F6000 X72.659 Y128.097
G1 F1200 X85.403 Y140.84 E97.2982
G0 F6000 X85.969 Y140.84
G1 F1200 X72.659 Y127.531 E98.17465
G0 F6000 X72.659 Y126.965
G1 F1200 X86.534 Y140.84 E99.08834
G0 F6000 X87.1 Y140.84
G1 F1200 X72.659 Y126.4 E100.03928
G0 F6000 X72.659 Y125.834
G1 F1200 X87.666 Y140.84 E101.02748
G0 F6000 X88.231 Y140.84
G1 F1200 X72.659 Y125.268 E102.05292
G0 F6000 X72.659 Y124.703
G1 F1200 X88.797 Y140.84 E103.1156
G0 F6000 X89.363 Y140.84
G1 F1200 X72.659 Y124.137 E104.21556
G0 F6000 X72.659 Y123.571
G1 F1200 X89.928 Y140.84 E105.35275
G0 F6000 X90.494 Y140.84
G1 F1200 X72.659 Y123.005 E106.52722
G0 F6000 X72.659 Y122.44
G1 F1200 X91.06 Y140.84 E107.73892
G0 F6000 X91.625 Y140.84
G1 F1200 X72.659 Y121.874 E108.98786
G0 F6000 X72.659 Y121.308
G1 F1200 X92.191 Y140.84 E110.27408
G0 F6000 X92.757 Y140.84
G1 F1200 X72.659 Y120.743 E111.59753
G0 F6000 X72.659 Y120.177
G1 F1200 X93.323 Y140.84 E112.95826
G0 F6000 X93.888 Y140.84
G1 F1200 X72.659 Y119.611 E114.35623
G0 F6000 X72.659 Y119.046
G1 F1200 X94.454 Y140.84 E115.79143
G0 F6000 X95.02 Y140.84
G1 F1200 X72.659 Y118.48 E117.26391
G0 F6000 X72.659 Y117.914
G1 F1200 X95.585 Y140.84 E118.77363
G0 F6000 X96.151 Y140.84
G1 F1200 X72.659 Y117.349 E120.32058
G0 F6000 X72.659 Y116.783
G1 F1200 X96.717 Y140.84 E121.90481
G0 F6000 X97.282 Y140.84
G1 F1200 X72.659 Y116.217 E123.52628
G0 F6000 X72.659 Y115.652
G1 F1200 X97.848 Y140.84 E125.18498
G0 F6000 X98.414 Y140.84
G1 F1200 X72.659 Y115.086 E126.88096
G0 F6000 X72.659 Y114.52
G1 F1200 X98.979 Y140.84 E128.61418
G0 F6000 X99.545 Y140.84
G1 F1200 X72.659 Y113.955 E130.38463
G0 F6000 X72.659 Y113.389
G1 F1200 X100.111 Y140.84 E132.19236
G0 F6000 X100.676 Y140.84
G1 F1200 X72.659 Y112.823 E134.03733
G0 F6000 X72.659 Y112.257
G1 F1200 X101.242 Y140.84 E135.91957
G0 F6000 X101.808 Y140.84
G1 F1200 X72.659 Y111.692 E137.83904
G0 F6000 X72.659 Y111.126
G1 F1200 X102.374 Y140.84 E139.7958
G0 F6000 X102.939 Y140.84
G1 F1200 X72.659 Y110.56 E141.78979
G0 F6000 X72.659 Y109.995
G1 F1200 X103.505 Y140.84 E143.82101
G0 F6000 X104.071 Y140.84
G1 F1200 X72.659 Y109.429 E145.88952
G0 F6000 X72.659 Y108.863
G1 F1200 X104.636 Y140.84 E147.99526
G0 F6000 X105.202 Y140.84
G1 F1200 X72.659 Y108.298 E150.13823
G0 F6000 X72.659 Y107.732
G1 F1200 X105.768 Y140.84 E152.31849
G0 F6000 X106.333 Y140.84
G1 F1200 X72.659 Y107.166 E154.53598
G0 F6000 X72.659 Y106.601
G1 F1200 X106.899 Y140.84 E156.79071
G0 F6000 X107.465 Y140.84
G1 F1200 X72.659 Y106.035 E159.08271
G0 F6000 X72.659 Y105.469
G1 F1200 X108.03 Y140.84 E161.41195
G0 F6000 X108.596 Y140.84
G1 F1200 X72.659 Y104.904 E163.77843
G0 F6000 X72.659 Y104.338
G1 F1200 X109.162 Y140.84 E166.18218
G0 F6000 X109.727 Y140.84
G1 F1200 X72.659 Y103.772 E168.62317
G0 F6000 X72.659 Y103.206
G1 F1200 X110.293 Y140.84 E171.10143
G0 F6000 X110.859 Y140.84
G1 F1200 X72.659 Y102.641 E173.61694
G0 F6000 X72.659 Y102.075
G1 F1200 X111.424 Y140.84 E176.16968
G0 F6000 X111.99 Y140.84
G1 F1200 X72.659 Y101.509 E178.75969
G0 F6000 X72.659 Y100.944
G1 F1200 X112.556 Y140.84 E181.38694
G0 F6000 X113.122 Y140.84
G1 F1200 X72.659 Y100.378 E184.05147
G0 F6000 X72.659 Y99.812
G1 F1200 X113.687 Y140.84 E186.75323
G0 F6000 X114.253 Y140.84
G1 F1200 X72.659 Y99.247 E189.49224
G0 F6000 X72.659 Y98.681
G1 F1200 X114.819 Y140.84 E192.26851
G0 F6000 X115.384 Y140.84
G1 F1200 X72.659 Y98.115 E195.08202
G0 F6000 X72.659 Y97.55
G1 F1200 X115.95 Y140.84 E197.93278
G0 F6000 X116.516 Y140.84
G1 F1200 X72.659 Y96.984 E200.8208
G0 F6000 X72.659 Y96.418
G1 F1200 X117.081 Y140.84 E203.74607
G0 F6000 X117.647 Y140.84
G1 F1200 X72.659 Y95.853 E206.70857
G0 F6000 X72.659 Y95.287
G1 F1200 X118.213 Y140.84 E209.70835
G0 F6000 X118.778 Y140.84
G1 F1200 X72.659 Y94.721 E212.74536
G0 F6000 X72.664 Y94.16
G1 F1200 X119.344 Y140.84 E215.81932
G0 F6000 X119.91 Y140.84
G1 F1200 X73.23 Y94.16 E218.89328
G0 F6000 X73.796 Y94.16
G1 F1200 X120.475 Y140.84 E221.9672
G0 F6000 X121.041 Y140.84
G1 F1200 X74.361 Y94.16 E225.04116
G0 F6000 X74.927 Y94.16
G1 F1200 X121.607 Y140.84 E228.11512
G0 F6000 X122.172 Y140.84
G1 F1200 X75.493 Y94.16 E231.18904
G0 F6000 X76.059 Y94.16
G1 F1200 X122.738 Y140.84 E234.26297
G0 F6000 X123.304 Y140.84
G1 F1200 X76.624 Y94.16 E237.33693
G0 F6000 X77.19 Y94.16
G1 F1200 X123.87 Y140.84 E240.41088
G0 F6000 X124.435 Y140.84
G1 F1200 X77.756 Y94.16 E243.48481
G0 F6000 X78.321 Y94.16
G1 F1200 X125.001 Y140.84 E246.55877
G0 F6000 X125.567 Y140.84
G1 F1200 X78.887 Y94.16 E249.63272
G0 F6000 X79.453 Y94.16
G1 F1200 X126.132 Y140.84 E252.70665
G0 F6000 X126.698 Y140.84
G1 F1200 X80.018 Y94.16 E255.78061
G0 F6000 X80.584 Y94.16
G1 F1200 X127.264 Y140.84 E258.85456
G0 F6000 X127.829 Y140.84
G1 F1200 X81.15 Y94.16 E261.92849
G0 F6000 X81.715 Y94.16
G1 F1200 X128.395 Y140.84 E265.00245
G0 F6000 X128.961 Y140.84
G1 F1200 X82.281 Y94.16 E268.0764
G0 F6000 X82.847 Y94.16
G1 F1200 X129.526 Y140.84 E271.15033
G0 F6000 X130.092 Y140.84
G1 F1200 X83.412 Y94.16 E274.22429
G0 F6000 X83.978 Y94.16
G1 F1200 X130.658 Y140.84 E277.29824
G0 F6000 X131.223 Y140.84
G1 F1200 X84.544 Y94.16 E280.37217
G0 F6000 X85.109 Y94.16
G1 F1200 X131.789 Y140.84 E283.44613
G0 F6000 X132.355 Y140.84
G1 F1200 X85.675 Y94.16 E286.52008
G0 F6000 X86.241 Y94.16
G1 F1200 X132.921 Y140.84 E289.59404
G0 F6000 X133.486 Y140.84
G1 F1200 X86.807 Y94.16 E292.66797
G0 F6000 X87.372 Y94.16
G1 F1200 X134.052 Y140.84 E295.74192
G0 F6000 X134.618 Y140.84
G1 F1200 X87.938 Y94.16 E298.81588
G0 F6000 X88.504 Y94.16
G1 F1200 X135.183 Y140.84 E301.88981
G0 F6000 X135.749 Y140.84
G1 F1200 X89.069 Y94.16 E304.96376
G0 F6000 X89.635 Y94.16
G1 F1200 X136.315 Y140.84 E308.03772
G0 F6000 X136.88 Y140.84
G1 F1200 X90.201 Y94.16 E311.11165
G0 F6000 X90.766 Y94.16
G1 F1200 X137.446 Y140.84 E314.1856
G0 F6000 X138.012 Y140.84
G1 F1200 X91.332 Y94.16 E317.25956
G0 F6000 X91.898 Y94.16
