;FLAVOR:Marlin
;TIME:21395
;Filament used: 22.3421m
;Layer height: 0.28
;MINX:0
;MINY:72.5
;MINZ:0.28
;MAXX:235
;MAXY:162.5
;MAXZ:50.12
;TARGET_MACHINE.NAME:Creality CR-6 SE
;Generated with Cura_SteamEngine 5.8.1
M140 S60
M105
M190 S60
M104 S200
M105
M109 S200
M82 ;absolute extrusion mode
M201 X500.00 Y500.00 Z100.00 E5000.00 ;Setup machine max acceleration
M203 X500.00 Y500.00 Z10.00 E50.00 ;Setup machine max feedrate
M204 P500.00 R1000.00 T500.00 ;Setup Print/Retract/Travel acceleration
M205 X8.00 Y8.00 Z0.40 E5.00 ;Setup Jerk
M220 S100 ;Reset Feedrate
M221 S100 ;Reset Flowrate

G28 ;Home

G92 E0 ;Reset Extruder
G1 Z2.0 F3000 ;Move Z Axis up
G1 X10.1 Y20 Z0.28 F5000.0 ;Move to start position
G1 X10.1 Y200.0 Z0.28 F1500.0 E15 ;Draw the first line
G1 X10.4 Y200.0 Z0.28 F5000.0 ;Move to side a little
G1 X10.4 Y20 Z0.28 F1500.0 E30 ;Draw the second line
G92 E0 ;Reset Extruder
G1 Z2.0 F3000 ;Move Z Axis up

G92 E0
G92 E0
G1 F1500 E-6.5
;LAYER_COUNT:179
;LAYER:0
M107
G0 F6000 X0.00 Y76.554 Z0.28
;TYPE:SKIRT
G1 F1500 E0
G1 F1200 X0.255 Y76.239 E0.01887
G1 X0.956 Y75.513 E0.06586
G1 X1.692 Y74.876 E0.11119
G1 X2.424 Y74.346 E0.15327
G1 X3.321 Y73.811 E0.2019
G1 X4.199 Y73.39 E0.24724
G1 X5.112 Y73.048 E0.29264
G1 X6.049 Y72.789 E0.33791
G1 X7.016 Y72.611 E0.38369
G1 X8.155 Y72.515 E0.43692
G1 X8.812 Y72.5 E0.46752
G1 X225.804 Y72.5 E10.57157
G1 X226.684 Y72.513 E10.61255
G1 X227.656 Y72.572 E10.6579
G1 X228.619 Y72.718 E10.70325
G1 X229.566 Y72.949 E10.74864
G1 X230.454 Y73.249 E10.79229
G1 X231.346 Y73.639 E10.83762
G1 X232.229 Y74.126 E10.88457
G1 X232.98 Y74.628 E10.92664
G1 X233.795 Y75.286 E10.97541
G1 X234.493 Y75.964 E11.02072
G1 X235 Y76.551 E11.05684
G0 F6000 X235 Y77.204
G1 F1200 X234.805 Y76.935 E11.07231
G1 X234.191 Y76.226 E11.11598
G1 X233.517 Y75.573 E11.15968
G1 X232.758 Y74.961 E11.20508
G1 X232.007 Y74.459 E11.24714
G1 X231.186 Y74.006 E11.29081
G1 X230.294 Y73.616 E11.33614
G1 X229.438 Y73.328 E11.37819
G1 X228.525 Y73.107 E11.42193
G1 X227.597 Y72.968 E11.46563
G1 X226.66 Y72.912 E11.50933
G1 X225.798 Y72.9 E11.54948
G1 X8.821 Y72.9 E21.65283
G1 X8.189 Y72.914 E21.68227
G1 X7.05 Y73.01 E21.7355
G1 X6.122 Y73.182 E21.77944
G1 X5.219 Y73.433 E21.82308
G1 X4.34 Y73.764 E21.86682
G1 X3.495 Y74.171 E21.91049
G1 X2.659 Y74.67 E21.95583
G1 X1.927 Y75.2 E21.99791
G1 X1.218 Y75.815 E22.04161
G1 X0.543 Y76.516 E22.08693
G1 X0.00 Y77.19 E22.12723
G0 F6000 X0.00 Y77.902
G1 F1200 X0.288 Y77.471 E22.15137
G1 X0.855 Y76.767 E22.19346
G1 X1.481 Y76.117 E22.23548
G1 X2.162 Y75.524 E22.27753
G1 X2.894 Y74.994 E22.31961
G1 X3.669 Y74.531 E22.36164
G1 X4.482 Y74.138 E22.40369
G1 X5.327 Y73.818 E22.44577
G1 X6.196 Y73.575 E22.48778
G1 X7.084 Y73.409 E22.52985
G1 X8.223 Y73.313 E22.58307
G1 X8.83 Y73.3 E22.61134
G1 X225.793 Y73.3 E32.71405
G1 X226.637 Y73.311 E32.75335
G1 X227.539 Y73.364 E32.79543
G1 X228.432 Y73.496 E32.83746
G1 X229.31 Y73.707 E32.87951
G1 X230.166 Y73.995 E32.92156
G1 X230.993 Y74.357 E32.9636
G1 X231.785 Y74.792 E33.00567
G1 X232.536 Y75.294 E33.04774
G1 X233.239 Y75.861 E33.08979
G1 X233.889 Y76.488 E33.13184
G1 X234.481 Y77.17 E33.1739
G1 X235 Y77.886 E33.21507
G1 F1500 E26.71507
G0 F6000 X235 Y158.445
G1 F1500 E33.21507
G1 F1200 X234.731 Y158.778 E33.23501
G1 X234.106 Y159.429 E33.27703
G1 X233.317 Y160.117 E33.32577
G1 X232.557 Y160.667 E33.36946
G1 X231.69 Y161.184 E33.41646
G1 X230.812 Y161.606 E33.46182
G1 X229.901 Y161.948 E33.50713
G1 X228.962 Y162.209 E33.55251
G1 X227.996 Y162.387 E33.59825
G1 X226.845 Y162.485 E33.65204
G1 X226.17 Y162.5 E33.68348
G1 X9.064 Y162.499 E43.79284
G1 X8.331 Y162.488 E43.82698
G1 X7.359 Y162.431 E43.87232
G1 X6.396 Y162.285 E43.91767
G1 X5.45 Y162.056 E43.96299
G1 X4.526 Y161.744 E44.00841
G1 X3.636 Y161.352 E44.05369
G1 X2.813 Y160.901 E44.09739
G1 X1.974 Y160.34 E44.14438
G1 X1.27 Y159.774 E44.18645
G1 X0.517 Y159.049 E44.23512
G1 X0.00 Y158.452 E44.27189
G0 F6000 X0.00 Y157.797
G1 F1200 X0.204 Y158.078 E44.28806
G1 X0.819 Y158.787 E44.33177
G1 X1.521 Y159.462 E44.37711
G1 X2.225 Y160.028 E44.41918
G1 X3.005 Y160.55 E44.46288
G1 X3.828 Y161.001 E44.50658
G1 X4.687 Y161.378 E44.55026
G1 X5.577 Y161.677 E44.59398
G1 X6.489 Y161.896 E44.63765
G1 X7.418 Y162.035 E44.68139
G1 X8.354 Y162.089 E44.72505
G1 X9.07 Y162.099 E44.75839
G1 X226.17 Y162.1 E54.86748
G1 X226.811 Y162.086 E54.89733
G1 X227.962 Y161.988 E54.95112
G1 X228.889 Y161.816 E54.99502
G1 X229.793 Y161.563 E55.03873
G1 X230.671 Y161.232 E55.08243
G1 X231.516 Y160.824 E55.12612
G1 X232.322 Y160.343 E55.16983
G1 X233.082 Y159.793 E55.21351
G1 X233.817 Y159.152 E55.25892
G1 X234.442 Y158.501 E55.30094
G1 X235 Y157.809 E55.34234
G0 F6000 X235 Y157.098
G1 F1200 X234.719 Y157.52 E55.36594
G1 X234.153 Y158.224 E55.40801
G1 X233.528 Y158.875 E55.45003
G1 X232.847 Y159.469 E55.49211
G1 X232.116 Y160 E55.53418
G1 X231.342 Y160.464 E55.5762
G1 X230.529 Y160.858 E55.61827
G1 X229.685 Y161.178 E55.6603
G1 X228.815 Y161.423 E55.70238
G1 X227.928 Y161.589 E55.7444
G1 X226.777 Y161.687 E55.79819
G1 X226.17 Y161.7 E55.82646
G1 X9.075 Y161.699 E65.93531
G1 X8.377 Y161.69 E65.96782
G1 X7.476 Y161.639 E66.00984
G1 X6.582 Y161.507 E66.05192
G1 X5.704 Y161.298 E66.09395
G1 X4.847 Y161.011 E66.13603
G1 X4.02 Y160.65 E66.17805
G1 X3.227 Y160.217 E66.22012
G1 X2.476 Y159.716 E66.26216
G1 X1.772 Y159.15 E66.30422
G1 X1.121 Y158.524 E66.34627
G1 X0.528 Y157.843 E66.38832
G1 X0.00 Y157.115 E66.43019
G1 F1500 E59.93019
;MESH:gah_cards_x2.stl
G0 F6000 X7.835 Y151.08
G0 X117.5 Y150.9
;TYPE:WALL-INNER
G1 F1500 E66.43019
G1 F1200 X225.9 Y150.9 E71.47775
G1 X225.9 Y134.6 E72.23675
G1 X223.743 Y134.589 E72.33719
G1 X223.499 Y134.56 E72.34863
G1 X223.247 Y134.589 E72.36044
G1 X203.781 Y134.596 E73.26686
G1 X203.211 Y134.522 E73.29363
G1 X202.707 Y134.358 E73.31831
G1 X202.161 Y134.105 E73.34633
G1 X201.611 Y133.703 E73.37805
G1 X201.161 Y133.231 E73.40841
G1 X200.823 Y132.693 E73.438
G1 X200.653 Y132.325 E73.45688
G1 X200.477 Y131.785 E73.48332
G1 X200.405 Y131.203 E73.51063
G1 X200.404 Y103.783 E74.78742
G1 X200.484 Y103.188 E74.81537
G1 X200.664 Y102.641 E74.84219
G1 X200.9 Y102.147 E74.86768
G1 X201.28 Y101.626 E74.89771
G1 X201.763 Y101.163 E74.92886
G1 X202.237 Y100.859 E74.95508
G1 X202.711 Y100.636 E74.97948
G1 X203.071 Y100.52 E74.99709
G1 X203.659 Y100.406 E75.02498
G1 X223.197 Y100.403 E75.93475
G1 X223.498 Y100.436 E75.94885
G1 X223.747 Y100.407 E75.96052
G1 X225.9 Y100.4 E76.06077
G1 X225.9 Y84.1 E76.81977
G1 X9.1 Y84.1 E86.91489
G1 X9.1 Y100.4 E87.67388
G1 X11.255 Y100.407 E87.77423
G1 X11.499 Y100.436 E87.78567
G1 X11.749 Y100.407 E87.79739
G1 X31.215 Y100.404 E88.70381
G1 X31.782 Y100.478 E88.73043
G1 X32.324 Y100.649 E88.7569
G1 X32.835 Y100.892 E88.78325
G1 X33.385 Y101.293 E88.81494
G1 X33.835 Y101.765 E88.84531
G1 X34.155 Y102.267 E88.87303
G1 X34.346 Y102.669 E88.89375
G1 X34.516 Y103.187 E88.91914
G1 X34.595 Y103.792 E88.94755
G1 X34.591 Y131.236 E90.22546
G1 X34.516 Y131.809 E90.25236
G1 X34.346 Y132.326 E90.27771
G1 X34.095 Y132.85 E90.30476
G1 X33.716 Y133.37 E90.33472
G1 X33.233 Y133.833 E90.36588
G1 X32.698 Y134.17 E90.39532
G1 X32.326 Y134.346 E90.41448
G1 X31.929 Y134.476 E90.43393
G1 X31.337 Y134.59 E90.46201
G1 X11.865 Y134.6 E91.3687
G1 X11.498 Y134.561 E91.38589
G1 X11.187 Y134.592 E91.40044
G1 X9.1 Y134.6 E91.49762
G1 X9.1 Y150.9 E92.25662
G1 X117.5 Y150.9 E97.30418
G0 F6000 X117.5 Y151.3
;TYPE:WALL-OUTER
G1 F1200 X226.3 Y151.3 E102.37036
G1 X226.3 Y134.201 E103.16656
G1 X223.789 Y134.191 E103.28349
G1 X223.499 Y134.158 E103.29708
G1 X223.205 Y134.191 E103.31085
G1 X203.831 Y134.199 E104.21299
G1 X203.299 Y134.132 E104.23796
G1 X202.811 Y133.97 E104.2619
G1 X202.365 Y133.761 E104.28483
G1 X201.875 Y133.403 E104.31309
G1 X201.469 Y132.976 E104.34053
G1 X201.186 Y132.525 E104.36532
G1 X201.025 Y132.178 E104.38313
G1 X200.866 Y131.69 E104.40703
G1 X200.804 Y131.156 E104.43206
G1 X200.805 Y103.782 E105.70671
G1 X200.87 Y103.292 E105.72973
G1 X201.021 Y102.823 E105.75267
G1 X201.238 Y102.361 E105.77644
G1 X201.589 Y101.88 E105.80416
G1 X202.019 Y101.47 E105.83183
G1 X202.449 Y101.198 E105.85552
G1 X202.834 Y101.017 E105.87533
G1 X203.218 Y100.895 E105.89409
G1 X203.697 Y100.804 E105.9168
G1 X223.131 Y100.8 E106.82172
G1 X223.499 Y100.838 E106.83895
G1 X223.79 Y100.805 E106.85259
G1 X226.3 Y100.801 E106.96946
G1 X226.3 Y83.7 E107.76576
G1 X8.7 Y83.7 E117.89813
G1 X8.7 Y100.8 E118.69437
G1 X11.209 Y100.805 E118.8112
G1 X11.499 Y100.838 E118.82479
G1 X11.791 Y100.805 E118.83848
G1 X31.165 Y100.801 E119.74061
G1 X31.696 Y100.868 E119.76553
G1 X32.178 Y101.021 E119.78908
G1 X32.631 Y101.236 E119.81243
G1 X33.121 Y101.593 E119.84066
G1 X33.527 Y102.02 E119.8681
G1 X33.804 Y102.459 E119.89227
G1 X33.979 Y102.829 E119.91133
G1 X34.13 Y103.291 E119.93396
G1 X34.196 Y103.832 E119.95934
G1 X34.191 Y131.212 E121.23426
G1 X34.13 Y131.705 E121.25739
G1 X33.979 Y132.167 E121.28003
G1 X33.764 Y132.625 E121.30359
G1 X33.407 Y133.116 E121.33185
G1 X32.977 Y133.526 E121.35952
G1 X32.547 Y133.798 E121.38321
G1 X32.166 Y133.979 E121.40285
G1 X31.782 Y134.101 E121.42161
G1 X31.299 Y134.192 E121.4445
G1 X11.824 Y134.198 E122.35134
G1 X11.499 Y134.158 E122.36659
G1 X11.205 Y134.191 E122.38036
G1 X8.7 Y134.199 E122.49701
G1 X8.7 Y151.3 E123.2933
G1 X117.5 Y151.3 E128.35948
G0 F6000 X117.5 Y150.54
;TYPE:SKIN
G1 F1200 X9.46 Y150.54 E133.39028
G1 X9.46 Y134.956 E134.11593
G1 X11.177 Y134.952 E134.19589
G1 X11.495 Y134.922 E134.21076
G1 X11.842 Y134.959 E134.22701
G1 X31.37 Y134.948 E135.13631
G1 X31.92 Y134.849 E135.16234
G1 X32.465 Y134.678 E135.18893
G1 X32.87 Y134.487 E135.20978
G1 X33.422 Y134.143 E135.24007
G1 X33.978 Y133.619 E135.27564
G1 X34.416 Y133.021 E135.31016
G1 X34.687 Y132.446 E135.33976
G1 X34.874 Y131.868 E135.36805
G1 X34.951 Y131.236 E135.39769
G1 X34.956 Y103.808 E136.67486
G1 X34.874 Y103.123 E136.70698
G1 X34.687 Y102.549 E136.73509
G1 X34.473 Y102.101 E136.75821
G1 X34.11 Y101.531 E136.78968
G1 X33.603 Y101.006 E136.82366
G1 X33.019 Y100.58 E136.85732
G1 X32.47 Y100.319 E136.88563
G1 X31.86 Y100.124 E136.91545
G1 X31.262 Y100.045 E136.94353
G1 X11.798 Y100.044 E137.84986
G1 X11.496 Y100.071 E137.86398
G1 X11.194 Y100.044 E137.8781
G1 X9.46 Y100.036 E137.95884
G1 X9.46 Y84.46 E138.68412
G1 X225.54 Y84.46 E148.74571
G1 X225.54 Y100.04 E149.47118
G1 X223.711 Y100.048 E149.55635
G1 X223.495 Y100.071 E149.56646
G1 X223.236 Y100.045 E149.57858
G1 X203.625 Y100.044 E150.49175
G1 X203.049 Y100.152 E150.51904
G1 X202.591 Y100.293 E150.54136
G1 X202.062 Y100.543 E150.5686
G1 X201.577 Y100.849 E150.59531
G1 X201.021 Y101.368 E150.63072
G1 X200.57 Y101.993 E150.66661
G1 X200.309 Y102.551 E150.69529
G1 X200.135 Y103.1 E150.72211
G1 X200.044 Y103.725 E150.75152
G1 X200.044 Y131.225 E152.03204
G1 X200.122 Y131.854 E152.06155
G1 X200.309 Y132.442 E152.09028
G1 X200.52 Y132.897 E152.11363
G1 X200.886 Y133.461 E152.14494
G1 X201.375 Y133.975 E152.17798
G1 X201.993 Y134.421 E152.21346
G1 X202.477 Y134.653 E152.23846
G1 X203.112 Y134.866 E152.26964
G1 X203.777 Y134.959 E152.30091
G1 X223.185 Y134.952 E153.20463
G1 X223.496 Y134.922 E153.21918
G1 X223.787 Y134.951 E153.23279
G1 X225.54 Y134.956 E153.31442
G1 X225.54 Y150.54 E154.04008
G1 X117.5 Y150.54 E159.07087
G1 F1500 E152.57087
G0 F6000 X117.5 Y150.8
G0 X9.272 Y150.728
G0 X9.2 Y149.95
G0 X9.66 Y149.95
G1 F1500 E159.07087
G1 F1200 X10.05 Y150.34 E159.09656
G0 F6000 X10.616 Y150.34
G1 F1200 X9.66 Y149.384 E159.15951
G0 F6000 X9.66 Y148.818
G1 F1200 X11.181 Y150.34 E159.2597
G0 F6000 X11.747 Y150.34
G1 F1200 X9.66 Y148.253 E159.39714
G0 F6000 X9.66 Y147.687
G1 F1200 X12.313 Y150.34 E159.57184
G0 F6000 X12.879 Y150.34
G1 F1200 X9.66 Y147.121 E159.78382
G0 F6000 X9.66 Y146.556
G1 F1200 X13.444 Y150.34 E160.033
G0 F6000 X14.01 Y150.34
G1 F1200 X9.66 Y145.99 E160.31945
G0 F6000 X9.66 Y145.424
G1 F1200 X14.576 Y150.34 E160.64318
G0 F6000 X15.141 Y150.34
G1 F1200 X9.66 Y144.859 E161.00411
G0 F6000 X9.66 Y144.293
G1 F1200 X15.707 Y150.34 E161.40232
G0 F6000 X16.273 Y150.34
G1 F1200 X9.66 Y143.727 E161.8378
G0 F6000 X9.66 Y143.162
G1 F1200 X16.838 Y150.34 E162.31048
G0 F6000 X17.404 Y150.34
G1 F1200 X9.66 Y142.596 E162.82044
G0 F6000 X9.66 Y142.03
G1 F1200 X17.97 Y150.34 E163.36766
G0 F6000 X18.535 Y150.34
G1 F1200 X9.66 Y141.464 E163.95213
G0 F6000 X9.66 Y140.899
G1 F1200 X19.101 Y150.34 E164.57384
G0 F6000 X19.667 Y150.34
G1 F1200 X9.66 Y140.333 E165.23282
G0 F6000 X9.66 Y139.767
G1 F1200 X20.232 Y150.34 E165.92903
G0 F6000 X20.798 Y150.34
G1 F1200 X9.66 Y139.202 E166.66249
G0 F6000 X9.66 Y138.636
G1 F1200 X21.364 Y150.34 E167.43322
G0 F6000 X21.93 Y150.34
G1 F1200 X9.66 Y138.07 E168.24122
G0 F6000 X9.66 Y137.505
G1 F1200 X22.495 Y150.34 E169.08642
G0 F6000 X23.061 Y150.34
G1 F1200 X9.66 Y136.939 E169.9689
G0 F6000 X9.66 Y136.373
G1 F1200 X23.627 Y150.34 E170.88865
G0 F6000 X24.192 Y150.34
G1 F1200 X9.66 Y135.808 E171.84561
G0 F6000 X9.66 Y135.242
G1 F1200 X24.758 Y150.34 E172.83984
G0 F6000 X25.324 Y150.34
G1 F1200 X10.138 Y135.155 E173.83983
G0 F6000 X10.703 Y135.154
G1 F1200 X25.889 Y150.34 E174.83985
G0 F6000 X26.455 Y150.34
G1 F1200 X11.26 Y135.145 E175.84047
G0 F6000 X11.838 Y135.158
G1 F1200 X27.021 Y150.34 E176.84027
G0 F6000 X27.586 Y150.34
G1 F1200 X12.404 Y135.158 E177.84003
G0 F6000 X12.97 Y135.158
G1 F1200 X28.152 Y150.34 E178.83979
G0 F6000 X28.718 Y150.34
G1 F1200 X13.535 Y135.157 E179.83961
G0 F6000 X14.1 Y135.157
G1 F1200 X29.283 Y150.34 E180.83944
G0 F6000 X29.849 Y150.34
G1 F1200 X14.665 Y135.156 E181.83933
G0 F6000 X15.231 Y135.156
G1 F1200 X30.415 Y150.34 E182.83922
G0 F6000 X30.98 Y150.34
G1 F1200 X15.796 Y135.156 E183.83912
G0 F6000 X16.362 Y135.156
G1 F1200 X31.546 Y150.34 E184.83901
G0 F6000 X32.112 Y150.34
G1 F1200 X16.927 Y135.156 E185.83893
G0 F6000 X17.492 Y135.155
G1 F1200 X32.678 Y150.34 E186.83892
G0 F6000 X33.243 Y150.34
G1 F1200 X18.058 Y135.155 E187.83888
G0 F6000 X18.623 Y135.154
G1 F1200 X33.809 Y150.34 E188.83891
G0 F6000 X34.375 Y150.34
G1 F1200 X19.189 Y135.154 E189.83893
G0 F6000 X19.754 Y135.154
G1 F1200 X34.94 Y150.34 E190.83896
G0 F6000 X35.506 Y150.34
G1 F1200 X20.319 Y135.154 E191.83901
G0 F6000 X20.885 Y135.154
G1 F1200 X36.072 Y150.34 E192.83907
G0 F6000 X36.637 Y150.34
G1 F1200 X21.45 Y135.153 E193.83916
G0 F6000 X22.016 Y135.153
G1 F1200 X37.203 Y150.34 E194.83925
G0 F6000 X37.769 Y150.34
G1 F1200 X22.581 Y135.152 E195.8394
G0 F6000 X23.146 Y135.152
G1 F1200 X38.334 Y150.34 E196.83956
G0 F6000 X38.9 Y150.34
G1 F1200 X23.711 Y135.151 E197.83978
G0 F6000 X24.277 Y135.151
G1 F1200 X39.466 Y150.34 E198.84
G0 F6000 X40.031 Y150.34
G1 F1200 X24.843 Y135.151 E199.84019
G0 F6000 X25.408 Y135.151
G1 F1200 X40.597 Y150.34 E200.84041
G0 F6000 X41.163 Y150.34
G1 F1200 X25.973 Y135.151 E201.84067
G0 F6000 X26.538 Y135.15
G1 F1200 X41.728 Y150.34 E202.84096
G0 F6000 X42.294 Y150.34
G1 F1200 X27.104 Y135.15 E203.84124
G0 F6000 X27.669 Y135.149
G1 F1200 X42.86 Y150.34 E204.8416
G0 F6000 X43.426 Y150.34
G1 F1200 X28.235 Y135.149 E205.84195
G0 F6000 X28.8 Y135.149
G1 F1200 X43.991 Y150.34 E206.8423
G0 F6000 X44.557 Y150.34
G1 F1200 X29.365 Y135.149 E207.84269
G0 F6000 X29.931 Y135.149
G1 F1200 X45.123 Y150.34 E208.84308
G0 F6000 X45.688 Y150.34
G1 F1200 X30.496 Y135.148 E209.84349
G0 F6000 X31.062 Y135.148
G1 F1200 X46.254 Y150.34 E210.84391
G0 F6000 X46.82 Y150.34
G1 F1200 X31.59 Y135.11 E211.84684
G0 F6000 X32.062 Y135.016
G1 F1200 X47.385 Y150.34 E212.85591
G0 F6000 X47.951 Y150.34
G1 F1200 X32.489 Y134.878 E213.87411
G0 F6000 X32.881 Y134.705
G1 F1200 X48.517 Y150.34 E214.90374
G0 F6000 X49.082 Y150.34
G1 F1200 X33.235 Y134.493 E215.94729
G0 F6000 X33.578 Y134.27
G1 F1200 X49.648 Y150.34 E217.00553
G0 F6000 X50.214 Y150.34
G1 F1200 X33.868 Y133.995 E218.08191
G0 F6000 X34.155 Y133.715
G1 F1200 X50.779 Y150.34 E219.17666
G0 F6000 X51.345 Y150.34
G1 F1200 X34.393 Y133.388 E220.29298
G0 F6000 X34.622 Y133.051
G1 F1200 X51.911 Y150.34 E221.43149
G0 F6000 X52.477 Y150.34
G1 F1200 X34.805 Y132.668 E222.59522
G0 F6000 X34.957 Y132.254
G1 F1200 X53.042 Y150.34 E223.78618
G0 F6000 X53.608 Y150.34
G1 F1200 X35.082 Y131.815 E225.00611
