;FLAVOR:Marlin
;TIME:4867
;Filament used: 4.60573m
;Layer height: 0.28
;MINX:79.5
;MINY:68
;MINZ:0.28
;MAXX:155.5
;MAXY:167
;MAXZ:17.92
;TARGET_MACHINE.NAME:Creality CR-6 SE
;Generated with Cura_SteamEngine 5.8.1
M140 S60
M105
M190 S60
M104 S200
M105
M109 S200
M82 ;absolute extrusion mode
M201 X500.00 Y500.00 Z100.00 E5000.00 ;Setup machine max acceleration
M203 X500.00 Y500.00 Z10.00 E50.00 ;Setup machine max feedrate
M204 P500.00 R1000.00 T500.00 ;Setup Print/Retract/Travel acceleration
M205 X8.00 Y8.00 Z0.40 E5.00 ;Setup Jerk
M220 S100 ;Reset Feedrate
M221 S100 ;Reset Flowrate

G28 ;Home

G92 E0 ;Reset Extruder
G1 Z2.0 F3000 ;Move Z Axis up
G1 X10.1 Y20 Z0.28 F5000.0 ;Move to start position
G1 X10.1 Y200.0 Z0.28 F1500.0 E15 ;Draw the first line
G1 X10.4 Y200.0 Z0.28 F5000.0 ;Move to side a little
G1 X10.4 Y20 Z0.28 F1500.0 E30 ;Draw the second line
G92 E0 ;Reset Extruder
G1 Z2.0 F3000 ;Move Z Axis up

G92 E0
G92 E0
G1 F1500 E-6.5
;LAYER_COUNT:64
;LAYER:0
M107
G0 F6000 X82.231 Y71.765 Z0.28
;TYPE:SKIRT
G1 F1500 E0
G1 F1200 X82.956 Y71.013 E0.04864
G1 X83.692 Y70.376 E0.09396
G1 X84.424 Y69.846 E0.13605
G1 X85.321 Y69.311 E0.18468
G1 X86.199 Y68.89 E0.23002
G1 X87.112 Y68.548 E0.27542
G1 X88.049 Y68.289 E0.32068
G1 X89.016 Y68.111 E0.36647
G1 X90.155 Y68.015 E0.41969
G1 X90.812 Y68 E0.45029
G1 X143.804 Y68 E2.91782
G1 X144.684 Y68.013 E2.9588
G1 X145.656 Y68.072 E3.00415
G1 X146.619 Y68.218 E3.0495
G1 X147.566 Y68.449 E3.09489
G1 X148.454 Y68.749 E3.13853
G1 X149.346 Y69.139 E3.18387
G1 X150.229 Y69.626 E3.23082
G1 X150.98 Y70.128 E3.27288
G1 X151.795 Y70.786 E3.32166
G1 X152.493 Y71.464 E3.36697
G1 X153.129 Y72.201 E3.4123
G1 X153.699 Y72.991 E3.45766
G1 X154.161 Y73.767 E3.49971
G1 X154.615 Y74.709 E3.54841
G1 X154.944 Y75.587 E3.59206
G1 X155.213 Y76.559 E3.63903
G1 X155.39 Y77.525 E3.68476
G1 X155.485 Y78.655 E3.73756
G1 X155.5 Y79.33 E3.769
G1 X155.499 Y155.4 E7.31114
G1 X155.488 Y156.163 E7.34667
G1 X155.431 Y157.136 E7.39205
G1 X155.286 Y158.099 E7.4374
G1 X155.057 Y159.045 E7.48272
G1 X154.746 Y159.969 E7.52812
G1 X154.354 Y160.86 E7.57344
G1 X153.886 Y161.712 E7.61871
G1 X153.364 Y162.493 E7.66245
G1 X152.731 Y163.278 E7.70941
G1 X152.106 Y163.929 E7.75143
G1 X151.317 Y164.617 E7.80017
G1 X150.557 Y165.167 E7.84386
G1 X149.69 Y165.684 E7.89086
G1 X148.812 Y166.106 E7.93622
G1 X147.901 Y166.448 E7.98153
G1 X146.962 Y166.709 E8.02691
G1 X145.996 Y166.887 E8.07265
G1 X144.845 Y166.985 E8.12644
G1 X144.17 Y167 E8.15788
G1 X91.064 Y166.999 E10.63072
G1 X90.331 Y166.988 E10.66485
G1 X89.359 Y166.931 E10.71019
G1 X88.396 Y166.785 E10.75555
G1 X87.45 Y166.556 E10.80087
G1 X86.526 Y166.244 E10.84628
G1 X85.636 Y165.852 E10.89156
G1 X84.813 Y165.401 E10.93526
G1 X83.974 Y164.84 E10.98226
G1 X83.27 Y164.274 E11.02432
G1 X82.517 Y163.549 E11.07299
G1 X81.88 Y162.813 E11.11832
G1 X81.35 Y162.082 E11.16036
G1 X80.814 Y161.185 E11.20902
G1 X80.392 Y160.307 E11.25438
G1 X80.05 Y159.395 E11.29973
G1 X79.79 Y158.457 E11.34506
G1 X79.612 Y157.488 E11.39093
G1 X79.514 Y156.309 E11.44602
G1 X79.5 Y155.658 E11.47634
G1 X79.501 Y79.525 E15.02141
G1 X79.512 Y78.825 E15.05401
G1 X79.57 Y77.852 E15.0994
G1 X79.716 Y76.889 E15.14475
G1 X79.946 Y75.943 E15.19009
G1 X80.259 Y75.02 E15.23547
G1 X80.651 Y74.13 E15.28075
G1 X81.121 Y73.277 E15.3261
G1 X81.664 Y72.469 E15.37143
G1 X82.231 Y71.765 E15.41352
G0 F6000 X82.543 Y72.016
G1 F1200 X83.218 Y71.315 E15.45884
G1 X83.927 Y70.7 E15.50254
G1 X84.659 Y70.17 E15.54462
G1 X85.495 Y69.671 E15.58996
G1 X86.34 Y69.264 E15.63363
G1 X87.219 Y68.933 E15.67737
G1 X88.122 Y68.682 E15.72101
G1 X89.05 Y68.51 E15.76496
G1 X90.189 Y68.414 E15.81818
G1 X90.821 Y68.4 E15.84762
G1 X143.798 Y68.4 E18.31445
G1 X144.66 Y68.412 E18.35459
G1 X145.597 Y68.468 E18.3983
G1 X146.525 Y68.607 E18.44199
G1 X147.438 Y68.828 E18.48573
G1 X148.294 Y69.116 E18.52779
G1 X149.186 Y69.506 E18.57312
G1 X150.007 Y69.959 E18.61678
G1 X150.758 Y70.461 E18.65884
G1 X151.517 Y71.073 E18.70424
G1 X152.191 Y71.726 E18.74794
G1 X152.805 Y72.435 E18.79162
G1 X153.355 Y73.196 E18.83534
G1 X153.817 Y73.972 E18.87739
G1 X154.24 Y74.849 E18.92273
G1 X154.569 Y75.727 E18.96639
G1 X154.82 Y76.632 E19.01012
G1 X154.991 Y77.559 E19.05401
G1 X155.086 Y78.689 E19.10682
G1 X155.1 Y79.33 E19.13667
G1 X155.099 Y155.395 E22.67858
G1 X155.089 Y156.14 E22.71327
G1 X155.035 Y157.077 E22.75697
G1 X154.897 Y158.006 E22.8007
G1 X154.678 Y158.918 E22.84438
G1 X154.38 Y159.808 E22.88808
G1 X154.003 Y160.668 E22.93181
G1 X153.553 Y161.49 E22.97544
G1 X153.031 Y162.271 E23.01918
G1 X152.442 Y163.001 E23.06286
G1 X151.817 Y163.652 E23.10488
G1 X151.082 Y164.293 E23.15029
G1 X150.322 Y164.843 E23.19398
G1 X149.516 Y165.324 E23.23768
G1 X148.671 Y165.732 E23.28138
G1 X147.793 Y166.063 E23.32507
G1 X146.889 Y166.316 E23.36878
G1 X145.962 Y166.488 E23.41268
G1 X144.811 Y166.586 E23.46647
G1 X144.17 Y166.6 E23.49633
G1 X91.07 Y166.599 E25.96888
G1 X90.354 Y166.589 E26.00223
G1 X89.418 Y166.535 E26.04588
G1 X88.489 Y166.396 E26.08962
G1 X87.577 Y166.177 E26.1333
G1 X86.687 Y165.878 E26.17702
G1 X85.828 Y165.501 E26.2207
G1 X85.005 Y165.05 E26.2644
G1 X84.225 Y164.528 E26.3081
G1 X83.521 Y163.962 E26.35016
G1 X82.819 Y163.287 E26.39551
G1 X82.204 Y162.578 E26.43921
G1 X81.674 Y161.847 E26.48126
G1 X81.174 Y161.011 E26.52661
G1 X80.766 Y160.166 E26.57031
G1 X80.435 Y159.288 E26.614
G1 X80.183 Y158.384 E26.6577
G1 X80.011 Y157.455 E26.70169
G1 X79.913 Y156.276 E26.75678
G1 X79.9 Y155.658 E26.78556
G1 X79.901 Y79.531 E30.33036
G1 X79.911 Y78.848 E30.36216
G1 X79.966 Y77.911 E30.40587
G1 X80.105 Y76.983 E30.44956
G1 X80.325 Y76.071 E30.49325
G1 X80.625 Y75.181 E30.53698
G1 X81.002 Y74.322 E30.58066
G1 X81.453 Y73.5 E30.62432
G1 X81.976 Y72.72 E30.66805
G1 X82.543 Y72.016 E30.71014
G0 F6000 X82.855 Y72.267
G1 F1200 X83.481 Y71.617 E30.75216
G1 X84.162 Y71.024 E30.79421
G1 X84.894 Y70.494 E30.83629
G1 X85.669 Y70.031 E30.87833
G1 X86.482 Y69.638 E30.92037
G1 X87.327 Y69.318 E30.96245
G1 X88.196 Y69.075 E31.00446
G1 X89.084 Y68.909 E31.04653
G1 X90.223 Y68.813 E31.09975
G1 X90.83 Y68.8 E31.12802
G1 X143.793 Y68.8 E33.5942
G1 X144.637 Y68.811 E33.63351
G1 X145.539 Y68.864 E33.67558
G1 X146.432 Y68.996 E33.71761
G1 X147.31 Y69.207 E33.75966
G1 X148.166 Y69.495 E33.80172
G1 X148.993 Y69.857 E33.84375
G1 X149.785 Y70.292 E33.88583
G1 X150.536 Y70.794 E33.92789
G1 X151.239 Y71.361 E33.96995
G1 X151.889 Y71.988 E34.012
G1 X152.481 Y72.67 E34.05405
G1 X153.011 Y73.401 E34.09609
G1 X153.473 Y74.177 E34.13815
G1 X153.866 Y74.99 E34.18019
G1 X154.184 Y75.835 E34.22224
G1 X154.427 Y76.705 E34.2643
G1 X154.592 Y77.593 E34.30635
G1 X154.687 Y78.723 E34.35916
G1 X154.7 Y79.33 E34.38743
G1 X154.699 Y155.39 E37.9291
G1 X154.69 Y156.117 E37.96295
G1 X154.639 Y157.019 E38.00502
G1 X154.508 Y157.913 E38.0471
G1 X154.299 Y158.791 E38.08912
G1 X154.013 Y159.648 E38.13119
G1 X153.652 Y160.476 E38.17325
G1 X153.22 Y161.268 E38.21526
G1 X152.719 Y162.02 E38.25733
G1 X152.153 Y162.724 E38.2994
G1 X151.528 Y163.375 E38.34142
G1 X150.847 Y163.969 E38.3835
G1 X150.116 Y164.5 E38.42557
G1 X149.342 Y164.964 E38.46759
G1 X148.529 Y165.358 E38.50966
G1 X147.685 Y165.678 E38.55169
G1 X146.815 Y165.923 E38.59377
G1 X145.928 Y166.089 E38.63579
G1 X144.777 Y166.187 E38.68958
G1 X144.17 Y166.2 E38.71785
G1 X91.075 Y166.199 E41.19018
G1 X90.377 Y166.19 E41.22268
G1 X89.476 Y166.139 E41.2647
G1 X88.582 Y166.007 E41.30678
G1 X87.704 Y165.798 E41.34881
G1 X86.847 Y165.511 E41.39089
G1 X86.02 Y165.15 E41.43291
G1 X85.227 Y164.717 E41.47498
G1 X84.476 Y164.216 E41.51702
G1 X83.772 Y163.65 E41.55908
G1 X83.121 Y163.024 E41.60114
G1 X82.528 Y162.343 E41.64318
G1 X81.998 Y161.612 E41.68523
G1 X81.534 Y160.837 E41.72729
G1 X81.14 Y160.024 E41.76936
G1 X80.82 Y159.18 E41.81139
G1 X80.576 Y158.31 E41.85346
G1 X80.41 Y157.422 E41.89553
G1 X80.313 Y156.267 E41.9495
G1 X80.3 Y155.658 E41.97786
G1 X80.301 Y79.536 E45.52242
G1 X80.31 Y78.871 E45.55339
G1 X80.362 Y77.969 E45.59546
G1 X80.494 Y77.076 E45.63749
G1 X80.704 Y76.198 E45.67953
G1 X80.991 Y75.341 E45.72161
G1 X81.353 Y74.514 E45.76365
G1 X81.786 Y73.722 E45.80568
G1 X82.288 Y72.971 E45.84774
G1 X82.855 Y72.267 E45.88983
G1 F1500 E39.38983
;MESH:gah_solo_x1.stl
G0 F6000 X89.835 Y79.42
G0 X117.5 Y155.4
;TYPE:WALL-INNER
G1 F1500 E45.88983
G1 F1200 X143.9 Y155.4 E47.11913
G1 X143.9 Y79.6 E50.64869
G1 X91.1 Y79.6 E53.10728
G1 X91.1 Y155.4 E56.63685
G1 X117.5 Y155.4 E57.86614
G0 F6000 X117.5 Y155.8
;TYPE:WALL-OUTER
G1 F1200 X144.3 Y155.8 E59.11406
G1 X144.3 Y79.2 E62.68088
G1 X90.7 Y79.2 E65.17672
G1 X90.7 Y155.8 E68.74354
G1 X117.5 Y155.8 E69.99146
G0 F6000 X117.5 Y155.04
;TYPE:SKIN
G1 F1200 X91.46 Y155.04 E71.20399
G1 X91.46 Y79.96 E74.70003
G1 X143.54 Y79.96 E77.12509
G1 X143.54 Y155.04 E80.62113
G1 X117.5 Y155.04 E81.83366
G0 F6000 X117.5 Y155.3
G0 X91.272 Y155.228
G0 X91.2 Y154.451
G0 X91.66 Y154.451
G1 F1200 X92.049 Y154.84 E81.85928
G0 F6000 X92.615 Y154.84
G1 F1200 X91.66 Y153.886 E81.92213
G0 F6000 X91.66 Y153.32
G1 F1200 X93.18 Y154.84 E82.02223
G0 F6000 X93.746 Y154.84
G1 F1200 X91.66 Y152.754 E82.15959
G0 F6000 X91.66 Y152.188
G1 F1200 X94.312 Y154.84 E82.33423
G0 F6000 X94.877 Y154.84
G1 F1200 X91.66 Y151.623 E82.54608
G0 F6000 X91.66 Y151.057
G1 F1200 X95.443 Y154.84 E82.7952
G0 F6000 X96.009 Y154.84
G1 F1200 X91.66 Y150.491 E83.08158
G0 F6000 X91.66 Y149.926
G1 F1200 X96.575 Y154.84 E83.40521
G0 F6000 X97.14 Y154.84
G1 F1200 X91.66 Y149.36 E83.76608
G0 F6000 X91.66 Y148.794
G1 F1200 X97.706 Y154.84 E84.16422
G0 F6000 X98.272 Y154.84
G1 F1200 X91.66 Y148.229 E84.5996
G0 F6000 X91.66 Y147.663
G1 F1200 X98.837 Y154.84 E85.07222
G0 F6000 X99.403 Y154.84
G1 F1200 X91.66 Y147.097 E85.58211
G0 F6000 X91.66 Y146.532
G1 F1200 X99.969 Y154.84 E86.12923
G0 F6000 X100.534 Y154.84
G1 F1200 X91.66 Y145.966 E86.7136
G0 F6000 X91.66 Y145.4
G1 F1200 X101.1 Y154.84 E87.33524
G0 F6000 X101.666 Y154.84
G1 F1200 X91.66 Y144.835 E87.99412
G0 F6000 X91.66 Y144.269
G1 F1200 X102.231 Y154.84 E88.69024
G0 F6000 X102.797 Y154.84
G1 F1200 X91.66 Y143.703 E89.42363
G0 F6000 X91.66 Y143.138
G1 F1200 X103.363 Y154.84 E90.19426
G0 F6000 X103.928 Y154.84
G1 F1200 X91.66 Y142.572 E91.00213
G0 F6000 X91.66 Y142.006
G1 F1200 X104.494 Y154.84 E91.84727
G0 F6000 X105.06 Y154.84
G1 F1200 X91.66 Y141.44 E92.72968
G0 F6000 X91.66 Y140.875
G1 F1200 X105.625 Y154.84 E93.6493
G0 F6000 X106.191 Y154.84
G1 F1200 X91.66 Y140.309 E94.60619
G0 F6000 X91.66 Y139.743
G1 F1200 X106.757 Y154.84 E95.60036
G0 F6000 X107.323 Y154.84
G1 F1200 X91.66 Y139.178 E96.63176
G0 F6000 X91.66 Y138.612
G1 F1200 X107.888 Y154.84 E97.7004
G0 F6000 X108.454 Y154.84
G1 F1200 X91.66 Y138.046 E98.80631
G0 F6000 X91.66 Y137.481
G1 F1200 X109.02 Y154.84 E99.94947
G0 F6000 X109.585 Y154.84
G1 F1200 X91.66 Y136.915 E101.12986
G0 F6000 X91.66 Y136.349
G1 F1200 X110.151 Y154.84 E102.34752
G0 F6000 X110.717 Y154.84
G1 F1200 X91.66 Y135.784 E103.60243
G0 F6000 X91.66 Y135.218
G1 F1200 X111.282 Y154.84 E104.89457
G0 F6000 X111.848 Y154.84
G1 F1200 X91.66 Y134.652 E106.22398
G0 F6000 X91.66 Y134.087
G1 F1200 X112.414 Y154.84 E107.59064
G0 F6000 X112.979 Y154.84
G1 F1200 X91.66 Y133.521 E108.99453
G0 F6000 X91.66 Y132.955
G1 F1200 X113.545 Y154.84 E110.43569
G0 F6000 X114.111 Y154.84
G1 F1200 X91.66 Y132.389 E111.91413
G0 F6000 X91.66 Y131.824
G1 F1200 X114.676 Y154.84 E113.42977
G0 F6000 X115.242 Y154.84
G1 F1200 X91.66 Y131.258 E114.98269
G0 F6000 X91.66 Y130.692
G1 F1200 X115.808 Y154.84 E116.57287
G0 F6000 X116.374 Y154.84
G1 F1200 X91.66 Y130.127 E118.2003
G0 F6000 X91.66 Y129.561
G1 F1200 X116.939 Y154.84 E119.86497
G0 F6000 X117.505 Y154.84
G1 F1200 X91.66 Y128.995 E121.5669
G0 F6000 X91.66 Y128.43
G1 F1200 X118.071 Y154.84 E123.30608
G0 F6000 X118.636 Y154.84
G1 F1200 X91.66 Y127.864 E125.08249
G0 F6000 X91.66 Y127.298
G1 F1200 X119.202 Y154.84 E126.89618
G0 F6000 X119.768 Y154.84
G1 F1200 X91.66 Y126.733 E128.74711
G0 F6000 X91.66 Y126.167
G1 F1200 X120.333 Y154.84 E130.63528
G0 F6000 X120.899 Y154.84
G1 F1200 X91.66 Y125.601 E132.56071
G0 F6000 X91.66 Y125.036
G1 F1200 X121.465 Y154.84 E134.52339
G0 F6000 X122.03 Y154.84
G1 F1200 X91.66 Y124.47 E136.52331
G0 F6000 X91.66 Y123.904
G1 F1200 X122.596 Y154.84 E138.5605
G0 F6000 X123.162 Y154.84
G1 F1200 X91.66 Y123.339 E140.63492
G0 F6000 X91.66 Y122.773
G1 F1200 X123.727 Y154.84 E142.74659
G0 F6000 X124.293 Y154.84
G1 F1200 X91.66 Y122.207 E144.89553
G0 F6000 X91.66 Y121.641
G1 F1200 X124.859 Y154.84 E147.08174
G0 F6000 X125.424 Y154.84
G1 F1200 X91.66 Y121.076 E149.30516
G0 F6000 X91.66 Y120.51
G1 F1200 X125.99 Y154.84 E151.56585
G0 F6000 X126.556 Y154.84
G1 F1200 X91.66 Y119.944 E153.86381
G0 F6000 X91.66 Y119.379
G1 F1200 X127.122 Y154.84 E156.19901
G0 F6000 X127.687 Y154.84
G1 F1200 X91.66 Y118.813 E158.57145
G0 F6000 X91.66 Y118.247
G1 F1200 X128.253 Y154.84 E160.98116
G0 F6000 X128.819 Y154.84
G1 F1200 X91.66 Y117.682 E163.42811
G0 F6000 X91.66 Y117.116
G1 F1200 X129.384 Y154.84 E165.9123
G0 F6000 X129.95 Y154.84
G1 F1200 X91.66 Y116.55 E168.43376
G0 F6000 X91.66 Y115.985
G1 F1200 X130.516 Y154.84 E170.99246
G0 F6000 X131.081 Y154.84
G1 F1200 X91.66 Y115.419 E173.5884
G0 F6000 X91.66 Y114.853
G1 F1200 X131.647 Y154.84 E176.22161
G0 F6000 X132.213 Y154.84
G1 F1200 X91.66 Y114.288 E178.89207
G0 F6000 X91.66 Y113.722
G1 F1200 X132.778 Y154.84 E181.59976
G0 F6000 X133.344 Y154.84
G1 F1200 X91.66 Y113.156 E184.34472
G0 F6000 X91.66 Y112.59
G1 F1200 X133.91 Y154.84 E187.12695
G0 F6000 X134.475 Y154.84
G1 F1200 X91.66 Y112.025 E189.94639
G0 F6000 X91.66 Y111.459
G1 F1200 X135.041 Y154.84 E192.80311
G0 F6000 X135.607 Y154.84
G1 F1200 X91.66 Y110.893 E195.69709
G0 F6000 X91.66 Y110.328
G1 F1200 X136.173 Y154.84 E198.62832
G0 F6000 X136.738 Y154.84
G1 F1200 X91.66 Y109.762 E201.59678
G0 F6000 X91.66 Y109.196
G1 F1200 X137.304 Y154.84 E204.60251
G0 F6000 X137.87 Y154.84
G1 F1200 X91.66 Y108.631 E207.64549
G0 F6000 X91.66 Y108.065
G1 F1200 X138.435 Y154.84 E210.7257
G0 F6000 X139.001 Y154.84
G1 F1200 X91.66 Y107.499 E213.84319
G0 F6000 X91.66 Y106.934
G1 F1200 X139.567 Y154.84 E216.99791
G0 F6000 X140.132 Y154.84
G1 F1200 X91.66 Y106.368 E220.18988
G0 F6000 X91.66 Y105.802
G1 F1200 X140.698 Y154.84 E223.41911
G0 F6000 X141.264 Y154.84
G1 F1200 X91.66 Y105.237 E226.68559
G0 F6000 X91.66 Y104.671
G1 F1200 X141.829 Y154.84 E229.9893
G0 F6000 X142.395 Y154.84
G1 F1200 X91.66 Y104.105 E233.33029
G0 F6000 X91.66 Y103.54
G1 F1200 X142.961 Y154.84 E236.70851
G0 F6000 X143.34 Y154.653
G1 F1200 X91.66 Y102.974 E240.1117
G0 F6000 X91.66 Y102.408
G1 F1200 X143.34 Y154.088 E243.51491
G0 F6000 X143.34 Y153.522
G1 F1200 X91.66 Y101.842 E246.91813
G0 F6000 X91.66 Y101.277
G1 F1200 X143.34 Y152.956 E250.32131
G0 F6000 X143.34 Y152.391
G1 F1200 X91.66 Y100.711 E253.72453
G0 F6000 X91.66 Y100.145
G1 F1200 X143.34 Y151.825 E257.12775
G0 F6000 X143.34 Y151.259
G1 F1200 X91.66 Y99.58 E260.53093
G0 F6000 X91.66 Y99.014
G1 F1200 X143.34 Y150.694 E263.93415
G0 F6000 X143.34 Y150.128
G1 F1200 X91.66 Y98.448 E267.33736
G0 F6000 X91.66 Y97.883
G1 F1200 X143.34 Y149.562 E270.74055
G0 F6000 X143.34 Y148.997
G1 F1200 X91.66 Y97.317 E274.14376
G0 F6000 X91.66 Y96.751
G1 F1200 X143.34 Y148.431 E277.54698
G0 F6000 X143.34 Y147.865
G1 F1200 X91.66 Y96.186 E280.95016
G0 F6000 X91.66 Y95.62
G1 F1200 X143.34 Y147.3 E284.35338
G0 F6000 X143.34 Y146.734
G1 F1200 X91.66 Y95.054 E287.75659
G0 F6000 X91.66 Y94.489
G1 F1200 X143.34 Y146.168 E291.15978
G0 F6000 X143.34 Y145.602
G1 F1200 X91.66 Y93.923 E294.56296
G0 F6000 X91.66 Y93.357
G1 F1200 X143.34 Y145.037 E297.96618
G0 F6000 X143.34 Y144.471
G1 F1200 X91.66 Y92.792 E301.36936
G0 F6000 X91.66 Y92.226
G1 F1200 X143.34 Y143.905 E304.77254
G0 F6000 X143.34 Y143.34
G1 F1200 X91.66 Y91.66 E308.17576
G0 F6000 X91.66 Y91.094
G1 F1200 X143.34 Y142.774 E311.57898
G0 F6000 X143.34 Y142.208
G1 F1200 X91.66 Y90.529 E314.98216
G0 F6000 X91.66 Y89.963
G1 F1200 X143.34 Y141.643 E318.38538
G0 F6000 X143.34 Y141.077
G1 F1200 X91.66 Y89.397 E321.78859
G0 F6000 X91.66 Y88.832
G1 F1200 X143.34 Y140.511 E325.19178
G0 F6000 X143.34 Y139.946
