;FLAVOR:Marlin
;TIME:4790
;Filament used: 4.71575m
;Layer height: 0.28
;MINX:60.5
;MINY:80.5
;MINZ:0.28
;MAXX:174.5
;MAXY:154.5
;MAXZ:28
;TARGET_MACHINE.NAME:Creality CR-6 SE
;Generated with Cura_SteamEngine 5.8.1
M140 S60
M105
M190 S60
M104 S200
M105
M109 S200
M82 ;absolute extrusion mode
M201 X500.00 Y500.00 Z100.00 E5000.00 ;Setup machine max acceleration
M203 X500.00 Y500.00 Z10.00 E50.00 ;Setup machine max feedrate
M204 P500.00 R1000.00 T500.00 ;Setup Print/Retract/Travel acceleration
M205 X8.00 Y8.00 Z0.40 E5.00 ;Setup Jerk
M220 S100 ;Reset Feedrate
M221 S100 ;Reset Flowrate

G28 ;Home

G92 E0 ;Reset Extruder
G1 Z2.0 F3000 ;Move Z Axis up
G1 X10.1 Y20 Z0.28 F5000.0 ;Move to start position
G1 X10.1 Y200.0 Z0.28 F1500.0 E15 ;Draw the first line
G1 X10.4 Y200.0 Z0.28 F5000.0 ;Move to side a little
G1 X10.4 Y20 Z0.28 F1500.0 E30 ;Draw the second line
G92 E0 ;Reset Extruder
G1 Z2.0 F3000 ;Move Z Axis up

G92 E0
G92 E0
G1 F1500 E-6.5
;LAYER_COUNT:100
;LAYER:0
M107
G0 F6000 X64.692 Y82.876 Z0.28
;TYPE:SKIRT
G1 F1500 E0
G1 F1200 X65.424 Y82.346 E0.04208
G1 X66.321 Y81.811 E0.09071
G1 X67.199 Y81.39 E0.13605
G1 X68.112 Y81.048 E0.18145
G1 X69.049 Y80.789 E0.22672
G1 X70.016 Y80.611 E0.2725
G1 X71.155 Y80.515 E0.32573
G1 X71.812 Y80.5 E0.35633
G1 X94.347 Y80.5 E1.40565
G1 X95.229 Y80.513 E1.44673
G1 X96.21 Y80.574 E1.49249
G1 X97.352 Y80.757 E1.54635
G1 X98.774 Y81.063 E1.61408
G1 X101.389 Y81.584 E1.73824
G1 X103.822 Y81.998 E1.85316
G1 X106.341 Y82.353 E1.97161
G1 X108.825 Y82.632 E2.088
G1 X111.342 Y82.845 E2.20562
G1 X113.837 Y82.982 E2.32198
G1 X116.367 Y83.051 E2.43983
G1 X118.858 Y83.047 E2.55582
G1 X121.426 Y82.972 E2.67545
G1 X123.909 Y82.83 E2.79126
G1 X126.432 Y82.612 E2.90918
G1 X128.914 Y82.326 E3.02551
G1 X131.422 Y81.966 E3.14349
G1 X133.882 Y81.541 E3.25974
G1 X136.401 Y81.033 E3.37939
G1 X137.6 Y80.766 E3.43659
G1 X138.563 Y80.599 E3.4821
G1 X139.597 Y80.516 E3.5304
G1 X140.227 Y80.501 E3.55975
G1 X162.802 Y80.5 E4.61093
G1 X163.668 Y80.512 E4.65126
G1 X164.641 Y80.569 E4.69665
G1 X165.603 Y80.715 E4.74196
G1 X166.551 Y80.944 E4.78737
G1 X167.473 Y81.256 E4.83269
G1 X168.364 Y81.648 E4.87802
G1 X169.187 Y82.099 E4.92172
G1 X170.026 Y82.66 E4.96871
G1 X170.73 Y83.226 E5.01078
G1 X171.483 Y83.951 E5.05945
G1 X172.12 Y84.687 E5.10477
G1 X172.65 Y85.418 E5.14682
G1 X173.186 Y86.315 E5.19547
G1 X173.608 Y87.193 E5.24083
G1 X173.95 Y88.105 E5.28619
G1 X174.21 Y89.043 E5.33151
G1 X174.388 Y90.009 E5.37725
G1 X174.485 Y91.155 E5.4308
G1 X174.5 Y91.83 E5.46224
G1 X174.499 Y142.9 E7.84028
G1 X174.488 Y143.663 E7.87581
G1 X174.431 Y144.636 E7.92119
G1 X174.286 Y145.599 E7.96654
G1 X174.057 Y146.545 E8.01186
G1 X173.746 Y147.469 E8.05726
G1 X173.354 Y148.36 E8.10259
G1 X172.886 Y149.212 E8.14785
G1 X172.364 Y149.993 E8.19159
G1 X171.731 Y150.778 E8.23855
G1 X171.106 Y151.429 E8.28057
G1 X170.317 Y152.117 E8.32931
G1 X169.557 Y152.667 E8.373
G1 X168.69 Y153.184 E8.42
G1 X167.812 Y153.606 E8.46536
G1 X166.901 Y153.948 E8.51067
G1 X165.962 Y154.209 E8.55605
G1 X164.996 Y154.387 E8.60179
G1 X163.845 Y154.485 E8.65558
G1 X163.17 Y154.5 E8.68702
G1 X72.064 Y154.499 E12.9293
G1 X71.331 Y154.488 E12.96343
G1 X70.359 Y154.431 E13.00877
G1 X69.396 Y154.285 E13.05412
G1 X68.45 Y154.056 E13.09945
G1 X67.526 Y153.744 E13.14486
G1 X66.636 Y153.352 E13.19014
G1 X65.813 Y152.901 E13.23384
G1 X64.974 Y152.34 E13.28084
G1 X64.27 Y151.774 E13.3229
G1 X63.517 Y151.049 E13.37157
G1 X62.88 Y150.313 E13.4169
G1 X62.35 Y149.582 E13.45894
G1 X61.814 Y148.685 E13.5076
G1 X61.392 Y147.807 E13.55296
G1 X61.05 Y146.895 E13.59831
G1 X60.79 Y145.957 E13.64364
G1 X60.612 Y144.988 E13.68951
G1 X60.514 Y143.809 E13.7446
G1 X60.5 Y143.158 E13.77492
G1 X60.501 Y92.025 E16.15589
G1 X60.512 Y91.325 E16.18849
G1 X60.57 Y90.352 E16.23387
G1 X60.716 Y89.389 E16.27923
G1 X60.946 Y88.443 E16.32456
G1 X61.259 Y87.52 E16.36994
G1 X61.651 Y86.63 E16.41523
G1 X62.121 Y85.777 E16.46058
G1 X62.664 Y84.969 E16.50591
G1 X63.231 Y84.265 E16.548
G1 X63.956 Y83.513 E16.59664
G1 X64.692 Y82.876 E16.64196
G0 F6000 X64.927 Y83.2
G1 F1200 X65.659 Y82.67 E16.68404
G1 X66.495 Y82.171 E16.72938
G1 X67.34 Y81.764 E16.77305
G1 X68.219 Y81.433 E16.81679
G1 X69.122 Y81.182 E16.86043
G1 X70.05 Y81.01 E16.90438
G1 X71.189 Y80.914 E16.9576
G1 X71.821 Y80.9 E16.98704
G1 X94.341 Y80.9 E18.03566
G1 X95.205 Y80.912 E18.0759
G1 X96.147 Y80.969 E18.11984
G1 X97.268 Y81.148 E18.1727
G1 X98.69 Y81.454 E18.24043
G1 X101.315 Y81.977 E18.36507
G1 X103.766 Y82.394 E18.48083
G1 X106.285 Y82.749 E18.59929
G1 X108.791 Y83.031 E18.71671
G1 X111.308 Y83.243 E18.83433
G1 X113.826 Y83.382 E18.95176
G1 X116.357 Y83.451 E19.06966
G1 X118.87 Y83.447 E19.18667
G1 X121.438 Y83.372 E19.3063
G1 X123.943 Y83.228 E19.42314
G1 X126.466 Y83.01 E19.54106
G1 X128.971 Y82.722 E19.65847
G1 X131.479 Y82.362 E19.77645
G1 X133.958 Y81.934 E19.89359
G1 X136.48 Y81.425 E20.01339
G1 X137.669 Y81.16 E20.07011
G1 X138.595 Y80.998 E20.11389
G1 X139.607 Y80.916 E20.16116
G1 X140.227 Y80.901 E20.19004
G1 X162.797 Y80.9 E21.241
G1 X163.645 Y80.911 E21.28049
G1 X164.582 Y80.965 E21.32419
G1 X165.51 Y81.104 E21.36788
G1 X166.423 Y81.323 E21.4116
G1 X167.312 Y81.622 E21.45528
G1 X168.172 Y81.999 E21.499
G1 X168.995 Y82.45 E21.5427
G1 X169.775 Y82.972 E21.5864
G1 X170.479 Y83.538 E21.62846
G1 X171.181 Y84.213 E21.67381
G1 X171.796 Y84.922 E21.71752
G1 X172.326 Y85.653 E21.75956
G1 X172.826 Y86.489 E21.80492
G1 X173.234 Y87.334 E21.84861
G1 X173.565 Y88.212 E21.8923
G1 X173.817 Y89.116 E21.936
G1 X173.989 Y90.043 E21.9799
G1 X174.086 Y91.189 E22.03346
G1 X174.1 Y91.83 E22.06331
G1 X174.099 Y142.895 E24.44111
G1 X174.089 Y143.64 E24.47581
G1 X174.035 Y144.577 E24.51951
G1 X173.897 Y145.506 E24.56324
G1 X173.678 Y146.418 E24.60692
G1 X173.38 Y147.308 E24.65062
G1 X173.003 Y148.168 E24.69434
G1 X172.553 Y148.99 E24.73798
G1 X172.031 Y149.771 E24.78172
G1 X171.442 Y150.501 E24.8254
G1 X170.817 Y151.152 E24.86742
G1 X170.082 Y151.793 E24.91283
G1 X169.322 Y152.343 E24.95651
G1 X168.516 Y152.824 E25.00022
G1 X167.671 Y153.232 E25.04391
G1 X166.793 Y153.563 E25.08761
G1 X165.889 Y153.816 E25.13132
G1 X164.962 Y153.988 E25.17522
G1 X163.811 Y154.086 E25.22901
G1 X163.17 Y154.1 E25.25886
G1 X72.07 Y154.099 E29.50086
G1 X71.354 Y154.089 E29.5342
G1 X70.418 Y154.035 E29.57786
G1 X69.489 Y153.896 E29.6216
G1 X68.577 Y153.677 E29.66527
G1 X67.687 Y153.378 E29.70899
G1 X66.828 Y153.001 E29.75267
G1 X66.005 Y152.55 E29.79637
G1 X65.225 Y152.028 E29.84008
G1 X64.521 Y151.462 E29.88214
G1 X63.819 Y150.787 E29.92748
G1 X63.204 Y150.078 E29.97119
G1 X62.674 Y149.347 E30.01323
G1 X62.174 Y148.511 E30.05859
G1 X61.766 Y147.666 E30.10228
G1 X61.435 Y146.788 E30.14598
G1 X61.183 Y145.884 E30.18968
G1 X61.011 Y144.955 E30.23367
G1 X60.913 Y143.776 E30.28876
G1 X60.9 Y143.158 E30.31754
G1 X60.901 Y92.031 E32.69823
G1 X60.911 Y91.348 E32.73003
G1 X60.966 Y90.411 E32.77374
G1 X61.105 Y89.483 E32.81743
G1 X61.325 Y88.571 E32.86112
G1 X61.625 Y87.681 E32.90485
G1 X62.002 Y86.822 E32.94853
G1 X62.453 Y86 E32.99219
G1 X62.976 Y85.22 E33.03592
G1 X63.543 Y84.516 E33.07801
G1 X64.218 Y83.815 E33.12332
G1 X64.927 Y83.2 E33.16703
G0 F6000 X65.162 Y83.524
G1 F1200 X65.894 Y82.994 E33.20911
G1 X66.669 Y82.531 E33.25115
G1 X67.482 Y82.138 E33.29319
G1 X68.327 Y81.818 E33.33527
G1 X69.196 Y81.575 E33.37728
G1 X70.084 Y81.409 E33.41935
G1 X71.223 Y81.313 E33.47257
G1 X71.83 Y81.3 E33.50085
G1 X94.336 Y81.3 E34.54882
G1 X95.182 Y81.311 E34.58822
G1 X96.084 Y81.364 E34.63029
G1 X97.184 Y81.539 E34.68215
G1 X98.606 Y81.845 E34.74988
G1 X101.241 Y82.37 E34.87499
G1 X103.71 Y82.79 E34.99161
G1 X106.229 Y83.145 E35.11006
G1 X108.758 Y83.43 E35.22857
G1 X111.275 Y83.641 E35.34618
G1 X113.815 Y83.782 E35.46464
G1 X116.347 Y83.851 E35.58258
G1 X118.882 Y83.847 E35.70062
G1 X121.45 Y83.772 E35.82025
G1 X123.977 Y83.626 E35.93812
G1 X126.5 Y83.408 E36.05604
G1 X129.028 Y83.118 E36.17452
G1 X131.536 Y82.758 E36.2925
G1 X134.034 Y82.327 E36.41054
G1 X136.559 Y81.817 E36.53049
G1 X137.738 Y81.554 E36.58673
G1 X138.628 Y81.397 E36.62882
G1 X139.617 Y81.316 E36.67502
G1 X140.227 Y81.301 E36.70344
G1 X162.792 Y81.3 E37.75416
G1 X163.622 Y81.31 E37.79281
G1 X164.524 Y81.361 E37.83488
G1 X165.417 Y81.493 E37.87691
G1 X166.296 Y81.702 E37.91898
G1 X167.152 Y81.989 E37.96102
G1 X167.98 Y82.35 E38.00308
G1 X168.773 Y82.783 E38.04515
G1 X169.524 Y83.284 E38.08719
G1 X170.228 Y83.85 E38.12925
G1 X170.879 Y84.476 E38.1713
G1 X171.472 Y85.157 E38.21335
G1 X172.002 Y85.888 E38.2554
G1 X172.466 Y86.663 E38.29746
G1 X172.86 Y87.476 E38.33952
G1 X173.18 Y88.32 E38.38155
G1 X173.424 Y89.19 E38.42363
G1 X173.59 Y90.077 E38.46565
G1 X173.687 Y91.223 E38.5192
G1 X173.7 Y91.83 E38.54747
G1 X173.699 Y142.89 E40.92504
G1 X173.69 Y143.617 E40.95889
G1 X173.639 Y144.519 E41.00096
G1 X173.508 Y145.413 E41.04304
G1 X173.299 Y146.291 E41.08506
G1 X173.013 Y147.148 E41.12713
G1 X172.652 Y147.976 E41.16919
G1 X172.22 Y148.768 E41.2112
G1 X171.719 Y149.52 E41.25327
G1 X171.153 Y150.224 E41.29534
G1 X170.528 Y150.875 E41.33736
G1 X169.847 Y151.469 E41.37944
G1 X169.116 Y152 E41.42151
G1 X168.342 Y152.464 E41.46353
G1 X167.529 Y152.858 E41.5056
G1 X166.685 Y153.178 E41.54763
G1 X165.815 Y153.423 E41.58971
G1 X164.928 Y153.589 E41.63173
G1 X163.777 Y153.687 E41.68552
G1 X163.17 Y153.7 E41.71379
G1 X72.075 Y153.699 E45.95556
G1 X71.377 Y153.69 E45.98806
G1 X70.476 Y153.639 E46.03008
G1 X69.582 Y153.507 E46.07216
G1 X68.704 Y153.298 E46.11419
G1 X67.847 Y153.011 E46.15627
G1 X67.02 Y152.65 E46.19829
G1 X66.227 Y152.217 E46.24036
G1 X65.476 Y151.716 E46.2824
G1 X64.772 Y151.15 E46.32446
G1 X64.121 Y150.524 E46.36651
G1 X63.528 Y149.843 E46.40856
G1 X62.998 Y149.112 E46.45061
G1 X62.534 Y148.337 E46.49267
G1 X62.14 Y147.524 E46.53473
G1 X61.82 Y146.68 E46.57676
G1 X61.576 Y145.81 E46.61884
G1 X61.41 Y144.922 E46.6609
G1 X61.313 Y143.767 E46.71488
G1 X61.3 Y143.158 E46.74324
G1 X61.301 Y92.036 E49.12369
G1 X61.31 Y91.371 E49.15466
G1 X61.362 Y90.469 E49.19673
G1 X61.494 Y89.576 E49.23877
G1 X61.704 Y88.698 E49.2808
G1 X61.991 Y87.841 E49.32289
G1 X62.353 Y87.014 E49.36492
G1 X62.786 Y86.222 E49.40695
G1 X63.288 Y85.471 E49.44902
G1 X63.855 Y84.767 E49.49111
G1 X64.481 Y84.117 E49.53313
G1 X65.162 Y83.524 E49.57518
G1 F1500 E43.07518
;MESH:gah_celeb_x1.stl
G0 F6000 X71.92 Y90.835
G0 X117.5 Y142.9
;TYPE:WALL-INNER
G1 F1500 E49.57518
G1 F1200 X162.9 Y142.9 E51.68919
G1 X162.9 Y92.1 E54.05465
G1 X140.6 Y92.101 E55.09303
G1 X140.589 Y94.253 E55.19324
G1 X140.56 Y94.495 E55.20459
G1 X140.596 Y94.841 E55.22079
G1 X140.59 Y102.244 E55.5655
G1 X140.518 Y102.802 E55.5917
G1 X140.346 Y103.326 E55.61738
G1 X140.094 Y103.852 E55.64454
G1 X139.691 Y104.398 E55.67614
G1 X139.191 Y104.865 E55.708
G1 X138.729 Y105.155 E55.7334
G1 X138.337 Y105.342 E55.75362
G1 X137.9 Y105.483 E55.775
G1 X137.326 Y105.591 E55.8022
G1 X97.831 Y105.6 E57.64125
G1 X97.246 Y105.529 E57.66869
G1 X96.686 Y105.351 E57.69605
G1 X96.163 Y105.106 E57.72294
G1 X95.626 Y104.716 E57.75385
G1 X95.163 Y104.233 E57.785
G1 X94.84 Y103.727 E57.81296
G1 X94.642 Y103.293 E57.83517
G1 X94.483 Y102.807 E57.85898
G1 X94.406 Y102.214 E57.88682
G1 X94.407 Y94.743 E58.2347
G1 X94.436 Y94.493 E58.24642
G1 X94.407 Y94.22 E58.25921
G1 X94.404 Y92.1 E58.35792
G1 X72.1 Y92.1 E59.39649
G1 X72.101 Y142.899 E61.7619
G1 X117.5 Y142.9 E63.87587
G0 F6000 X117.5 Y143.3
;TYPE:WALL-OUTER
G1 F1200 X163.3 Y143.3 E66.00851
G1 X163.3 Y91.7 E68.41122
G1 X140.201 Y91.7 E69.48681
G1 X140.193 Y94.185 E69.60252
G1 X140.158 Y94.495 E69.61705
G1 X140.196 Y94.841 E69.63326
G1 X140.191 Y102.212 E69.97648
G1 X140.127 Y102.715 E70.00009
G1 X139.979 Y103.167 E70.02224
G1 X139.764 Y103.625 E70.0458
G1 X139.399 Y104.125 E70.07462
G1 X138.971 Y104.531 E70.10209
G1 X138.537 Y104.804 E70.12597
G1 X138.174 Y104.976 E70.14467
G1 X137.778 Y105.101 E70.16401
G1 X137.296 Y105.192 E70.18685
G1 X97.839 Y105.2 E72.02413
G1 X97.296 Y105.131 E72.04962
G1 X96.811 Y104.97 E72.07342
G1 X96.366 Y104.761 E72.09631
G1 X95.88 Y104.407 E72.12431
G1 X95.47 Y103.977 E72.15197
G1 X95.186 Y103.525 E72.17683
G1 X95.022 Y103.167 E72.19516
G1 X94.87 Y102.707 E72.21772
G1 X94.804 Y102.176 E72.24264
G1 X94.805 Y94.789 E72.58661
G1 X94.838 Y94.495 E72.60038
G1 X94.805 Y94.178 E72.61522
G1 X94.805 Y91.7 E72.73061
G1 X71.7 Y91.7 E73.80648
G1 X71.701 Y143.299 E76.20914
G1 X117.5 Y143.3 E78.34174
G0 F6000 X117.5 Y142.537
;TYPE:SKIN
G1 F1200 X72.46 Y142.536 E80.43899
G1 X72.46 Y92.46 E82.77073
G1 X94.044 Y92.46 E83.77578
G1 X94.044 Y94.171 E83.85545
G1 X94.075 Y94.487 E83.87023
G1 X94.044 Y94.792 E83.88451
G1 X94.044 Y102.244 E84.2315
G1 X94.119 Y102.831 E84.25906
G1 X94.317 Y103.457 E84.28963
G1 X94.518 Y103.889 E84.31182
G1 X94.849 Y104.42 E84.34095
G1 X95.358 Y104.962 E84.37558
G1 X95.974 Y105.417 E84.41124
G1 X96.543 Y105.682 E84.44046
G1 X97.126 Y105.871 E84.469
G1 X97.775 Y105.956 E84.49948
G1 X137.368 Y105.952 E86.3431
G1 X137.979 Y105.833 E86.37208
G1 X138.458 Y105.679 E86.39551
G1 X138.897 Y105.472 E86.41811
G1 X139.434 Y105.131 E86.44773
G1 X139.95 Y104.65 E86.48058
G1 X140.428 Y103.993 E86.51841
G1 X140.679 Y103.458 E86.54593
G1 X140.881 Y102.821 E86.57704
G1 X140.943 Y102.304 E86.60129
G1 X140.956 Y94.837 E86.94899
G1 X140.922 Y94.491 E86.96518
G1 X140.951 Y94.205 E86.97856
G1 X140.956 Y92.46 E87.05982
G1 X162.54 Y92.46 E88.06486
G1 X162.54 Y142.539 E90.39675
G1 X117.5 Y142.537 E92.494
G1 F1500 E85.994
G0 F6000 X117.498 Y142.799
G0 X72.754 Y142.799
G0 X72.756 Y142.336
G1 F1500 E92.494
G1 F1200 X72.66 Y142.239 E92.50035
G0 F6000 X72.66 Y141.674
G1 F1200 X73.322 Y142.336 E92.54394
G0 F6000 X73.888 Y142.336
G1 F1200 X72.66 Y141.108 E92.62481
G0 F6000 X72.66 Y140.542
G1 F1200 X74.453 Y142.336 E92.74292
G0 F6000 X75.019 Y142.336
G1 F1200 X72.66 Y139.977 E92.89826
G0 F6000 X72.66 Y139.411
G1 F1200 X75.585 Y142.336 E93.09088
G0 F6000 X76.15 Y142.336
G1 F1200 X72.66 Y138.845 E93.32073
G0 F6000 X72.66 Y138.28
G1 F1200 X76.716 Y142.336 E93.58783
G0 F6000 X77.282 Y142.336
G1 F1200 X72.66 Y137.714 E93.89219
G0 F6000 X72.66 Y137.148
G1 F1200 X77.848 Y142.336 E94.23383
G0 F6000 X78.413 Y142.336
G1 F1200 X72.66 Y136.583 E94.61268
G0 F6000 X72.66 Y136.017
G1 F1200 X78.979 Y142.336 E95.02879
G0 F6000 X79.545 Y142.336
G1 F1200 X72.66 Y135.451 E95.48218
G0 F6000 X72.66 Y134.886
G1 F1200 X80.11 Y142.336 E95.97278
G0 F6000 X80.676 Y142.336
G1 F1200 X72.66 Y134.32 E96.50064
G0 F6000 X72.66 Y133.754
G1 F1200 X81.242 Y142.336 E97.06578
G0 F6000 X81.807 Y142.336
G1 F1200 X72.66 Y133.189 E97.66813
G0 F6000 X72.66 Y132.623
G1 F1200 X82.373 Y142.336 E98.30775
G0 F6000 X82.939 Y142.336
G1 F1200 X72.66 Y132.057 E98.98464
G0 F6000 X72.66 Y131.491
G1 F1200 X83.504 Y142.336 E99.69877
G0 F6000 X84.07 Y142.336
G1 F1200 X72.66 Y130.926 E100.45013
G0 F6000 X72.66 Y130.36
G1 F1200 X84.636 Y142.336 E101.23877
G0 F6000 X85.201 Y142.336
G1 F1200 X72.66 Y129.794 E102.06465
G0 F6000 X72.66 Y129.229
G1 F1200 X85.767 Y142.336 E102.92777
G0 F6000 X86.333 Y142.336
G1 F1200 X72.66 Y128.663 E103.82816
G0 F6000 X72.66 Y128.097
G1 F1200 X86.898 Y142.336 E104.76579
G0 F6000 X87.464 Y142.336
G1 F1200 X72.66 Y127.532 E105.74066
G0 F6000 X72.66 Y126.966
G1 F1200 X88.03 Y142.336 E106.7528
G0 F6000 X88.596 Y142.336
G1 F1200 X72.66 Y126.4 E107.80221
G0 F6000 X72.66 Y125.835
G1 F1200 X89.161 Y142.336 E108.88883
G0 F6000 X89.727 Y142.336
G1 F1200 X72.66 Y125.269 E110.01272
G0 F6000 X72.66 Y124.703
G1 F1200 X90.293 Y142.336 E111.17389
G0 F6000 X90.859 Y142.336
G1 F1200 X72.66 Y124.138 E112.37229
G0 F6000 X72.66 Y123.572
G1 F1200 X91.425 Y142.336 E113.60796
G0 F6000 X91.99 Y142.336
G1 F1200 X72.66 Y123.006 E114.88088
G0 F6000 X72.66 Y122.44
G1 F1200 X92.556 Y142.336 E116.19106
G0 F6000 X93.122 Y142.336
G1 F1200 X72.66 Y121.875 E117.53849
G0 F6000 X72.66 Y121.309
G1 F1200 X93.687 Y142.336 E118.92315
G0 F6000 X94.253 Y142.336
G1 F1200 X72.66 Y120.743 E120.34509
G0 F6000 X72.66 Y120.178
G1 F1200 X94.819 Y142.336 E121.80426
G0 F6000 X95.384 Y142.336
G1 F1200 X72.66 Y119.612 E123.30068
G0 F6000 X72.66 Y119.046
G1 F1200 X95.95 Y142.336 E124.83436
G0 F6000 X96.516 Y142.336
