;FLAVOR:Marlin
;TIME:5212
;Filament used: 5.24348m
;Layer height: 0.28
;MINX:80.5
;MINY:60.5
;MINZ:0.28
;MAXX:154.5
;MAXY:174.5
;MAXZ:22.12
;TARGET_MACHINE.NAME:Creality CR-6 SE
;Generated with Cura_SteamEngine 5.8.1
M140 S60
M105
M190 S60
M104 S200
M105
M109 S200
M82 ;absolute extrusion mode
M201 X500.00 Y500.00 Z100.00 E5000.00 ;Setup machine max acceleration
M203 X500.00 Y500.00 Z10.00 E50.00 ;Setup machine max feedrate
M204 P500.00 R1000.00 T500.00 ;Setup Print/Retract/Travel acceleration
M205 X8.00 Y8.00 Z0.40 E5.00 ;Setup Jerk
M220 S100 ;Reset Feedrate
M221 S100 ;Reset Flowrate

G28 ;Home

G92 E0 ;Reset Extruder
G1 Z2.0 F3000 ;Move Z Axis up
G1 X10.1 Y20 Z0.28 F5000.0 ;Move to start position
G1 X10.1 Y200.0 Z0.28 F1500.0 E15 ;Draw the first line
G1 X10.4 Y200.0 Z0.28 F5000.0 ;Move to side a little
G1 X10.4 Y20 Z0.28 F1500.0 E30 ;Draw the second line
G92 E0 ;Reset Extruder
G1 Z2.0 F3000 ;Move Z Axis up

G92 E0
G92 E0
G1 F1500 E-6.5
;LAYER_COUNT:79
;LAYER:0
M107
G0 F6000 X82.676 Y64.954 Z0.28
;TYPE:SKIRT
G1 F1500 E0
G1 F1200 X83.267 Y64.226 E0.04366
G1 X83.969 Y63.501 E0.09065
G1 X84.679 Y62.887 E0.13436
G1 X85.498 Y62.297 E0.18136
G1 X86.337 Y61.801 E0.22675
G1 X87.151 Y61.41 E0.2688
G1 X88.128 Y61.042 E0.31741
G1 X89.032 Y60.792 E0.36108
G1 X90.034 Y60.609 E0.40851
G1 X91.205 Y60.513 E0.46322
G1 X91.812 Y60.5 E0.49149
G1 X142.804 Y60.5 E2.86589
G1 X143.684 Y60.513 E2.90688
G1 X144.656 Y60.572 E2.95222
G1 X145.619 Y60.718 E2.99757
G1 X146.566 Y60.949 E3.04296
G1 X147.454 Y61.249 E3.08661
G1 X148.346 Y61.639 E3.13194
G1 X149.229 Y62.126 E3.17889
G1 X149.98 Y62.628 E3.22096
G1 X150.795 Y63.286 E3.26973
G1 X151.493 Y63.964 E3.31504
G1 X152.129 Y64.701 E3.36037
G1 X152.699 Y65.491 E3.40573
G1 X153.161 Y66.267 E3.44779
G1 X153.615 Y67.209 E3.49648
G1 X153.944 Y68.087 E3.54014
G1 X154.213 Y69.059 E3.5871
G1 X154.39 Y70.025 E3.63283
G1 X154.485 Y71.155 E3.68563
G1 X154.5 Y71.83 E3.71707
G1 X154.499 Y162.9 E7.95767
G1 X154.488 Y163.663 E7.9932
G1 X154.431 Y164.636 E8.03859
G1 X154.286 Y165.599 E8.08393
G1 X154.057 Y166.545 E8.12926
G1 X153.746 Y167.469 E8.17465
G1 X153.354 Y168.36 E8.21998
G1 X152.886 Y169.212 E8.26524
G1 X152.364 Y169.993 E8.30899
G1 X151.731 Y170.778 E8.35594
G1 X151.106 Y171.429 E8.39796
G1 X150.317 Y172.117 E8.44671
G1 X149.557 Y172.667 E8.49039
G1 X148.69 Y173.184 E8.5374
G1 X147.812 Y173.606 E8.58276
G1 X146.901 Y173.948 E8.62807
G1 X145.962 Y174.209 E8.67345
G1 X144.996 Y174.387 E8.71919
G1 X143.845 Y174.485 E8.77298
G1 X143.17 Y174.5 E8.80442
G1 X92.064 Y174.499 E11.18412
G1 X91.331 Y174.488 E11.21826
G1 X90.359 Y174.431 E11.2636
G1 X89.396 Y174.285 E11.30895
G1 X88.45 Y174.056 E11.35427
G1 X87.526 Y173.744 E11.39969
G1 X86.636 Y173.352 E11.44497
G1 X85.813 Y172.901 E11.48867
G1 X84.974 Y172.34 E11.53567
G1 X84.27 Y171.774 E11.57773
G1 X83.517 Y171.049 E11.6264
G1 X82.88 Y170.313 E11.67172
G1 X82.35 Y169.582 E11.71377
G1 X81.814 Y168.685 E11.76243
G1 X81.392 Y167.807 E11.80779
G1 X81.05 Y166.895 E11.85314
G1 X80.79 Y165.957 E11.89846
G1 X80.612 Y164.988 E11.94434
G1 X80.514 Y163.809 E11.99943
G1 X80.5 Y163.158 E12.02975
G1 X80.501 Y155.669 E12.37847
G1 X80.529 Y154.483 E12.43371
G1 X80.691 Y151.67 E12.56491
G1 X80.763 Y149.131 E12.68318
G1 X80.763 Y146.619 E12.80015
G1 X80.691 Y144.079 E12.91847
G1 X80.517 Y140.871 E13.06807
G1 X80.502 Y140.299 E13.09472
G1 X80.5 Y125.488 E13.78438
G1 X80.511 Y124.612 E13.82517
G1 X80.529 Y124.148 E13.84679
G1 X80.692 Y121.32 E13.9787
G1 X80.764 Y118.784 E14.09683
G1 X80.764 Y116.273 E14.21375
G1 X80.692 Y113.751 E14.33124
G1 X80.518 Y110.577 E14.47925
G1 X80.503 Y109.999 E14.50617
G1 X80.5 Y95.156 E15.19733
G1 X80.511 Y94.282 E15.23803
G1 X80.529 Y93.826 E15.25928
G1 X80.692 Y90.975 E15.39225
G1 X80.764 Y88.424 E15.51108
G1 X80.764 Y85.913 E15.628
G1 X80.692 Y83.387 E15.74567
G1 X80.52 Y80.321 E15.88866
G1 X80.504 Y79.733 E15.91605
G1 X80.501 Y72.009 E16.27571
G1 X80.513 Y71.308 E16.30836
G1 X80.573 Y70.335 E16.35375
G1 X80.72 Y69.374 E16.39902
G1 X80.951 Y68.426 E16.44446
G1 X81.253 Y67.537 E16.48818
G1 X81.66 Y66.615 E16.53511
G1 X82.131 Y65.763 E16.58044
G1 X82.676 Y64.954 E16.62586
G0 F6000 X82.987 Y65.206
G1 F1200 X83.578 Y64.478 E16.66952
G1 X84.231 Y63.804 E16.71322
G1 X84.941 Y63.19 E16.75693
G1 X85.702 Y62.641 E16.80062
G1 X86.51 Y62.162 E16.84436
G1 X87.324 Y61.771 E16.88641
G1 X88.235 Y61.428 E16.93174
G1 X89.139 Y61.178 E16.97541
G1 X90.067 Y61.008 E17.01934
G1 X91.214 Y60.913 E17.07293
G1 X91.821 Y60.9 E17.1012
G1 X142.798 Y60.9 E19.47491
G1 X143.66 Y60.912 E19.51505
G1 X144.597 Y60.968 E19.55876
G1 X145.525 Y61.107 E19.60245
G1 X146.438 Y61.328 E19.64619
G1 X147.294 Y61.616 E19.68825
G1 X148.186 Y62.006 E19.73358
G1 X149.007 Y62.459 E19.77724
G1 X149.758 Y62.961 E19.8193
G1 X150.517 Y63.573 E19.8647
G1 X151.191 Y64.226 E19.9084
G1 X151.805 Y64.935 E19.95207
G1 X152.355 Y65.696 E19.99579
G1 X152.817 Y66.472 E20.03785
G1 X153.24 Y67.349 E20.08319
G1 X153.569 Y68.227 E20.12685
G1 X153.82 Y69.132 E20.17058
G1 X153.991 Y70.059 E20.21447
G1 X154.086 Y71.189 E20.26727
G1 X154.1 Y71.83 E20.29713
G1 X154.099 Y162.895 E24.5375
G1 X154.089 Y163.64 E24.57219
G1 X154.035 Y164.577 E24.61589
G1 X153.897 Y165.506 E24.65963
G1 X153.678 Y166.418 E24.7033
G1 X153.38 Y167.308 E24.747
G1 X153.003 Y168.168 E24.79073
G1 X152.553 Y168.99 E24.83436
G1 X152.031 Y169.771 E24.8781
G1 X151.442 Y170.501 E24.92178
G1 X150.817 Y171.152 E24.9638
G1 X150.082 Y171.793 E25.00921
G1 X149.322 Y172.343 E25.0529
G1 X148.516 Y172.824 E25.0966
G1 X147.671 Y173.232 E25.1403
G1 X146.793 Y173.563 E25.18399
G1 X145.889 Y173.816 E25.2277
G1 X144.962 Y173.988 E25.2716
G1 X143.811 Y174.086 E25.32539
G1 X143.17 Y174.1 E25.35525
G1 X92.07 Y174.099 E27.73468
G1 X91.354 Y174.089 E27.76802
G1 X90.418 Y174.035 E27.81168
G1 X89.489 Y173.896 E27.85542
G1 X88.577 Y173.677 E27.89909
G1 X87.687 Y173.378 E27.94281
G1 X86.828 Y173.001 E27.98649
G1 X86.005 Y172.55 E28.03019
G1 X85.225 Y172.028 E28.07389
G1 X84.521 Y171.462 E28.11595
G1 X83.819 Y170.787 E28.1613
G1 X83.204 Y170.078 E28.20501
G1 X82.674 Y169.347 E28.24705
G1 X82.174 Y168.511 E28.29241
G1 X81.766 Y167.666 E28.3361
G1 X81.435 Y166.788 E28.37979
G1 X81.183 Y165.884 E28.42349
G1 X81.011 Y164.955 E28.46749
G1 X80.913 Y163.776 E28.52257
G1 X80.9 Y163.158 E28.55136
G1 X80.901 Y155.678 E28.89966
G1 X80.928 Y154.506 E28.95424
G1 X81.091 Y151.681 E29.08601
G1 X81.163 Y149.142 E29.20428
G1 X81.163 Y146.619 E29.32176
G1 X81.091 Y144.068 E29.4406
G1 X80.917 Y140.86 E29.59019
G1 X80.902 Y140.299 E29.61632
G1 X80.9 Y125.493 E30.30575
G1 X80.911 Y124.627 E30.34608
G1 X80.928 Y124.171 E30.36733
G1 X81.092 Y121.331 E30.49979
G1 X81.164 Y118.795 E30.61793
G1 X81.164 Y116.273 E30.73536
G1 X81.092 Y113.74 E30.85336
G1 X80.918 Y110.566 E31.00137
G1 X80.903 Y109.999 E31.02778
G1 X80.9 Y95.161 E31.7187
G1 X80.911 Y94.297 E31.75894
G1 X80.928 Y93.849 E31.77981
G1 X81.092 Y90.986 E31.91335
G1 X81.164 Y88.435 E32.03218
G1 X81.164 Y85.913 E32.14961
G1 X81.092 Y83.376 E32.26779
G1 X80.92 Y80.31 E32.41078
G1 X80.904 Y79.733 E32.43766
G1 X80.901 Y72.015 E32.79704
G1 X80.912 Y71.332 E32.82885
G1 X80.969 Y70.395 E32.87256
G1 X81.109 Y69.468 E32.91622
G1 X81.33 Y68.555 E32.95996
G1 X81.632 Y67.666 E33.00368
G1 X82.01 Y66.808 E33.04734
G1 X82.463 Y65.986 E33.09104
G1 X82.987 Y65.206 E33.13479
G0 F6000 X83.298 Y65.458
G1 F1200 X83.866 Y64.756 E33.17684
G1 X84.493 Y64.106 E33.21889
G1 X85.175 Y63.514 E33.26095
G1 X85.907 Y62.985 E33.303
G1 X86.683 Y62.523 E33.34505
G1 X87.497 Y62.132 E33.3871
G1 X88.342 Y61.813 E33.42916
G1 X89.212 Y61.571 E33.47121
G1 X90.1 Y61.407 E33.51326
G1 X91.223 Y61.313 E33.56573
G1 X91.83 Y61.3 E33.594
G1 X142.793 Y61.3 E35.96705
G1 X143.637 Y61.311 E36.00636
G1 X144.539 Y61.364 E36.04843
G1 X145.432 Y61.496 E36.09046
G1 X146.31 Y61.707 E36.13251
G1 X147.166 Y61.995 E36.17457
G1 X147.993 Y62.357 E36.2166
G1 X148.785 Y62.792 E36.25868
G1 X149.536 Y63.294 E36.30074
G1 X150.239 Y63.861 E36.34279
G1 X150.889 Y64.488 E36.38485
G1 X151.481 Y65.17 E36.4269
G1 X152.011 Y65.901 E36.46894
G1 X152.473 Y66.677 E36.511
G1 X152.866 Y67.49 E36.55304
G1 X153.184 Y68.335 E36.59508
G1 X153.427 Y69.205 E36.63715
G1 X153.592 Y70.093 E36.6792
G1 X153.687 Y71.223 E36.73201
G1 X153.7 Y71.83 E36.76028
G1 X153.699 Y162.89 E41.00041
G1 X153.69 Y163.617 E41.03427
G1 X153.639 Y164.519 E41.07633
G1 X153.508 Y165.413 E41.11841
G1 X153.299 Y166.291 E41.16043
G1 X153.013 Y167.148 E41.2025
G1 X152.652 Y167.976 E41.24456
G1 X152.22 Y168.768 E41.28657
G1 X151.719 Y169.52 E41.32865
G1 X151.153 Y170.224 E41.37071
G1 X150.528 Y170.875 E41.41273
G1 X149.847 Y171.469 E41.45481
G1 X149.116 Y172 E41.49688
G1 X148.342 Y172.464 E41.5389
G1 X147.529 Y172.858 E41.58097
G1 X146.685 Y173.178 E41.623
G1 X145.815 Y173.423 E41.66509
G1 X144.928 Y173.589 E41.7071
G1 X143.777 Y173.687 E41.76089
G1 X143.17 Y173.7 E41.78916
G1 X92.075 Y173.699 E44.16836
G1 X91.377 Y173.69 E44.20087
G1 X90.476 Y173.639 E44.24289
G1 X89.582 Y173.507 E44.28497
G1 X88.704 Y173.298 E44.32699
G1 X87.847 Y173.011 E44.36908
G1 X87.02 Y172.65 E44.41109
G1 X86.227 Y172.217 E44.45317
G1 X85.476 Y171.716 E44.4952
G1 X84.772 Y171.15 E44.53727
G1 X84.121 Y170.524 E44.57932
G1 X83.528 Y169.843 E44.62137
G1 X82.998 Y169.112 E44.66341
G1 X82.534 Y168.337 E44.70547
G1 X82.14 Y167.524 E44.74754
G1 X81.82 Y166.68 E44.78957
G1 X81.576 Y165.81 E44.83164
G1 X81.41 Y164.922 E44.87371
G1 X81.313 Y163.767 E44.92768
G1 X81.3 Y163.158 E44.95604
G1 X81.301 Y155.687 E45.30392
G1 X81.327 Y154.529 E45.35786
G1 X81.491 Y151.692 E45.49018
G1 X81.563 Y149.153 E45.60846
G1 X81.563 Y146.619 E45.72645
G1 X81.491 Y144.057 E45.8458
G1 X81.317 Y140.849 E45.99539
G1 X81.302 Y140.299 E46.02101
G1 X81.3 Y125.498 E46.71021
G1 X81.311 Y124.641 E46.75012
G1 X81.327 Y124.194 E46.77095
G1 X81.492 Y121.342 E46.90397
G1 X81.564 Y118.806 E47.0221
G1 X81.564 Y116.273 E47.14005
G1 X81.492 Y113.729 E47.25856
G1 X81.318 Y110.555 E47.40657
G1 X81.303 Y109.999 E47.43247
G1 X81.3 Y95.166 E48.12316
G1 X81.311 Y94.312 E48.16293
G1 X81.327 Y93.872 E48.18343
G1 X81.492 Y90.997 E48.31752
G1 X81.564 Y88.446 E48.43635
G1 X81.564 Y85.913 E48.5543
G1 X81.492 Y83.365 E48.67299
G1 X81.32 Y80.299 E48.81599
G1 X81.304 Y79.733 E48.84235
G1 X81.301 Y72.021 E49.20145
G1 X81.311 Y71.356 E49.23242
G1 X81.365 Y70.454 E49.2745
G1 X81.498 Y69.561 E49.31654
G1 X81.709 Y68.683 E49.35859
G1 X81.998 Y67.827 E49.40066
G1 X82.361 Y67 E49.44271
G1 X82.795 Y66.209 E49.48472
G1 X83.298 Y65.458 E49.52681
G1 F1500 E43.02681
;MESH:gah_turn_order_x1.stl
G0 F6000 X91.907 Y93.836
G0 X117.5 Y162.9
;TYPE:WALL-INNER
G1 F1500 E49.52681
G1 F1200 X142.9 Y162.9 E50.70954
G1 X142.9 Y72.1 E54.93757
G1 X92.1 Y72.1 E57.30303
G1 X92.1 Y79.232 E57.63513
G1 X94.262 Y79.24 E57.7358
G1 X94.499 Y79.271 E57.74693
G1 X94.749 Y79.239 E57.75867
G1 X102.215 Y79.236 E58.10631
G1 X102.708 Y79.303 E58.12948
G1 X103.224 Y79.438 E58.15432
G1 X103.771 Y79.697 E58.1825
G1 X104.079 Y79.893 E58.1995
G1 X104.489 Y80.232 E58.22427
G1 X104.849 Y80.614 E58.24871
G1 X105.135 Y81.066 E58.27362
G1 X105.359 Y81.537 E58.2979
G1 X105.523 Y82.048 E58.32289
G1 X105.596 Y82.673 E58.35219
G1 X105.591 Y91.737 E58.77425
G1 X105.514 Y92.317 E58.8015
G1 X105.341 Y92.838 E58.82706
G1 X105.112 Y93.322 E58.85199
G1 X104.693 Y93.896 E58.88508
G1 X104.218 Y94.349 E58.91565
G1 X103.74 Y94.649 E58.94192
G1 X103.289 Y94.86 E58.96511
G1 X102.907 Y94.982 E58.98378
G1 X102.362 Y95.087 E59.00963
G1 X94.865 Y95.1 E59.35872
G1 X94.498 Y95.061 E59.3759
G1 X94.187 Y95.092 E59.39046
G1 X92.1 Y95.1 E59.48764
G1 X92.1 Y109.564 E60.16114
G1 X94.255 Y109.575 E60.26149
G1 X94.499 Y109.604 E60.27293
G1 X94.749 Y109.575 E60.28465
G1 X102.026 Y109.564 E60.6235
G1 X102.528 Y109.595 E60.64692
G1 X103.139 Y109.749 E60.67626
G1 X103.523 Y109.904 E60.69554
G1 X103.913 Y110.117 E60.71623
G1 X104.366 Y110.444 E60.74225
G1 X104.843 Y110.943 E60.77439
G1 X105.143 Y111.411 E60.80028
G1 X105.341 Y111.826 E60.82169
G1 X105.525 Y112.388 E60.84922
G1 X105.595 Y112.96 E60.87606
G1 X105.591 Y122.073 E61.30039
G1 X105.525 Y122.604 E61.32531
G1 X105.341 Y123.17 E61.35302
G1 X105.106 Y123.67 E61.37875
G1 X104.722 Y124.196 E61.40907
G1 X104.264 Y124.628 E61.43839
G1 X103.925 Y124.876 E61.45795
G1 X103.549 Y125.083 E61.47794
G1 X103.119 Y125.256 E61.49952
G1 X102.666 Y125.368 E61.52125
G1 X102.224 Y125.423 E61.54199
G1 X94.865 Y125.432 E61.88465
G1 X94.498 Y125.393 E61.90184
G1 X94.187 Y125.424 E61.91639
G1 X92.1 Y125.432 E62.01357
G1 X92.1 Y139.9 E62.68726
G1 X94.255 Y139.907 E62.78761
G1 X94.499 Y139.936 E62.79905
G1 X94.749 Y139.907 E62.81077
G1 X102.215 Y139.904 E63.15842
G1 X102.761 Y139.973 E63.18404
G1 X103.314 Y140.145 E63.21101
G1 X103.854 Y140.403 E63.23888
G1 X104.371 Y140.781 E63.2687
G1 X104.833 Y141.262 E63.29975
G1 X105.157 Y141.771 E63.32785
G1 X105.341 Y142.157 E63.34776
G1 X105.514 Y142.679 E63.37337
G1 X105.595 Y143.291 E63.40211
G1 X105.591 Y152.392 E63.82589
G1 X105.523 Y152.949 E63.85202
G1 X105.358 Y153.457 E63.87689
G1 X105.106 Y154 E63.90477
G1 X104.746 Y154.492 E63.93316
G1 X104.494 Y154.76 E63.95029
G1 X104.142 Y155.056 E63.9717
G1 X103.641 Y155.381 E63.99951
G1 X103.149 Y155.575 E64.02414
G1 X102.706 Y155.693 E64.04548
G1 X102.271 Y155.755 E64.06594
G1 X94.865 Y155.764 E64.4108
G1 X94.502 Y155.725 E64.4278
G1 X94.249 Y155.757 E64.43967
G1 X92.1 Y155.763 E64.53974
G1 X92.1 Y162.9 E64.87207
G1 X117.5 Y162.9 E66.0548
G0 F6000 X117.5 Y163.3
;TYPE:WALL-OUTER
G1 F1200 X143.3 Y163.3 E67.25615
G1 X143.3 Y71.7 E71.52143
G1 X91.7 Y71.7 E73.92415
G1 X91.7 Y79.632 E74.29349
G1 X94.212 Y79.637 E74.41046
G1 X94.499 Y79.674 E74.42394
G1 X94.791 Y79.637 E74.43764
G1 X102.165 Y79.633 E74.78101
G1 X102.607 Y79.69 E74.80176
G1 X103.101 Y79.822 E74.82557
G1 X103.533 Y80.022 E74.84774
G1 X103.884 Y80.245 E74.8671
G1 X104.198 Y80.506 E74.88611
G1 X104.541 Y80.876 E74.9096
G1 X104.809 Y81.302 E74.93304
G1 X104.979 Y81.661 E74.95154
G1 X105.135 Y82.151 E74.97548
G1 X105.196 Y82.66 E74.99935
G1 X105.191 Y91.712 E75.42085
G1 X105.133 Y92.192 E75.44336
G1 X104.973 Y92.682 E75.46737
G1 X104.753 Y93.143 E75.49115
G1 X104.404 Y93.62 E75.51867
G1 X103.978 Y94.025 E75.54604
G1 X103.533 Y94.306 E75.57055
G1 X103.166 Y94.479 E75.58944
G1 X102.782 Y94.601 E75.6082
G1 X102.308 Y94.691 E75.63067
G1 X94.824 Y94.698 E75.97916
G1 X94.499 Y94.658 E75.9944
G1 X94.205 Y94.691 E76.00818
G1 X91.7 Y94.699 E76.12482
G1 X91.7 Y109.982 E76.83646
G1 X91.993 Y109.964 E76.85013
G1 X94.209 Y109.973 E76.95332
G1 X94.499 Y110.006 E76.96691
G1 X94.791 Y109.973 E76.98059
G1 X102.017 Y109.964 E77.31707
G1 X102.493 Y109.994 E77.33927
G1 X103.003 Y110.126 E77.36381
G1 X103.359 Y110.269 E77.38167
G1 X103.719 Y110.467 E77.4008
G1 X104.12 Y110.76 E77.42393
G1 X104.537 Y111.201 E77.45219
G1 X104.809 Y111.634 E77.476
G1 X104.976 Y111.989 E77.49427
G1 X105.133 Y112.468 E77.51774
G1 X105.196 Y113 E77.54268
G1 X105.191 Y122.049 E77.96404
G1 X105.131 Y122.532 E77.98671
G1 X104.973 Y123.014 E78.01032
G1 X104.75 Y123.478 E78.0343
G1 X104.408 Y123.948 E78.06136
G1 X104.027 Y124.306 E78.08571
G1 X103.711 Y124.538 E78.10396
G1 X103.358 Y124.731 E78.12269
G1 X102.973 Y124.883 E78.14197
G1 X102.614 Y124.971 E78.15918
G1 X102.2 Y125.024 E78.17861
G1 X94.824 Y125.03 E78.52207
G1 X94.499 Y124.99 E78.53732
G1 X94.205 Y125.023 E78.55109
G1 X91.7 Y125.031 E78.66774
G1 X91.7 Y140.3 E79.37873
G1 X94.209 Y140.305 E79.49556
G1 X94.499 Y140.338 E79.50915
G1 X94.791 Y140.305 E79.52283
G1 X102.159 Y140.3 E79.86592
G1 X102.708 Y140.371 E79.89169
G1 X103.182 Y140.523 E79.91487
G1 X103.637 Y140.739 E79.93832
G1 X104.116 Y141.089 E79.96595
G1 X104.526 Y141.519 E79.99361
G1 X104.809 Y141.97 E80.01841
G1 X104.979 Y142.329 E80.0369
G1 X105.133 Y142.804 E80.06015
G1 X105.196 Y143.323 E80.0845
G1 X105.191 Y152.38 E80.50623
G1 X105.132 Y152.863 E80.52889
G1 X104.97 Y153.353 E80.55292
G1 X104.761 Y153.798 E80.57581
G1 X104.454 Y154.218 E80.60004
G1 X104.184 Y154.503 E80.61832
G1 X103.868 Y154.761 E80.63731
G1 X103.438 Y155.031 E80.66095
G1 X103.002 Y155.203 E80.68278
G1 X102.583 Y155.311 E80.70293
G1 X102.219 Y155.359 E80.72002
G1 X94.84 Y155.363 E81.06362
