;FLAVOR:Marlin
;TIME:13807
;Filament used: 14.0396m
;Layer height: 0.28
;MINX:0
;MINY:66.5
;MINZ:0.28
;MAXX:235
;MAXY:168.5
;MAXZ:31.92
;TARGET_MACHINE.NAME:Creality CR-6 SE
;Generated with Cura_SteamEngine 5.8.1
M140 S60
M105
M190 S60
M104 S200
M105
M109 S200
M82 ;absolute extrusion mode
M201 X500.00 Y500.00 Z100.00 E5000.00 ;Setup machine max acceleration
M203 X500.00 Y500.00 Z10.00 E50.00 ;Setup machine max feedrate
M204 P500.00 R1000.00 T500.00 ;Setup Print/Retract/Travel acceleration
M205 X8.00 Y8.00 Z0.40 E5.00 ;Setup Jerk
M220 S100 ;Reset Feedrate
M221 S100 ;Reset Flowrate

G28 ;Home

G92 E0 ;Reset Extruder
G1 Z2.0 F3000 ;Move Z Axis up
G1 X10.1 Y20 Z0.28 F5000.0 ;Move to start position
G1 X10.1 Y200.0 Z0.28 F1500.0 E15 ;Draw the first line
G1 X10.4 Y200.0 Z0.28 F5000.0 ;Move to side a little
G1 X10.4 Y20 Z0.28 F1500.0 E30 ;Draw the second line
G92 E0 ;Reset Extruder
G1 Z2.0 F3000 ;Move Z Axis up

G92 E0
G92 E0
G1 F1500 E-6.5
;LAYER_COUNT:114
;LAYER:0
M107
G0 F6000 X0.00 Y70.555 Z0.28
;TYPE:SKIRT
G1 F1500 E0
G1 F1200 X0.267 Y70.226 E0.01973
G1 X0.969 Y69.501 E0.06672
G1 X1.679 Y68.887 E0.11043
G1 X2.498 Y68.297 E0.15743
G1 X3.337 Y67.801 E0.20281
G1 X4.151 Y67.41 E0.24486
G1 X5.128 Y67.042 E0.29348
G1 X6.032 Y66.792 E0.33715
G1 X7.034 Y66.609 E0.38458
G1 X8.205 Y66.513 E0.43929
G1 X8.812 Y66.5 E0.46756
G1 X225.804 Y66.5 E10.57162
G1 X226.684 Y66.513 E10.6126
G1 X227.656 Y66.572 E10.65794
G1 X228.619 Y66.718 E10.7033
G1 X229.566 Y66.949 E10.74868
G1 X230.454 Y67.249 E10.79233
G1 X231.346 Y67.639 E10.83766
G1 X232.229 Y68.126 E10.88462
G1 X232.98 Y68.628 E10.92668
G1 X233.795 Y69.286 E10.97545
G1 X234.493 Y69.964 E11.02076
G1 X235 Y70.551 E11.05688
G0 F6000 X235 Y71.204
G1 F1200 X234.805 Y70.935 E11.07235
G1 X234.191 Y70.226 E11.11603
G1 X233.517 Y69.573 E11.15972
G1 X232.758 Y68.961 E11.20512
G1 X232.007 Y68.459 E11.24719
G1 X231.186 Y68.006 E11.29085
G1 X230.294 Y67.616 E11.33618
G1 X229.438 Y67.328 E11.37823
G1 X228.525 Y67.107 E11.42198
G1 X227.597 Y66.968 E11.46567
G1 X226.66 Y66.912 E11.50938
G1 X225.798 Y66.9 E11.54952
G1 X8.821 Y66.9 E21.65288
G1 X8.214 Y66.913 E21.68115
G1 X7.067 Y67.008 E21.73474
G1 X6.139 Y67.178 E21.77867
G1 X5.235 Y67.428 E21.82235
G1 X4.324 Y67.771 E21.86767
G1 X3.51 Y68.162 E21.90972
G1 X2.702 Y68.641 E21.95346
G1 X1.941 Y69.19 E21.99715
G1 X1.231 Y69.804 E22.04086
G1 X0.578 Y70.478 E22.08456
G1 X0.00 Y71.19 E22.12726
G0 F6000 X0.00 Y71.903
G1 F1200 X0.298 Y71.458 E22.1522
G1 X0.866 Y70.756 E22.19425
G1 X1.493 Y70.106 E22.2363
G1 X2.175 Y69.514 E22.27835
G1 X2.907 Y68.985 E22.32041
G1 X3.683 Y68.523 E22.36246
G1 X4.497 Y68.132 E22.40451
G1 X5.342 Y67.813 E22.44657
G1 X6.212 Y67.571 E22.48862
G1 X7.1 Y67.407 E22.53067
G1 X8.223 Y67.313 E22.58314
G1 X8.83 Y67.3 E22.61141
G1 X225.793 Y67.3 E32.71412
G1 X226.637 Y67.311 E32.75342
G1 X227.539 Y67.364 E32.79549
G1 X228.432 Y67.496 E32.83753
G1 X229.31 Y67.707 E32.87957
G1 X230.166 Y67.995 E32.92163
G1 X230.993 Y68.357 E32.96367
G1 X231.785 Y68.792 E33.00574
G1 X232.536 Y69.294 E33.0478
G1 X233.239 Y69.861 E33.08986
G1 X233.889 Y70.488 E33.13191
G1 X234.481 Y71.17 E33.17396
G1 X235 Y71.886 E33.21514
G1 F1500 E26.71514
G0 F6000 X235 Y111.167
G1 F1500 E33.21514
G1 F1200 X234.856 Y113.713 E33.33388
G1 X234.784 Y116.246 E33.45188
G1 X234.784 Y118.78 E33.56987
G1 X234.856 Y121.313 E33.68787
G1 X235 Y123.853 E33.80633
G1 F1500 E27.30633
G0 F6000 X235 Y164.445
G1 F1500 E33.80633
G1 F1200 X234.731 Y164.778 E33.82626
G1 X234.106 Y165.429 E33.86828
G1 X233.317 Y166.117 E33.91703
G1 X232.557 Y166.667 E33.96071
G1 X231.69 Y167.184 E34.00772
G1 X230.812 Y167.606 E34.05308
G1 X229.901 Y167.948 E34.09839
G1 X228.962 Y168.209 E34.14377
G1 X227.996 Y168.387 E34.18951
G1 X226.845 Y168.485 E34.2433
G1 X226.17 Y168.5 E34.27474
G1 X9.064 Y168.499 E44.3841
G1 X8.331 Y168.488 E44.41824
G1 X7.359 Y168.431 E44.46357
G1 X6.396 Y168.285 E44.50893
G1 X5.45 Y168.056 E44.55425
G1 X4.526 Y167.744 E44.59966
G1 X3.636 Y167.352 E44.64495
G1 X2.813 Y166.901 E44.68864
G1 X1.974 Y166.34 E44.73564
G1 X1.27 Y165.774 E44.7777
G1 X0.517 Y165.049 E44.82638
G1 X0.00 Y164.452 E44.86315
G0 F6000 X0.00 Y163.797
G1 F1200 X0.204 Y164.078 E44.87932
G1 X0.819 Y164.787 E44.92302
G1 X1.521 Y165.462 E44.96837
G1 X2.225 Y166.028 E45.01043
G1 X3.005 Y166.55 E45.05413
G1 X3.828 Y167.001 E45.09783
G1 X4.687 Y167.378 E45.14152
G1 X5.577 Y167.677 E45.18523
G1 X6.489 Y167.896 E45.22891
G1 X7.418 Y168.035 E45.27265
G1 X8.354 Y168.089 E45.3163
G1 X9.07 Y168.099 E45.34965
G1 X226.17 Y168.1 E55.45873
G1 X226.811 Y168.086 E55.48859
G1 X227.962 Y167.988 E55.54238
G1 X228.889 Y167.816 E55.58628
G1 X229.793 Y167.563 E55.62999
G1 X230.671 Y167.232 E55.67368
G1 X231.516 Y166.824 E55.71738
G1 X232.322 Y166.343 E55.76108
G1 X233.082 Y165.793 E55.80476
G1 X233.817 Y165.152 E55.85018
G1 X234.442 Y164.501 E55.8922
G1 X235 Y163.809 E55.93359
G0 F6000 X235 Y163.098
G1 F1200 X234.719 Y163.52 E55.9572
G1 X234.153 Y164.224 E55.99926
G1 X233.528 Y164.875 E56.04128
G1 X232.847 Y165.469 E56.08336
G1 X232.116 Y166 E56.12543
G1 X231.342 Y166.464 E56.16745
G1 X230.529 Y166.858 E56.20952
G1 X229.685 Y167.178 E56.25155
G1 X228.815 Y167.423 E56.29364
G1 X227.928 Y167.589 E56.33566
G1 X226.777 Y167.687 E56.38945
G1 X226.17 Y167.7 E56.41772
G1 X9.075 Y167.699 E66.52657
G1 X8.377 Y167.69 E66.55907
G1 X7.476 Y167.639 E66.6011
G1 X6.582 Y167.507 E66.64318
G1 X5.704 Y167.298 E66.6852
G1 X4.847 Y167.011 E66.72729
G1 X4.02 Y166.65 E66.7693
G1 X3.227 Y166.217 E66.81137
G1 X2.476 Y165.716 E66.85341
G1 X1.772 Y165.15 E66.89547
G1 X1.121 Y164.524 E66.93753
G1 X0.528 Y163.843 E66.97957
G1 X0.00 Y163.115 E67.02145
G1 F1500 E60.52145
G0 F6000 X0.00 Y123.833
G1 F1500 E67.02145
G1 F1200 X0.144 Y121.287 E67.14019
G1 X0.216 Y118.754 E67.25819
G1 X0.216 Y116.22 E67.37618
G1 X0.144 Y113.687 E67.49418
G1 X0.00 Y111.147 E67.61264
G1 F1500 E61.11264
;MESH:gah_lg_misc_x1.stl
G0 F6000 X30.43 Y111.15
G0 X117.5 Y156.9
;TYPE:WALL-INNER
G1 F1500 E67.61264
G1 F1200 X225.9 Y156.9 E72.6602
G1 X225.9 Y137.6 E73.55889
G1 X206.707 Y137.593 E74.45259
G1 X206.132 Y137.526 E74.47955
G1 X205.574 Y137.346 E74.50685
G1 X205.078 Y137.114 E74.53235
G1 X204.498 Y136.691 E74.56577
G1 X204.061 Y136.231 E74.59532
G1 X203.723 Y135.693 E74.6249
G1 X203.553 Y135.325 E74.64378
G1 X203.386 Y134.82 E74.66855
G1 X203.305 Y134.203 E74.69752
G1 X203.308 Y100.731 E76.25612
G1 X203.384 Y100.188 E76.28165
G1 X203.544 Y99.689 E76.30605
G1 X203.79 Y99.163 E76.33309
G1 X204.18 Y98.626 E76.36399
G1 X204.663 Y98.163 E76.39515
G1 X205.168 Y97.841 E76.42304
G1 X205.575 Y97.649 E76.44399
G1 X205.971 Y97.52 E76.46338
G1 X206.559 Y97.406 E76.49127
G1 X225.9 Y97.4 E77.39187
G1 X225.9 Y78.1 E78.29056
G1 X9.1 Y78.1 E88.38568
G1 X9.1 Y97.4 E89.28437
G1 X28.327 Y97.405 E90.17966
G1 X28.883 Y97.478 E90.20577
G1 X29.424 Y97.649 E90.23219
G1 X29.952 Y97.902 E90.25945
G1 X30.498 Y98.305 E90.29105
G1 X30.935 Y98.765 E90.32059
G1 X31.255 Y99.267 E90.34831
G1 X31.441 Y99.658 E90.36848
G1 X31.614 Y100.181 E90.39413
G1 X31.695 Y100.792 E90.42283
G1 X31.691 Y134.236 E91.98012
G1 X31.614 Y134.815 E92.00732
G1 X31.451 Y135.314 E92.03176
G1 X31.195 Y135.85 E92.05942
G1 X30.816 Y136.37 E92.08938
G1 X30.333 Y136.833 E92.12054
G1 X29.83 Y137.154 E92.14832
G1 X29.426 Y137.346 E92.16915
G1 X28.993 Y137.486 E92.19034
G1 X28.437 Y137.59 E92.21668
G1 X9.1 Y137.6 E93.11709
G1 X9.1 Y156.9 E94.01578
G1 X117.5 Y156.9 E99.06334
G0 F6000 X117.5 Y157.3
;TYPE:WALL-OUTER
G1 F1200 X226.3 Y157.3 E104.12952
G1 X226.3 Y137.2 E105.06546
G1 X206.684 Y137.191 E105.97886
G1 X206.206 Y137.133 E106.00128
G1 X205.711 Y136.97 E106.02555
G1 X205.271 Y136.764 E106.04817
G1 X204.771 Y136.399 E106.077
G1 X204.369 Y135.976 E106.10417
G1 X204.086 Y135.525 E106.12896
G1 X203.925 Y135.178 E106.14678
G1 X203.767 Y134.695 E106.17044
G1 X203.704 Y134.156 E106.19571
G1 X203.705 Y100.782 E107.74974
G1 X203.77 Y100.292 E107.77276
G1 X203.926 Y99.811 E107.7963
G1 X204.135 Y99.366 E107.8192
G1 X204.489 Y98.88 E107.84719
G1 X204.919 Y98.47 E107.87486
G1 X205.36 Y98.192 E107.89913
G1 X205.722 Y98.021 E107.91778
G1 X206.118 Y97.895 E107.93713
G1 X206.597 Y97.804 E107.95983
G1 X226.3 Y97.8 E108.87728
G1 X226.3 Y77.7 E109.81322
G1 X8.7 Y77.7 E119.94559
G1 X8.7 Y97.8 E120.88153
G1 X28.314 Y97.805 E121.79484
G1 X28.796 Y97.868 E121.81748
G1 X29.278 Y98.021 E121.84102
G1 X29.725 Y98.232 E121.86404
G1 X30.225 Y98.597 E121.89287
G1 X30.627 Y99.02 E121.92004
G1 X30.904 Y99.459 E121.94421
G1 X31.079 Y99.829 E121.96327
G1 X31.233 Y100.305 E121.98656
G1 X31.296 Y100.832 E122.01128
G1 X31.291 Y134.212 E123.56559
G1 X31.233 Y134.691 E123.58806
G1 X31.073 Y135.182 E123.61211
G1 X30.864 Y135.625 E123.63491
G1 X30.507 Y136.116 E123.66318
G1 X30.077 Y136.526 E123.69085
G1 X29.637 Y136.804 E123.71508
G1 X29.266 Y136.979 E123.73418
G1 X28.882 Y137.101 E123.75294
G1 X28.399 Y137.192 E123.77583
G1 X8.7 Y137.2 E124.6931
G1 X8.7 Y157.3 E125.62904
G1 X117.5 Y157.3 E130.69522
G0 F6000 X117.5 Y156.54
;TYPE:SKIN
G1 F1200 X9.46 Y156.54 E135.72602
G1 X9.46 Y137.96 E136.59118
G1 X28.475 Y137.948 E137.4766
G1 X29.066 Y137.837 E137.5046
G1 X29.562 Y137.679 E137.52884
G1 X29.941 Y137.502 E137.54832
G1 X30.528 Y137.139 E137.58045
G1 X31.062 Y136.638 E137.61455
G1 X31.516 Y136.021 E137.65022
G1 X31.787 Y135.442 E137.67999
G1 X31.977 Y134.859 E137.70854
G1 X32.051 Y134.236 E137.73775
G1 X32.056 Y100.791 E139.29509
G1 X31.972 Y100.12 E139.32658
G1 X31.782 Y99.546 E139.35473
G1 X31.572 Y99.1 E139.37769
G1 X31.21 Y98.527 E139.40925
G1 X30.723 Y98.026 E139.44178
G1 X30.115 Y97.578 E139.47695
G1 X29.55 Y97.309 E139.50609
G1 X28.964 Y97.12 E139.53476
G1 X28.361 Y97.045 E139.56305
G1 X9.461 Y97.04 E140.44311
G1 X9.461 Y78.461 E141.30823
G1 X225.54 Y78.46 E151.36977
G1 X225.54 Y97.04 E152.23494
G1 X206.521 Y97.044 E153.12054
G1 X205.914 Y97.158 E153.1493
G1 X205.454 Y97.305 E153.17179
G1 X204.999 Y97.52 E153.19522
G1 X204.483 Y97.845 E153.22362
G1 X203.917 Y98.368 E153.2595
G1 X203.476 Y98.983 E153.29474
G1 X203.219 Y99.522 E153.32254
G1 X203.018 Y100.165 E153.35391
G1 X202.945 Y100.735 E153.38067
G1 X202.944 Y134.229 E154.94029
G1 X203.022 Y134.858 E154.96981
G1 X203.213 Y135.454 E154.99895
G1 X203.424 Y135.901 E155.02196
G1 X203.767 Y136.44 E155.05171
G1 X204.238 Y136.942 E155.08377
G1 X204.859 Y137.405 E155.11984
G1 X205.442 Y137.683 E155.14991
G1 X206.053 Y137.876 E155.17975
G1 X206.644 Y137.947 E155.20746
G1 X225.54 Y137.96 E156.08734
G1 X225.54 Y156.54 E156.9525
G1 X117.5 Y156.54 E161.9833
G1 F1500 E155.4833
G0 F6000 X117.5 Y156.8
G0 X9.272 Y156.728
G0 X9.2 Y156.173
G0 X9.66 Y156.173
G1 F1500 E161.9833
G1 F1200 X9.827 Y156.34 E161.9943
G0 F6000 X10.393 Y156.34
G1 F1200 X9.66 Y155.607 E162.04257
G0 F6000 X9.66 Y155.042
G1 F1200 X10.959 Y156.34 E162.12807
G0 F6000 X11.524 Y156.34
G1 F1200 X9.66 Y154.476 E162.25082
G0 F6000 X9.66 Y153.91
G1 F1200 X12.09 Y156.34 E162.41084
G0 F6000 X12.656 Y156.34
G1 F1200 X9.66 Y153.345 E162.6081
G0 F6000 X9.66 Y152.779
G1 F1200 X13.221 Y156.34 E162.8426
G0 F6000 X13.787 Y156.34
G1 F1200 X9.66 Y152.213 E163.11437
G0 F6000 X9.66 Y151.648
G1 F1200 X14.353 Y156.34 E163.42338
G0 F6000 X14.919 Y156.34
G1 F1200 X9.66 Y151.082 E163.76966
G0 F6000 X9.66 Y150.516
G1 F1200 X15.484 Y156.34 E164.15318
G0 F6000 X16.05 Y156.34
G1 F1200 X9.66 Y149.95 E164.57397
G0 F6000 X9.66 Y149.385
G1 F1200 X16.616 Y156.34 E165.032
G0 F6000 X17.181 Y156.34
G1 F1200 X9.66 Y148.819 E165.52727
G0 F6000 X9.66 Y148.253
G1 F1200 X17.747 Y156.34 E166.05982
G0 F6000 X18.313 Y156.34
G1 F1200 X9.66 Y147.688 E166.6296
G0 F6000 X9.66 Y147.122
G1 F1200 X18.878 Y156.34 E167.23662
G0 F6000 X19.444 Y156.34
G1 F1200 X9.66 Y146.556 E167.88091
G0 F6000 X9.66 Y145.991
G1 F1200 X20.01 Y156.34 E168.56244
G0 F6000 X20.575 Y156.34
G1 F1200 X9.66 Y145.425 E169.28122
G0 F6000 X9.66 Y144.859
G1 F1200 X21.141 Y156.34 E170.03726
G0 F6000 X21.707 Y156.34
G1 F1200 X9.66 Y144.294 E170.83054
G0 F6000 X9.66 Y143.728
G1 F1200 X22.272 Y156.34 E171.66106
G0 F6000 X22.838 Y156.34
G1 F1200 X9.66 Y143.162 E172.52886
G0 F6000 X9.66 Y142.597
G1 F1200 X23.404 Y156.34 E173.43389
G0 F6000 X23.97 Y156.34
G1 F1200 X9.66 Y142.031 E174.3762
G0 F6000 X9.66 Y141.465
G1 F1200 X24.535 Y156.34 E175.35574
G0 F6000 X25.101 Y156.34
G1 F1200 X9.66 Y140.9 E176.37252
G0 F6000 X9.66 Y140.334
G1 F1200 X25.667 Y156.34 E177.42658
G0 F6000 X26.232 Y156.34
G1 F1200 X9.66 Y139.768 E178.51787
G0 F6000 X9.66 Y139.202
G1 F1200 X26.798 Y156.34 E179.64644
G0 F6000 X27.364 Y156.34
G1 F1200 X9.66 Y138.637 E180.81224
G0 F6000 X9.75 Y138.16
G1 F1200 X27.929 Y156.34 E182.0094
G0 F6000 X28.495 Y156.34
G1 F1200 X10.315 Y138.16 E183.20658
G0 F6000 X10.88 Y138.159
G1 F1200 X29.061 Y156.34 E184.40383
G0 F6000 X29.626 Y156.34
G1 F1200 X11.446 Y138.159 E185.60105
G0 F6000 X12.011 Y138.159
G1 F1200 X30.192 Y156.34 E186.7983
G0 F6000 X30.758 Y156.34
G1 F1200 X12.577 Y138.159 E187.99555
G0 F6000 X13.142 Y138.158
G1 F1200 X31.323 Y156.34 E189.19283
G0 F6000 X31.889 Y156.34
G1 F1200 X13.707 Y138.157 E190.39018
G0 F6000 X14.272 Y138.157
G1 F1200 X32.455 Y156.34 E191.58756
G0 F6000 X33.02 Y156.34
G1 F1200 X14.837 Y138.157 E192.78494
G0 F6000 X15.403 Y138.157
G1 F1200 X33.586 Y156.34 E193.98232
G0 F6000 X34.152 Y156.34
G1 F1200 X15.968 Y138.156 E195.17977
G0 F6000 X16.534 Y138.156
G1 F1200 X34.718 Y156.34 E196.37722
G0 F6000 X35.283 Y156.34
G1 F1200 X17.099 Y138.155 E197.5747
G0 F6000 X17.664 Y138.155
G1 F1200 X35.849 Y156.34 E198.77221
G0 F6000 X36.415 Y156.34
G1 F1200 X18.229 Y138.155 E199.96976
G0 F6000 X18.794 Y138.154
G1 F1200 X36.98 Y156.34 E201.16734
G0 F6000 X37.546 Y156.34
G1 F1200 X19.36 Y138.154 E202.36492
G0 F6000 X19.925 Y138.153
G1 F1200 X38.112 Y156.34 E203.56256
G0 F6000 X38.677 Y156.34
G1 F1200 X20.491 Y138.153 E204.76017
G0 F6000 X21.056 Y138.152
G1 F1200 X39.243 Y156.34 E205.95785
G0 F6000 X39.809 Y156.34
G1 F1200 X21.62 Y138.152 E207.15559
G0 F6000 X22.186 Y138.152
G1 F1200 X40.374 Y156.34 E208.35331
G0 F6000 X40.94 Y156.34
G1 F1200 X22.751 Y138.151 E209.55108
G0 F6000 X23.317 Y138.151
G1 F1200 X41.506 Y156.34 E210.74886
G0 F6000 X42.071 Y156.34
G1 F1200 X23.882 Y138.15 E211.94667
G0 F6000 X24.448 Y138.15
G1 F1200 X42.637 Y156.34 E213.14448
G0 F6000 X43.203 Y156.34
G1 F1200 X25.012 Y138.15 E214.34235
G0 F6000 X25.577 Y138.149
G1 F1200 X43.768 Y156.34 E215.54026
G0 F6000 X44.334 Y156.34
G1 F1200 X26.143 Y138.149 E216.73817
G0 F6000 X26.708 Y138.148
G1 F1200 X44.9 Y156.34 E217.93614
G0 F6000 X45.466 Y156.34
G1 F1200 X27.274 Y138.148 E219.13412
G0 F6000 X27.839 Y138.147
G1 F1200 X46.031 Y156.34 E220.33213
G0 F6000 X46.597 Y156.34
G1 F1200 X28.404 Y138.147 E221.53017
G0 F6000 X28.896 Y138.073
G1 F1200 X47.163 Y156.34 E222.73308
G0 F6000 X47.728 Y156.34
G1 F1200 X29.346 Y137.957 E223.9436
G0 F6000 X29.761 Y137.807
G1 F1200 X48.294 Y156.34 E225.16403
G0 F6000 X48.86 Y156.34
G1 F1200 X30.135 Y137.616 E226.39707
G0 F6000 X30.485 Y137.399
G1 F1200 X49.425 Y156.34 E227.64433
G0 F6000 X49.991 Y156.34
G1 F1200 X30.804 Y137.153 E228.90783
G0 F6000 X31.096 Y136.88
G1 F1200 X50.557 Y156.34 E230.18934
G0 F6000 X51.122 Y156.34
G1 F1200 X31.357 Y136.574 E231.49093
G0 F6000 X31.598 Y136.25
G1 F1200 X51.688 Y156.34 E232.81389
G0 F6000 X52.254 Y156.34
G1 F1200 X31.8 Y135.886 E234.16082
G0 F6000 X31.978 Y135.499
G1 F1200 X52.819 Y156.34 E235.53324
G0 F6000 X53.385 Y156.34
G1 F1200 X32.115 Y135.07 E236.9339
G0 F6000 X32.209 Y134.598
G1 F1200 X53.951 Y156.34 E238.36565
G0 F6000 X54.517 Y156.34
G1 F1200 X32.25 Y134.073 E239.83197
G0 F6000 X32.25 Y133.507
G1 F1200 X55.082 Y156.34 E241.33553
G0 F6000 X55.648 Y156.34
G1 F1200 X32.25 Y132.942 E242.87633
G0 F6000 X32.25 Y132.376
G1 F1200 X56.214 Y156.34 E244.4544
G0 F6000 X56.779 Y156.34
G1 F1200 X32.25 Y131.81 E246.06971
G0 F6000 X32.25 Y131.245
G1 F1200 X57.345 Y156.34 E247.72226
G0 F6000 X57.911 Y156.34
G1 F1200 X32.25 Y130.679 E249.41208
G0 F6000 X32.25 Y130.113
G1 F1200 X58.476 Y156.34 E251.13914
G0 F6000 X59.042 Y156.34
G1 F1200 X32.25 Y129.548 E252.90343
G0 F6000 X32.25 Y128.983
G1 F1200 X59.608 Y156.34 E254.70497
G0 F6000 X60.173 Y156.34
G1 F1200 X32.25 Y128.417 E256.54375
G0 F6000 X32.25 Y127.851
