;FLAVOR:Marlin
;TIME:16467
;Filament used: 10.6723m
;Layer height: 0.2
;MINX:22.885
;MINY:21.8
;MINZ:0.2
;MAXX:212.103
;MAXY:214.065
;MAXZ:6
;Generated with Cura_SteamEngine 5.2.1
M140 S60
M105
M190 S60
M104 S200
M105
M109 S200
M82 ;absolute extrusion mode
M201 X500.00 Y500.00 Z100.00 E5000.00 ;Setup machine max acceleration
M203 X500.00 Y500.00 Z10.00 E50.00 ;Setup machine max feedrate
M204 P500.00 R1000.00 T500.00 ;Setup Print/Retract/Travel acceleration
M205 X8.00 Y8.00 Z0.40 E5.00 ;Setup Jerk
M220 S100 ;Reset Feedrate
M221 S100 ;Reset Flowrate

G28 ;Home

G92 E0 ;Reset Extruder
G1 Z2.0 F3000 ;Move Z Axis up
G1 X10.1 Y20 Z0.28 F5000.0 ;Move to start position
G1 X10.1 Y200.0 Z0.28 F1500.0 E15 ;Draw the first line
G1 X10.4 Y200.0 Z0.28 F5000.0 ;Move to side a little
G1 X10.4 Y20 Z0.28 F1500.0 E30 ;Draw the second line
G92 E0 ;Reset Extruder
G1 Z2.0 F3000 ;Move Z Axis up

G92 E0
G92 E0
G1 F1500 E-6.5
;LAYER_COUNT:30
;LAYER:0
M107
;MESH:Anno-Grid_1.stl
G0 F6000 X58.967 Y60.952 Z0.2
;TYPE:WALL-INNER
G1 F1500 E0
G1 F1200 X58.555 Y61.033 E0.01397
G1 X58.139 Y61.083 E0.0279
G1 X57.723 Y61.098 E0.04175
G1 X35.65 Y61.098 E0.7759
G1 X35.25 Y61.082 E0.78921
G1 X34.84 Y61.033 E0.80295
G1 X34.403 Y60.946 E0.81777
G1 X34.041 Y60.843 E0.83028
G1 X33.654 Y60.701 E0.84399
G1 X33.235 Y60.508 E0.85934
G1 X32.911 Y60.328 E0.87167
G1 X32.52 Y60.067 E0.8873
G1 X32.229 Y59.835 E0.89968
G1 X31.891 Y59.522 E0.915
G1 X31.605 Y59.212 E0.92903
G1 X31.376 Y58.92 E0.94137
G1 X31.143 Y58.575 E0.95522
G1 X30.916 Y58.169 E0.97069
G1 X30.762 Y57.833 E0.98298
G1 X30.604 Y57.406 E0.99813
G1 X30.5 Y57.041 E1.01075
G1 X30.414 Y56.615 E1.0252
G1 X30.362 Y56.165 E1.04027
G1 X30.349 Y55.796 E1.05255
G1 X30.348 Y33.723 E1.7867
G1 X30.362 Y33.33 E1.79978
G1 X30.41 Y32.912 E1.81378
G1 X30.5 Y32.453 E1.82933
G1 X30.603 Y32.091 E1.84185
G1 X30.745 Y31.704 E1.85556
G1 X30.916 Y31.327 E1.86933
G1 X31.12 Y30.96 E1.8833
G1 X31.348 Y30.613 E1.89711
G1 X31.639 Y30.247 E1.91266
G1 X31.908 Y29.957 E1.92581
G1 X32.218 Y29.67 E1.93986
G1 X32.547 Y29.412 E1.95377
G1 X32.869 Y29.195 E1.96669
G1 X33.277 Y28.967 E1.98223
G1 X33.638 Y28.803 E1.99542
G1 X33.997 Y28.669 E2.00816
G1 X34.453 Y28.539 E2.02393
G1 X34.825 Y28.465 E2.03655
G1 X35.279 Y28.412 E2.05175
G1 X35.631 Y28.398 E2.06347
G1 X57.746 Y28.398 E2.79902
G1 X58.116 Y28.412 E2.81133
G1 X58.58 Y28.467 E2.82687
G1 X58.992 Y28.55 E2.84085
G1 X59.355 Y28.653 E2.8534
G1 X59.743 Y28.795 E2.86714
G1 X60.12 Y28.966 E2.88091
G1 X60.525 Y29.194 E2.89637
G1 X60.833 Y29.398 E2.90866
G1 X61.199 Y29.689 E2.92421
G1 X61.505 Y29.974 E2.93812
G1 X61.79 Y30.283 E2.9521
G1 X62.02 Y30.576 E2.96449
G1 X62.277 Y30.962 E2.97991
G1 X62.479 Y31.326 E2.99376
G1 X62.652 Y31.707 E3.00768
G1 X62.778 Y32.049 E3.0198
G1 X62.897 Y32.451 E3.03374
G1 X62.98 Y32.871 E3.04798
G1 X63.031 Y33.282 E3.06176
G1 X63.049 Y33.697 E3.07557
G1 X63.049 Y55.798 E3.81065
G1 X63.032 Y56.196 E3.8239
G1 X62.983 Y56.607 E3.83767
G1 X62.902 Y57.019 E3.85164
G1 X62.786 Y57.427 E3.86574
G1 X62.651 Y57.793 E3.87872
G1 X62.469 Y58.191 E3.89327
G1 X62.253 Y58.574 E3.9079
G1 X62.017 Y58.925 E3.92197
G1 X61.772 Y59.233 E3.93506
G1 X61.488 Y59.541 E3.94899
G1 X61.184 Y59.822 E3.96276
G1 X60.852 Y60.083 E3.97681
G1 X60.505 Y60.315 E3.99069
G1 X60.143 Y60.518 E4.00449
G1 X59.763 Y60.693 E4.01841
G1 X59.377 Y60.835 E4.03209
G1 X58.967 Y60.952 E4.04627
G0 F6000 X58.865 Y60.565
;TYPE:WALL-OUTER
G1 F1200 X58.485 Y60.639 E4.05915
G1 X58.11 Y60.684 E4.07171
G1 X57.723 Y60.698 E4.08459
G1 X35.665 Y60.698 E4.81824
G1 X35.275 Y60.683 E4.83122
G1 X34.895 Y60.637 E4.84395
G1 X34.513 Y60.561 E4.85691
G1 X34.136 Y60.453 E4.86995
G1 X33.779 Y60.32 E4.88262
G1 X33.429 Y60.158 E4.89545
G1 X33.091 Y59.97 E4.90831
G1 X32.783 Y59.764 E4.92064
G1 X32.468 Y59.512 E4.93405
G1 X32.184 Y59.25 E4.9469
G1 X31.92 Y58.965 E4.95983
G1 X31.682 Y58.661 E4.97267
G1 X31.475 Y58.352 E4.98504
G1 X31.28 Y58.002 E4.99836
G1 X31.12 Y57.652 E5.01116
G1 X30.989 Y57.296 E5.02378
G1 X30.881 Y56.915 E5.03695
G1 X30.808 Y56.546 E5.04946
G1 X30.762 Y56.15 E5.06272
G1 X30.749 Y55.796 E5.0745
G1 X30.748 Y33.723 E5.80865
G1 X30.763 Y33.329 E5.82177
G1 X30.809 Y32.945 E5.83463
G1 X30.885 Y32.563 E5.84759
G1 X30.993 Y32.186 E5.86063
G1 X31.126 Y31.829 E5.8733
G1 X31.287 Y31.481 E5.88605
G1 X31.477 Y31.143 E5.89895
G1 X31.692 Y30.82 E5.91186
G1 X31.933 Y30.519 E5.92468
G1 X32.196 Y30.235 E5.93755
G1 X32.466 Y29.984 E5.94982
G1 X32.771 Y29.744 E5.96272
G1 X33.107 Y29.518 E5.97619
G1 X33.443 Y29.331 E5.98898
G1 X33.778 Y29.178 E6.00123
G1 X34.151 Y29.039 E6.01447
G1 X34.531 Y28.931 E6.02761
G1 X34.894 Y28.859 E6.03992
G1 X35.295 Y28.812 E6.05335
G1 X35.647 Y28.798 E6.06506
G1 X57.731 Y28.798 E6.79958
G1 X58.117 Y28.813 E6.81243
G1 X58.502 Y28.859 E6.82533
G1 X58.883 Y28.935 E6.83825
G1 X59.261 Y29.043 E6.85132
G1 X59.618 Y29.176 E6.86399
G1 X59.967 Y29.337 E6.87678
G1 X60.292 Y29.52 E6.88918
G1 X60.626 Y29.742 E6.90252
G1 X60.927 Y29.983 E6.91535
G1 X61.212 Y30.246 E6.92824
G1 X61.475 Y30.53 E6.94112
G1 X61.714 Y30.835 E6.95401
G1 X61.92 Y31.143 E6.96633
G1 X62.115 Y31.493 E6.97966
G1 X62.276 Y31.845 E6.99253
G1 X62.406 Y32.2 E7.0051
G1 X62.517 Y32.582 E7.01834
G1 X62.589 Y32.961 E7.03117
G1 X62.634 Y33.334 E7.04366
G1 X62.649 Y33.713 E7.05628
G1 X62.649 Y55.782 E7.7903
G1 X62.633 Y56.167 E7.80311
G1 X62.587 Y56.552 E7.81601
G1 X62.515 Y56.917 E7.82838
G1 X62.401 Y57.315 E7.84215
G1 X62.27 Y57.668 E7.85468
G1 X62.109 Y58.016 E7.86743
G1 X61.919 Y58.353 E7.8803
G1 X61.704 Y58.676 E7.8932
G1 X61.463 Y58.978 E7.90605
G1 X61.206 Y59.257 E7.91867
G1 X60.916 Y59.525 E7.9318
G1 X60.611 Y59.764 E7.94469
G1 X60.289 Y59.978 E7.95755
G1 X59.949 Y60.167 E7.97049
G1 X59.602 Y60.326 E7.98318
G1 X59.245 Y60.457 E7.99583
G1 X58.865 Y60.565 E8.00897
G1 F1500 E1.50897
G0 F6000 X59 Y61.252
G0 X105.15 Y61.383
G1 F1500 E8.00897
G0 F6000 X105.14 Y61.083
;TYPE:WALL-INNER
G1 F1200 X104.725 Y61.098 E8.02278
G1 X82.651 Y61.098 E8.75697
G1 X82.251 Y61.082 E8.77028
G1 X81.841 Y61.033 E8.78401
G1 X81.391 Y60.943 E8.79928
G1 X81.019 Y60.836 E8.81215
G1 X80.612 Y60.683 E8.82661
G1 X80.255 Y60.518 E8.8397
G1 X79.89 Y60.313 E8.85362
G1 X79.544 Y60.083 E8.86744
G1 X79.214 Y59.821 E8.88145
G1 X78.908 Y59.539 E8.89529
G1 X78.623 Y59.232 E8.90922
G1 X78.364 Y58.902 E8.92318
G1 X78.131 Y58.554 E8.93711
G1 X77.928 Y58.191 E8.95094
G1 X77.763 Y57.831 E8.96411
G1 X77.612 Y57.426 E8.97849
G1 X77.495 Y57.017 E8.99264
G1 X77.414 Y56.605 E9.0066
G1 X77.364 Y56.19 E9.0205
G1 X77.349 Y55.774 E9.03435
G1 X77.349 Y33.683 E9.7691
G1 X77.365 Y33.307 E9.78162
G1 X77.418 Y32.868 E9.79632
G1 X77.495 Y32.477 E9.80958
G1 X77.619 Y32.046 E9.8245
G1 X77.747 Y31.703 E9.83667
G1 X77.939 Y31.285 E9.85197
G1 X78.144 Y30.922 E9.86584
G1 X78.38 Y30.571 E9.8799
G1 X78.611 Y30.281 E9.89224
G1 X78.924 Y29.942 E9.90758
G1 X79.196 Y29.689 E9.91994
G1 X79.564 Y29.4 E9.9355
G1 X79.871 Y29.194 E9.9478
G1 X80.277 Y28.967 E9.96327
G1 X80.658 Y28.794 E9.97719
G1 X81 Y28.668 E9.98931
G1 X81.405 Y28.551 E10.00333
G1 X81.833 Y28.464 E10.01786
G1 X82.28 Y28.412 E10.03282
G1 X82.632 Y28.398 E10.04454
G1 X104.748 Y28.398 E10.78012
G1 X105.117 Y28.412 E10.7924
G1 X105.58 Y28.467 E10.80791
G1 X105.995 Y28.55 E10.82199
G1 X106.357 Y28.653 E10.8345
G1 X106.744 Y28.795 E10.84822
G1 X107.121 Y28.966 E10.86198
G1 X107.489 Y29.171 E10.87599
G1 X107.876 Y29.429 E10.89146
G1 X108.2 Y29.689 E10.90528
G1 X108.474 Y29.942 E10.91769
G1 X108.795 Y30.286 E10.93334
G1 X109.022 Y30.578 E10.94564
G1 X109.278 Y30.961 E10.96096
G1 X109.459 Y31.282 E10.97322
G1 X109.636 Y31.666 E10.98728
G1 X109.779 Y32.048 E11.00085
G1 X109.903 Y32.479 E11.01576
G1 X109.985 Y32.889 E11.02967
G1 X110.034 Y33.283 E11.04287
G1 X110.05 Y33.7 E11.05675
G1 X110.05 Y55.8 E11.7918
G1 X110.032 Y56.213 E11.80555
G1 X109.989 Y56.583 E11.81794
G1 X109.898 Y57.039 E11.83341
G1 X109.789 Y57.429 E11.84688
G1 X109.635 Y57.834 E11.86129
G1 X109.459 Y58.214 E11.87522
G1 X109.265 Y58.557 E11.88832
G1 X109.019 Y58.924 E11.90302
G1 X108.774 Y59.232 E11.91611
G1 X108.489 Y59.541 E11.93009
G1 X108.184 Y59.823 E11.9439
G1 X107.854 Y60.083 E11.95788
G1 X107.507 Y60.315 E11.97176
G1 X107.144 Y60.518 E11.98559
G1 X106.741 Y60.702 E12.00033
G1 X106.378 Y60.835 E12.01319
G1 X105.969 Y60.952 E12.02734
G1 X105.556 Y61.033 E12.04133
G1 X105.14 Y61.083 E12.05527
G0 F6000 X105.111 Y60.684
;TYPE:WALL-OUTER
G1 F1200 X104.725 Y60.698 E12.06812
G1 X82.666 Y60.698 E12.8018
G1 X82.276 Y60.683 E12.81478
G1 X81.896 Y60.637 E12.82751
G1 X81.501 Y60.558 E12.84091
G1 X81.131 Y60.451 E12.85372
G1 X80.78 Y60.32 E12.86618
G1 X80.43 Y60.158 E12.87901
G1 X80.099 Y59.972 E12.89164
G1 X79.772 Y59.754 E12.90471
G1 X79.469 Y59.512 E12.91761
G1 X79.185 Y59.25 E12.93046
G1 X78.921 Y58.965 E12.94338
G1 X78.683 Y58.661 E12.95622
G1 X78.468 Y58.338 E12.96913
G1 X78.28 Y58.001 E12.98196
G1 X78.121 Y57.648 E12.99484
G1 X77.99 Y57.295 E13.00736
G1 X77.882 Y56.915 E13.0205
G1 X77.808 Y56.535 E13.03338
G1 X77.763 Y56.16 E13.04594
G1 X77.749 Y55.774 E13.05879
G1 X77.749 Y33.699 E13.793
G1 X77.764 Y33.336 E13.80509
G1 X77.81 Y32.945 E13.81818
G1 X77.886 Y32.563 E13.83114
G1 X77.994 Y32.186 E13.84418
G1 X78.128 Y31.829 E13.85686
G1 X78.288 Y31.481 E13.8696
G1 X78.478 Y31.143 E13.8825
G1 X78.693 Y30.82 E13.8954
G1 X78.934 Y30.519 E13.90823
G1 X79.196 Y30.235 E13.92108
G1 X79.481 Y29.971 E13.934
G1 X79.787 Y29.732 E13.94692
G1 X80.094 Y29.526 E13.95921
G1 X80.444 Y29.331 E13.97254
G1 X80.796 Y29.17 E13.98541
G1 X81.152 Y29.039 E13.99803
G1 X81.532 Y28.931 E14.01117
G1 X81.902 Y28.858 E14.02371
G1 X82.296 Y28.812 E14.03691
G1 X82.648 Y28.798 E14.04862
G1 X104.733 Y28.798 E14.78317
G1 X105.118 Y28.813 E14.79599
G1 X105.503 Y28.859 E14.80888
G1 X105.885 Y28.935 E14.82184
G1 X106.262 Y29.043 E14.83488
G1 X106.619 Y29.176 E14.84755
G1 X106.967 Y29.337 E14.86031
G1 X107.306 Y29.528 E14.87325
G1 X107.627 Y29.742 E14.88608
G1 X107.928 Y29.983 E14.8989
G1 X108.212 Y30.246 E14.91178
G1 X108.479 Y30.532 E14.92479
G1 X108.715 Y30.835 E14.93756
G1 X108.921 Y31.143 E14.94989
G1 X109.118 Y31.494 E14.96328
G1 X109.277 Y31.845 E14.97609
G1 X109.409 Y32.202 E14.98875
G1 X109.516 Y32.581 E15.00185
G1 X109.591 Y32.96 E15.0147
G1 X109.637 Y33.335 E15.02727
G1 X109.65 Y33.714 E15.03988
G1 X109.65 Y55.784 E15.77393
G1 X109.634 Y56.167 E15.78668
G1 X109.589 Y56.553 E15.79961
G1 X109.516 Y56.918 E15.81199
G1 X109.409 Y57.305 E15.82534
G1 X109.271 Y57.668 E15.83826
G1 X109.111 Y58.017 E15.85103
G1 X108.928 Y58.341 E15.8634
G1 X108.705 Y58.676 E15.87679
G1 X108.465 Y58.977 E15.88959
G1 X108.207 Y59.257 E15.90226
G1 X107.917 Y59.525 E15.91539
G1 X107.612 Y59.764 E15.92828
G1 X107.291 Y59.978 E15.94111
G1 X106.95 Y60.167 E15.95408
G1 X106.603 Y60.326 E15.96677
G1 X106.247 Y60.457 E15.97939
G1 X105.867 Y60.565 E15.99253
G1 X105.486 Y60.639 E16.00544
G1 X105.111 Y60.684 E16.018
G0 F6000 X105.136 Y61.383
G0 X129.218 Y61.379
G0 X129.253 Y61.082
;TYPE:WALL-INNER
G1 F1200 X128.842 Y61.033 E16.03177
G1 X128.392 Y60.943 E16.04703
G1 X128.02 Y60.836 E16.0599
G1 X127.613 Y60.683 E16.07436
G1 X127.256 Y60.518 E16.08745
G1 X126.891 Y60.313 E16.10137
G1 X126.544 Y60.083 E16.11522
G1 X126.232 Y59.835 E16.12847
G1 X125.909 Y59.539 E16.14304
G1 X125.624 Y59.232 E16.15698
G1 X125.366 Y58.902 E16.17091
G1 X125.133 Y58.555 E16.18481
G1 X124.94 Y58.213 E16.19787
G1 X124.764 Y57.831 E16.21186
G1 X124.613 Y57.426 E16.22624
G1 X124.497 Y57.016 E16.24041
G1 X124.411 Y56.581 E16.25516
G1 X124.366 Y56.189 E16.26828
G1 X124.35 Y55.799 E16.28126
G1 X124.35 Y33.723 E17.01551
G1 X124.368 Y33.283 E17.03016
G1 X124.415 Y32.888 E17.04339
G1 X124.497 Y32.477 E17.05733
G1 X124.62 Y32.046 E17.07224
G1 X124.748 Y31.703 E17.08441
G1 X124.918 Y31.329 E17.09808
G1 X125.146 Y30.922 E17.11359
G1 X125.381 Y30.572 E17.12762
G1 X125.641 Y30.247 E17.14146
G1 X125.926 Y29.942 E17.15534
G1 X126.236 Y29.656 E17.16937
G1 X126.565 Y29.4 E17.18324
G1 X126.872 Y29.194 E17.19553
G1 X127.278 Y28.967 E17.211
G1 X127.659 Y28.794 E17.22492
G1 X128.001 Y28.668 E17.23704
G1 X128.406 Y28.551 E17.25106
G1 X128.834 Y28.464 E17.26559
G1 X129.282 Y28.412 E17.28059
G1 X129.643 Y28.398 E17.29261
G1 X151.749 Y28.398 E18.02786
G1 X152.119 Y28.412 E18.04017
G1 X152.537 Y28.46 E18.05417
G1 X152.996 Y28.55 E18.06972
G1 X153.358 Y28.653 E18.08224
G1 X153.745 Y28.795 E18.09595
G1 X154.122 Y28.966 E18.10972
G1 X154.49 Y29.171 E18.12373
G1 X154.836 Y29.399 E18.13751
G1 X155.168 Y29.659 E18.15154
G1 X155.475 Y29.942 E18.16543
G1 X155.793 Y30.283 E18.18093
G1 X156.023 Y30.576 E18.19332
G1 X156.28 Y30.962 E18.20875
G1 X156.483 Y31.328 E18.22267
G1 X156.637 Y31.666 E18.23502
G1 X156.78 Y32.048 E18.24859
G1 X156.905 Y32.479 E18.26351
G1 X156.986 Y32.891 E18.27748
G1 X157.036 Y33.304 E18.29131
G1 X157.051 Y33.699 E18.30446
G1 X157.051 Y55.819 E19.04018
G1 X157.035 Y56.196 E19.05273
G1 X156.982 Y56.633 E19.06737
G1 X156.905 Y57.02 E19.08049
G1 X156.79 Y57.43 E19.09465
G1 X156.644 Y57.816 E19.10838
G1 X156.472 Y58.191 E19.1221
G1 X156.256 Y58.574 E19.13673
G1 X156.02 Y58.925 E19.1508
G1 X155.76 Y59.249 E19.16461
G1 X155.491 Y59.54 E19.17779
G1 X155.187 Y59.822 E19.19158
G1 X154.836 Y60.096 E19.20639
G1 X154.508 Y60.315 E19.21951
G1 X154.145 Y60.518 E19.23334
G1 X153.765 Y60.693 E19.24726
G1 X153.379 Y60.835 E19.26094
G1 X152.97 Y60.952 E19.27509
G1 X152.557 Y61.033 E19.28909
G1 X152.143 Y61.083 E19.30296
G1 X151.726 Y61.098 E19.31683
G1 X129.652 Y61.098 E20.05102
G1 X129.253 Y61.082 E20.0643
G0 F6000 X129.278 Y60.683
;TYPE:WALL-OUTER
G1 F1200 X128.897 Y60.637 E20.07706
G1 X128.502 Y60.558 E20.09046
G1 X128.132 Y60.451 E20.10327
G1 X127.781 Y60.32 E20.11573
G1 X127.431 Y60.158 E20.12856
G1 X127.1 Y59.972 E20.14119
G1 X126.773 Y59.754 E20.15426
G1 X126.471 Y59.513 E20.16711
G1 X126.186 Y59.25 E20.18001
G1 X125.922 Y58.965 E20.19293
G1 X125.685 Y58.661 E20.20575
G1 X125.47 Y58.339 E20.21863
G1 X125.281 Y58.001 E20.23151
G1 X125.123 Y57.652 E20.24425
G1 X124.991 Y57.294 E20.25694
G1 X124.884 Y56.916 E20.27001
G1 X124.811 Y56.551 E20.28239
G1 X124.765 Y56.16 E20.29548
G1 X124.75 Y55.783 E20.30803
G1 X124.75 Y33.723 E21.04175
G1 X124.766 Y33.329 E21.05487
G1 X124.811 Y32.942 E21.06782
G1 X124.891 Y32.552 E21.08107
G1 X124.995 Y32.186 E21.09372
G1 X125.129 Y31.829 E21.1064
G1 X125.289 Y31.48 E21.11917
G1 X125.472 Y31.155 E21.13158
G1 X125.695 Y30.82 E21.14496
G1 X125.935 Y30.519 E21.15777
G1 X126.198 Y30.235 E21.17064
G1 X126.483 Y29.971 E21.18356
G1 X126.788 Y29.732 E21.19645
G1 X127.095 Y29.526 E21.20875
G1 X127.445 Y29.331 E21.22207
G1 X127.797 Y29.17 E21.23495
G1 X128.153 Y29.039 E21.24756
G1 X128.533 Y28.931 E21.2607
G1 X128.903 Y28.858 E21.27325
G1 X129.298 Y28.812 E21.28647
G1 X129.659 Y28.798 E21.29849
G1 X151.734 Y28.798 E22.03271
G1 X152.12 Y28.813 E22.04556
G1 X152.504 Y28.859 E22.05842
G1 X152.886 Y28.935 E22.07137
G1 X153.263 Y29.043 E22.08442
G1 X153.62 Y29.176 E22.09709
G1 X153.968 Y29.337 E22.10984
G1 X154.307 Y29.528 E22.12278
G1 X154.628 Y29.742 E22.13561
G1 X154.93 Y29.983 E22.14847
G1 X155.214 Y30.246 E22.16134
G1 X155.478 Y30.53 E22.17424
G1 X155.717 Y30.835 E22.18712
G1 X155.923 Y31.143 E22.19945
G1 X156.119 Y31.494 E22.21282
G1 X156.278 Y31.845 E22.22564
G1 X156.41 Y32.201 E22.23826
G1 X156.518 Y32.582 E22.25143
G1 X156.591 Y32.953 E22.26401
G1 X156.637 Y33.334 E22.27678
G1 X156.651 Y33.714 E22.28942
G1 X156.651 Y55.804 E23.02414
G1 X156.636 Y56.167 E23.03622
G1 X156.59 Y56.556 E23.04925
G1 X156.514 Y56.935 E23.06211
G1 X156.41 Y57.306 E23.07492
G1 X156.272 Y57.668 E23.08781
G1 X156.112 Y58.016 E23.10055
G1 X155.922 Y58.353 E23.11341
G1 X155.707 Y58.676 E23.12632
G1 X155.466 Y58.977 E23.13915
G1 X155.203 Y59.262 E23.15204
G1 X154.919 Y59.525 E23.16492
G1 X154.613 Y59.764 E23.17783
G1 X154.292 Y59.978 E23.19066
G1 X153.951 Y60.167 E23.20363
G1 X153.604 Y60.326 E23.21633
G1 X153.255 Y60.455 E23.2287
G1 X152.868 Y60.565 E23.24208
G1 X152.487 Y60.639 E23.25499
G1 X152.113 Y60.684 E23.26752
G1 X151.726 Y60.698 E23.2804
G1 X129.667 Y60.698 E24.01409
G1 X129.278 Y60.683 E24.02703
G1 F1500 E17.52703
G0 F6000 X129.196 Y61.376
G0 X152.163 Y61.321
G0 X174.13 Y60.788
G1 F1500 E24.02703
