;FLAVOR:Marlin
;TIME:11586
;Filament used: 9.12975m
;Layer height: 0.2
;MINX:93.7
;MINY:45.7
;MINZ:0.2
;MAXX:141.3
;MAXY:189.3
;MAXZ:27
;Generated with Cura_SteamEngine 5.2.1
M140 S60
M105
M190 S60
M104 S200
M105
M109 S200
M82 ;absolute extrusion mode
M201 X500.00 Y500.00 Z100.00 E5000.00 ;Setup machine max acceleration
M203 X500.00 Y500.00 Z10.00 E50.00 ;Setup machine max feedrate
M204 P500.00 R1000.00 T500.00 ;Setup Print/Retract/Travel acceleration
M205 X8.00 Y8.00 Z0.40 E5.00 ;Setup Jerk
M220 S100 ;Reset Feedrate
M221 S100 ;Reset Flowrate

G28 ;Home

G92 E0 ;Reset Extruder
G1 Z2.0 F3000 ;Move Z Axis up
G1 X10.1 Y20 Z0.28 F5000.0 ;Move to start position
G1 X10.1 Y200.0 Z0.28 F1500.0 E15 ;Draw the first line
G1 X10.4 Y200.0 Z0.28 F5000.0 ;Move to side a little
G1 X10.4 Y20 Z0.28 F1500.0 E30 ;Draw the second line
G92 E0 ;Reset Extruder
G1 Z2.0 F3000 ;Move Z Axis up

G92 E0
G92 E0
G1 F1500 E-6.5
;LAYER_COUNT:135
;LAYER:0
M107
;MESH:Anno-Chipbox_x2.stl
G0 F6000 X94.1 Y188.9 Z0.2
;TYPE:WALL-INNER
G1 F1500 E0
G1 F1200 X140.9 Y188.9 E1.55657
G1 X140.9 Y46.1 E6.30612
G1 X94.1 Y46.1 E7.8627
G1 X94.1 Y188.9 E12.61224
G0 F6000 X93.7 Y189.3
;TYPE:WALL-OUTER
G1 F1200 X141.3 Y189.3 E14.19543
G1 X141.3 Y45.7 E18.97158
G1 X93.7 Y45.7 E20.55476
G1 X93.7 Y189.3 E25.33092
G0 F6000 X93.97 Y189.03
G0 X95.68 Y188.6
G0 X95.68 Y188.819
;TYPE:FILL
G1 F1200 X94.179 Y187.318 E25.40152
G0 F6000 X94.4 Y187.318
G0 X94.4 Y186.01
G0 X94.179 Y186.01
G1 F1200 X140.818 Y173.513 E27.00746
G0 F6000 X140.6 Y173.513
G0 X140.6 Y174.561
G0 X140.819 Y174.561
G1 F1200 X94.179 Y127.921 E29.20127
G0 F6000 X94.4 Y127.921
G0 X94.4 Y130.105
G0 X94.179 Y130.105
G1 F1200 X140.818 Y117.608 E30.80721
G0 F6000 X140.6 Y117.608
G0 X140.6 Y115.164
G0 X140.819 Y115.164
G1 F1200 X94.179 Y68.524 E33.00101
G0 F6000 X94.179 Y67.989
G1 F1200 X140.818 Y55.492 E34.60695
G0 F6000 X140.819 Y55.767
G1 F1200 X131.231 Y46.179 E35.05794
G0 F6000 X130.252 Y46.178
G1 F1200 X94.18 Y180.801 E39.69347
G0 F6000 X94.4 Y180.801
G0 X94.4 Y179.799
G0 X94.179 Y179.799
G1 F1200 X140.819 Y167.301 E41.29945
G0 F6000 X140.6 Y167.301
G0 X140.6 Y166.076
G0 X140.819 Y166.076
G1 F1200 X94.179 Y119.435 E43.49328
G0 F6000 X94.4 Y119.435
G0 X94.4 Y117.682
G0 X94.179 Y117.682
G1 F1200 X140.819 Y105.185 E45.09925
G0 F6000 X140.6 Y105.185
G0 X140.6 Y106.679
G0 X140.819 Y106.679
G1 F1200 X94.179 Y60.039 E47.29306
G0 F6000 X94.4 Y60.039
G0 X94.4 Y61.777
G0 X94.18 Y61.777
G1 F1200 X140.819 Y49.28 E48.899
G0 F6000 X140.6 Y49.28
G0 X140.6 Y47.282
G0 X140.819 Y47.282
G1 F1200 X139.717 Y46.179 E48.95086
G0 F6000 X139.717 Y46.4
G0 X136.463 Y46.4
G0 X136.463 Y46.178
G1 F1200 X98.243 Y188.82 E53.8625
G0 F6000 X98.243 Y188.6
G0 X104.166 Y188.6
G0 X104.166 Y188.819
G1 F1200 X94.179 Y178.832 E54.33226
G0 F6000 X94.4 Y178.832
G0 X94.4 Y173.587
G0 X94.179 Y173.587
G1 F1200 X140.819 Y161.09 E55.93823
G0 F6000 X140.6 Y161.09
G0 X140.6 Y157.59
G0 X140.819 Y157.59
G1 F1200 X94.179 Y110.95 E58.13204
G0 F6000 X94.18 Y111.254
G1 F1200 X111.617 Y46.178 E60.37282
G0 F6000 X111.617 Y46.4
G0 X114.261 Y46.4
G0 X114.261 Y46.179
G1 F1200 X140.819 Y72.737 E61.62203
G0 F6000 X140.6 Y72.737
G0 X140.6 Y74.127
G0 X140.818 Y74.127
G1 F1200 X94.18 Y86.624 E63.22794
G0 F6000 X94.4 Y86.624
G0 X94.4 Y85.494
G0 X94.179 Y85.494
G1 F1200 X140.819 Y132.134 E65.42174
G0 F6000 X140.6 Y132.134
G0 X140.6 Y130.032
G0 X140.819 Y130.032
G1 F1200 X94.179 Y142.529 E67.02772
G0 F6000 X94.4 Y142.529
G0 X94.4 Y144.891
G0 X94.179 Y144.891
G1 F1200 X138.107 Y188.819 E69.09396
G0 F6000 X138.107 Y188.6
G0 X135.513 Y188.6
G0 X135.513 Y188.82
G1 F1200 X140.819 Y169.018 E69.77581
G0 F6000 X140.6 Y169.018
G0 X140.6 Y179.725
G0 X140.818 Y179.725
G1 F1200 X106.877 Y188.819 E70.94451
G0 F6000 X106.877 Y188.6
G0 X104.455 Y188.6
G0 X104.455 Y188.819
G1 F1200 X140.819 Y53.107 E75.61754
G0 F6000 X140.6 Y53.107
G0 X140.6 Y61.703
G0 X140.819 Y61.703
G1 F1200 X94.179 Y74.2 E77.22351
G0 F6000 X94.4 Y74.2
G0 X94.4 Y77.009
G0 X94.179 Y77.009
G1 F1200 X140.819 Y123.649 E79.41731
G1 X140.819 Y123.82
G1 X94.179 Y136.317 E81.02329
G1 X94.179 Y136.406
G1 X140.819 Y183.046 E83.21709
G0 F6000 X140.6 Y183.046
G0 X140.6 Y185.936
G0 X140.819 Y185.936
G1 F1200 X130.058 Y188.82 E83.58763
G0 F6000 X129.621 Y188.819
G1 F1200 X94.179 Y153.377 E85.25472
G0 F6000 X94.4 Y153.377
G0 X94.4 Y154.952
G0 X94.179 Y154.952
G1 F1200 X140.819 Y142.455 E86.86069
G0 F6000 X140.6 Y142.455
G0 X140.6 Y140.62
G0 X140.819 Y140.62
G1 F1200 X94.179 Y93.98 E89.05449
G0 F6000 X94.4 Y93.98
G0 X94.4 Y92.835
G0 X94.179 Y92.835
G1 F1200 X140.819 Y80.338 E90.66047
G0 F6000 X140.819 Y81.223
G1 F1200 X105.776 Y46.179 E92.30881
G0 F6000 X106.026 Y46.179
G1 F1200 X94.179 Y49.354 E92.71674
G0 F6000 X94.4 Y49.354
G0 X94.4 Y51.553
G0 X94.179 Y51.553
G1 F1200 X140.819 Y98.193 E94.91055
G0 F6000 X140.818 Y98.973
G1 F1200 X94.179 Y111.47 E96.51649
G0 F6000 X94.4 Y111.47
G0 X94.4 Y105.258
G0 X94.18 Y105.258
G1 F1200 X140.818 Y92.762 E98.12239
G0 F6000 X140.6 Y92.762
G0 X140.6 Y89.708
G0 X140.819 Y89.708
G1 F1200 X97.29 Y46.179 E100.16986
G0 F6000 X97.29 Y46.4
G0 X99.194 Y46.4
G0 X99.194 Y46.178
G1 F1200 X94.18 Y64.89 E100.81418
G0 F6000 X94.4 Y64.89
G0 X94.4 Y55.565
G0 X94.179 Y55.565
G1 F1200 X129.208 Y46.179 E102.02035
G0 F6000 X129.208 Y46.4
G0 X124.04 Y46.4
G0 X124.04 Y46.178
G1 F1200 X94.18 Y157.619 E105.85764
G0 F6000 X94.4 Y157.619
G0 X94.4 Y161.164
G0 X94.179 Y161.164
G1 F1200 X140.819 Y148.667 E107.46361
G0 F6000 X140.819 Y149.105
G1 F1200 X94.179 Y102.465 E109.65741
G0 F6000 X94.4 Y102.465
G0 X94.4 Y99.047
G0 X94.179 Y99.047
G1 F1200 X140.819 Y86.55 E111.26339
G0 F6000 X140.6 Y86.55
G0 X140.6 Y76.289
G0 X140.819 Y76.289
G1 F1200 X110.666 Y188.819 E115.13819
G0 F6000 X110.666 Y188.6
G0 X112.651 Y188.6
G0 X112.651 Y188.819
G1 F1200 X94.179 Y170.347 E116.00705
G0 F6000 X94.4 Y170.347
G0 X94.4 Y167.375
G0 X94.18 Y167.375
G1 F1200 X140.818 Y154.878 E117.61296
G0 F6000 X140.6 Y154.878
G0 X140.6 Y145.835
G0 X140.819 Y145.835
G1 F1200 X129.301 Y188.819 E119.09305
G0 F6000 X129.301 Y188.6
G0 X123.089 Y188.6
G0 X123.089 Y188.819
G1 F1200 X140.819 Y122.653 E121.37138
G0 F6000 X140.6 Y122.653
G0 X140.6 Y111.397
G0 X140.818 Y111.397
G1 F1200 X94.18 Y123.893 E122.97728
G0 F6000 X94.4 Y123.893
G0 X94.4 Y134.437
G0 X94.18 Y134.437
G1 F1200 X117.828 Y46.178 E126.01634
G0 F6000 X117.828 Y46.4
G0 X122.746 Y46.4
G0 X122.746 Y46.179
G1 F1200 X140.819 Y64.252 E126.86643
G0 F6000 X140.6 Y64.252
G0 X140.6 Y67.915
G0 X140.819 Y67.915
G1 F1200 X94.179 Y80.412 E128.47241
G0 F6000 X94.4 Y80.412
G0 X94.4 Y88.072
G0 X94.18 Y88.072
G1 F1200 X105.405 Y46.178 E129.91496
G1 F1500 E123.41496
G0 F6000 X105.405 Y46.4
G0 X140.6 Y99.472
G1 F1500 E129.91496
G0 F6000 X140.819 Y99.472
G1 F1200 X116.878 Y188.82 E132.99152
G0 F6000 X116.878 Y188.6
G0 X121.136 Y188.6
G0 X121.136 Y188.819
G1 F1200 X94.179 Y161.862 E134.25949
G0 F6000 X94.4 Y161.862
G0 X94.4 Y148.74
G0 X94.18 Y148.74
G1 F1200 X140.818 Y136.243 E135.8654
G0 F6000 X140.3 Y136.243
G1 F1500 E129.3654
;MESH:NONMESH
G0 F300 X140.3 Y136.243 Z0.4
G0 F6000 X94.37 Y188.63
G1 F1500 E135.8654
G0 F6000 X94.1 Y188.9
;TIME_ELAPSED:223.482849
;LAYER:1
M106 S85
;TYPE:WALL-INNER
;MESH:Anno-Chipbox_x2.stl
G1 F1350 X140.9 Y188.9 E137.42198
G1 X140.9 Y46.1 E142.17152
G1 X94.1 Y46.1 E143.7281
G1 X94.1 Y188.9 E148.47764
G0 F7500 X93.7 Y189.3
;TYPE:WALL-OUTER
G1 F1350 X141.3 Y189.3 E150.06083
G1 X141.3 Y45.7 E154.83698
G1 X93.7 Y45.7 E156.42016
G1 X93.7 Y189.3 E161.19632
G0 F7500 X93.97 Y189.03
G0 X95.88 Y188.6
G0 X95.88 Y188.819
;TYPE:FILL
G1 F2100 X94.179 Y187.118 E161.27633
G0 F7500 X94.179 Y186.156
G1 F2100 X140.818 Y173.659 E162.88227
G0 F7500 X140.819 Y174.361
G1 F2100 X94.179 Y127.721 E165.07607
G0 F7500 X94.4 Y127.721
G0 X94.4 Y130.251
G0 X94.179 Y130.251
G1 F2100 X140.819 Y117.754 E166.68205
G0 F7500 X140.6 Y117.754
G0 X140.6 Y114.964
G0 X140.819 Y114.964
G1 F2100 X94.179 Y68.324 E168.87585
G1 X94.179 Y68.135
G1 X140.819 Y55.638 E170.48182
G1 X140.819 Y55.567
G1 X131.431 Y46.179 E170.92341
G0 F7500 X131.431 Y46.4
G0 X130.106 Y46.4
G0 X130.106 Y46.178
G1 F2100 X94.18 Y180.256 E175.54017
G0 F7500 X94.179 Y179.945
G1 F2100 X140.819 Y167.448 E177.14614
G0 F7500 X140.6 Y167.448
G0 X140.6 Y168.473
G0 X140.819 Y168.473
G1 F2100 X135.367 Y188.82 E177.84676
G0 F7500 X135.367 Y188.6
G0 X138.306 Y188.6
G0 X138.306 Y188.819
G1 F2100 X94.179 Y144.692 E179.92236
G0 F7500 X94.4 Y144.692
G0 X94.4 Y142.674
G0 X94.18 Y142.674
G1 F2100 X140.818 Y130.178 E181.52826
G0 F7500 X140.6 Y130.178
G0 X140.6 Y131.935
G0 X140.819 Y131.935
G1 F2100 X94.179 Y85.295 E183.72206
G0 F7500 X94.4 Y85.295
G0 X94.4 Y86.77
G0 X94.179 Y86.77
G1 F2100 X140.818 Y74.273 E185.32801
G0 F7500 X140.6 Y74.273
G0 X140.6 Y75.744
G0 X140.819 Y75.744
G1 F2100 X110.52 Y188.819 E189.22157
G0 F7500 X110.52 Y188.6
G0 X112.85 Y188.6
G0 X112.85 Y188.819
G1 F2100 X94.179 Y170.148 E190.0998
G0 F7500 X94.4 Y170.148
G0 X94.4 Y167.521
G0 X94.179 Y167.521
G1 F2100 X140.818 Y155.024 E191.70574
G0 F7500 X140.6 Y155.024
G0 X140.6 Y157.391
G0 X140.819 Y157.391
G1 F2100 X94.179 Y110.751 E193.89954
G1 X94.18 Y110.709
G1 X111.471 Y46.178 E196.12156
G0 F7500 X111.471 Y46.4
G0 X114.46 Y46.4
G0 X114.46 Y46.179
G1 F2100 X140.819 Y72.538 E197.36141
G0 F7500 X140.6 Y72.538
G0 X140.6 Y68.061
G0 X140.818 Y68.061
G1 F2100 X94.18 Y80.558 E198.96732
G0 F7500 X94.4 Y80.558
G0 X94.4 Y76.81
G0 X94.179 Y76.81
G1 F2100 X140.819 Y123.45 E201.16112
G0 F7500 X140.819 Y123.966
G1 F2100 X94.179 Y136.463 E202.7671
G0 F7500 X94.179 Y136.207
G1 F2100 X140.819 Y182.847 E204.9609
G0 F7500 X140.6 Y182.847
G0 X140.6 Y179.871
G0 X140.819 Y179.871
G1 F2100 X107.422 Y188.819 E206.11087
G0 F7500 X107.422 Y188.6
G0 X104.365 Y188.6
G0 X104.365 Y188.819
G1 F2100 X94.179 Y178.633 E206.58998
G0 F7500 X94.4 Y178.633
G0 X94.4 Y173.733
G0 X94.179 Y173.733
G1 F2100 X140.819 Y161.236 E208.19596
G0 F7500 X140.6 Y161.236
G0 X140.6 Y165.876
G0 X140.819 Y165.876
G1 F2100 X94.179 Y119.236 E210.38976
G0 F7500 X94.4 Y119.236
G0 X94.4 Y117.828
G0 X94.179 Y117.828
G1 F2100 X140.819 Y105.331 E211.99573
G0 F7500 X140.6 Y105.331
G0 X140.6 Y106.479
G0 X140.819 Y106.479
G1 F2100 X94.179 Y59.839 E214.18954
G0 F7500 X94.4 Y59.839
G0 X94.4 Y61.923
G0 X94.18 Y61.923
G1 F2100 X140.818 Y49.426 E215.79545
G0 F7500 X140.6 Y49.426
G0 X140.6 Y47.082
G0 X140.819 Y47.082
G1 F2100 X139.916 Y46.179 E215.83792
G0 F7500 X139.916 Y46.4
G0 X136.317 Y46.4
G0 X136.317 Y46.179
G1 F2100 X98.097 Y188.82 E220.74953
G0 F7500 X98.097 Y188.6
G0 X104.309 Y188.6
G0 X104.309 Y188.82
G1 F2100 X140.819 Y52.562 E225.44136
G0 F7500 X140.6 Y52.562
G0 X140.6 Y61.849
G0 X140.819 Y61.849
G1 F2100 X94.179 Y74.346 E227.04734
G0 F7500 X94.4 Y74.346
G0 X94.4 Y64.346
G0 X94.18 Y64.346
G1 F2100 X99.047 Y46.179 E227.67288
G0 F7500 X99.047 Y46.4
G0 X97.49 Y46.4
G0 X97.49 Y46.179
G1 F2100 X140.819 Y89.509 E229.71097
G0 F7500 X140.6 Y89.509
G0 X140.6 Y86.696
G0 X140.818 Y86.696
G1 F2100 X94.18 Y99.193 E231.31688
G0 F7500 X94.4 Y99.193
G0 X94.4 Y102.266
G0 X94.179 Y102.266
G1 F2100 X140.819 Y148.906 E233.51068
G1 X140.818 Y148.813
G1 X94.179 Y161.31 E235.11662
G0 F7500 X94.179 Y161.662
G1 F2100 X121.335 Y188.819 E236.39398
G0 F7500 X121.335 Y188.6
G0 X122.943 Y188.6
G0 X122.943 Y188.82
G1 F2100 X140.819 Y122.109 E238.69108
G0 F7500 X140.6 Y122.109
G0 X140.6 Y111.543
G0 X140.818 Y111.543
G1 F2100 X94.18 Y124.039 E240.29698
G0 F7500 X94.4 Y124.039
G0 X94.4 Y133.892
G0 X94.18 Y133.892
G1 F2100 X117.682 Y46.179 E243.31723
G0 F7500 X117.682 Y46.4
G0 X122.946 Y46.4
G0 X122.946 Y46.179
G1 F2100 X140.819 Y64.053 E244.15794
G0 F7500 X140.6 Y64.053
G0 X140.6 Y80.484
G0 X140.819 Y80.484
G1 F2100 X94.179 Y92.981 E245.76392
G0 F7500 X94.179 Y93.78
G1 F2100 X140.819 Y140.42 E247.95772
G0 F7500 X140.6 Y140.42
G0 X140.6 Y142.601
G0 X140.819 Y142.601
G1 F2100 X94.179 Y155.098 E249.56369
G0 F7500 X94.4 Y155.098
G0 X94.4 Y153.177
G0 X94.179 Y153.177
G1 F2100 X129.821 Y188.819 E251.24018
G0 F7500 X129.155 Y188.819
G1 F2100 X140.819 Y145.291 E252.73901
G0 F7500 X140.6 Y145.291
G0 X140.6 Y136.389
G0 X140.819 Y136.389
G1 F2100 X94.179 Y148.886 E254.34498
G0 F7500 X94.4 Y148.886
G0 X94.4 Y157.074
G0 X94.18 Y157.074
G1 F2100 X123.894 Y46.178 E258.16351
G0 F7500 X123.894 Y46.4
G0 X129.754 Y46.4
G0 X129.754 Y46.179
G1 F2100 X94.179 Y55.711 E259.38847
G0 F7500 X94.4 Y55.711
G0 X94.4 Y51.354
G0 X94.179 Y51.354
G1 F2100 X140.819 Y97.994 E261.58228
G0 F7500 X140.818 Y98.927
G1 F2100 X116.732 Y188.82 E264.67759
G0 F7500 X116.732 Y188.6
G0 X130.603 Y188.6
G0 X130.603 Y188.82
G1 F2100 X140.819 Y186.082 E265.02937
G1 F1500 E258.52937
G0 F7500 X140.6 Y186.082
G0 X140.6 Y99.119
G1 F1500 E265.02937
G0 F7500 X140.819 Y99.119
G1 F2100 X94.179 Y111.616 E266.63535
G0 F7500 X94.4 Y111.616
G0 X94.4 Y105.405
G0 X94.179 Y105.405
G1 F2100 X140.818 Y92.908 E268.24129
G0 F7500 X140.6 Y92.908
G0 X140.6 Y81.023
G0 X140.819 Y81.023
G1 F2100 X105.975 Y46.179 E269.88024
G0 F7500 X106.571 Y46.179
G1 F2100 X94.179 Y49.5 E270.30695
G0 F7500 X94.4 Y49.5
G0 X105.259 Y46.4
G0 X105.259 Y46.178
G1 F2100 X94.18 Y87.528 E271.73076
G0 F7500 X94.7 Y87.528
G1 F1500 E265.23076
;MESH:NONMESH
G0 F300 X94.7 Y87.528 Z0.6
G0 F7500 X94.37 Y188.63
G1 F1500 E271.73076
G0 F7500 X94.1 Y188.9
;TIME_ELAPSED:368.771480
;LAYER:2
M106 S170
;TYPE:WALL-INNER
;MESH:Anno-Chipbox_x2.stl
G1 F1500 X140.9 Y188.9 E273.28734
G1 X140.9 Y46.1 E278.03688
G1 X94.1 Y46.1 E279.59346
G1 X94.1 Y188.9 E284.34301
G0 F9000 X93.7 Y189.3
;TYPE:WALL-OUTER
G1 F1500 X141.3 Y189.3 E285.92619
G1 X141.3 Y45.7 E290.70234
G1 X93.7 Y45.7 E292.28553
G1 X93.7 Y189.3 E297.06168
G0 F9000 X93.97 Y189.03
G0 X96.08 Y188.6
G0 X96.08 Y188.819
;TYPE:FILL
G1 F3000 X94.179 Y186.918 E297.1511
G0 F9000 X94.18 Y186.303
G1 F3000 X140.818 Y173.806 E298.75701
G0 F9000 X140.819 Y174.161
G1 F3000 X94.179 Y127.521 E300.95081
G0 F9000 X94.4 Y127.521
G0 X94.4 Y130.398
G0 X94.179 Y130.398
G1 F3000 X140.819 Y117.901 E302.55678
G0 F9000 X140.6 Y117.901
G0 X140.6 Y114.764
G0 X140.819 Y114.764
G1 F3000 X94.179 Y68.124 E304.75059
G1 X94.179 Y68.282
G1 X140.818 Y55.785 E306.35653
G0 F9000 X140.819 Y55.367
G1 F3000 X131.632 Y46.179 E306.78868
G0 F9000 X131.632 Y46.4
G0 X130.303 Y46.4
G0 X130.303 Y46.179
G1 F3000 X94.179 Y55.858 E308.03255
G0 F9000 X94.4 Y55.858
G0 X94.4 Y59.638
G0 X94.179 Y59.638
G1 F3000 X140.819 Y106.278 E310.22635
G0 F9000 X140.819 Y105.478
G1 F3000 X94.179 Y117.975 E311.83233
G0 F9000 X94.4 Y117.975
G0 X94.4 Y119.035
G0 X94.179 Y119.035
G1 F3000 X140.819 Y165.675 E314.02613
G0 F9000 X140.6 Y165.675
G0 X140.6 Y167.595
G0 X140.819 Y167.595
G1 F3000 X94.179 Y180.092 E315.6321
G0 F9000 X94.18 Y179.708
G1 F3000 X129.959 Y46.178 E320.22999
G0 F9000 X129.959 Y46.4
G0 X136.17 Y46.4
G0 X136.17 Y46.179
G1 F3000 X97.95 Y188.82 E325.14161
G0 F9000 X97.95 Y188.6
G0 X104.162 Y188.6
G0 X104.162 Y188.82
G1 F3000 X140.819 Y52.013 E329.85234
G0 F9000 X140.6 Y52.013
G0 X140.6 Y49.573
G0 X140.818 Y49.573
G1 F3000 X94.18 Y62.07 E331.45825
G0 F9000 X94.4 Y62.07
G0 X94.4 Y63.797
G0 X94.18 Y63.797
G1 F3000 X98.9 Y46.178 E332.06492
G0 F9000 X98.9 Y46.4
G0 X97.691 Y46.4
G0 X97.691 Y46.179
G1 F3000 X140.819 Y89.308 E334.09356
G0 F9000 X140.6 Y89.308
G0 X140.6 Y86.843
G0 X140.819 Y86.843
G1 F3000 X94.179 Y99.34 E335.69953
G0 F9000 X94.4 Y99.34
G0 X94.4 Y102.065
G0 X94.179 Y102.065
G1 F3000 X140.819 Y148.705 E337.89333
G0 F9000 X140.818 Y148.96
G1 F3000 X94.179 Y161.457 E339.49927
G1 X94.179 Y161.462
G1 X121.536 Y188.819 E340.78606
G0 F9000 X121.536 Y188.6
G0 X122.796 Y188.6
G0 X122.796 Y188.82
G1 F3000 X140.819 Y121.56 E343.10206
G0 F9000 X140.6 Y121.56
G0 X140.6 Y123.249
G0 X140.819 Y123.249
G1 F3000 X94.179 Y76.609 E345.29586
G0 F9000 X94.4 Y76.609
G0 X94.4 Y74.493
G0 X94.179 Y74.493
G1 F3000 X140.819 Y61.996 E346.90184
G0 F9000 X140.6 Y61.996
G0 X140.6 Y63.852
G0 X140.819 Y63.852
G1 F3000 X123.146 Y46.179 E347.73312
G0 F9000 X123.747 Y46.178
G1 F3000 X94.18 Y156.526 E351.53277
G0 F9000 X94.4 Y156.526
G0 X94.4 Y155.245
G0 X94.179 Y155.245
G1 F3000 X140.819 Y142.748 E353.13875
G0 F9000 X140.6 Y142.748
G0 X140.6 Y144.742
G0 X140.819 Y144.742
G1 F3000 X129.008 Y188.819 E354.65648
G0 F9000 X129.008 Y188.6
