;FLAVOR:Marlin
;TIME:21954
;Filament used: 16.3095m
;Layer height: 0.2
;MINX:22.2
;MINY:68.835
;MINZ:0.2
;MAXX:212.8
;MAXY:166.165
;MAXZ:27
;Generated with Cura_SteamEngine 5.2.1
M140 S60
M105
M190 S60
M104 S200
M105
M109 S200
M82 ;absolute extrusion mode
M201 X500.00 Y500.00 Z100.00 E5000.00 ;Setup machine max acceleration
M203 X500.00 Y500.00 Z10.00 E50.00 ;Setup machine max feedrate
M204 P500.00 R1000.00 T500.00 ;Setup Print/Retract/Travel acceleration
M205 X8.00 Y8.00 Z0.40 E5.00 ;Setup Jerk
M220 S100 ;Reset Feedrate
M221 S100 ;Reset Flowrate

G28 ;Home

G92 E0 ;Reset Extruder
G1 Z2.0 F3000 ;Move Z Axis up
G1 X10.1 Y20 Z0.28 F5000.0 ;Move to start position
G1 X10.1 Y200.0 Z0.28 F1500.0 E15 ;Draw the first line
G1 X10.4 Y200.0 Z0.28 F5000.0 ;Move to side a little
G1 X10.4 Y20 Z0.28 F1500.0 E30 ;Draw the second line
G92 E0 ;Reset Extruder
G1 Z2.0 F3000 ;Move Z Axis up

G92 E0
G92 E0
G1 F1500 E-6.5
;LAYER_COUNT:135
;LAYER:0
M107
;MESH:Anno-ExpMisnTray.stl
G0 F6000 X22.6 Y164.9 Z0.2
;TYPE:WALL-INNER
G1 F1500 E0
G1 F1200 X212.4 Y164.9 E6.31277
G1 X212.4 Y70.1 E9.46583
G1 X22.6 Y70.1 E15.77861
G1 X22.6 Y164.9 E18.93167
G0 F6000 X22.2 Y165.3
;TYPE:WALL-OUTER
G1 F1200 X212.8 Y165.3 E25.27105
G1 X212.8 Y69.7 E28.45072
G1 X22.2 Y69.7 E34.7901
G1 X22.2 Y165.3 E37.96977
G0 F6000 X22.47 Y165.03
G0 X23.922 Y164.6
G0 X23.922 Y164.819
;TYPE:FILL
G1 F1200 X49.281 Y70.179 E41.22855
G0 F6000 X49.281 Y70.4
G0 X53.408 Y70.4
G0 X53.408 Y70.179
G1 F1200 X148.048 Y164.819 E45.68013
G1 X148.155 Y164.819
G1 X173.514 Y70.179 E48.93891
G0 F6000 X173.514 Y70.4
G0 X172.202 Y70.4
G0 X172.202 Y70.179
G1 F1200 X212.319 Y110.296 E50.82589
G0 F6000 X212.319 Y110.815
G1 F1200 X197.848 Y164.82 E52.68547
G0 F6000 X197.848 Y164.6
G0 X198.96 Y164.6
G0 X198.96 Y164.819
G1 F1200 X104.32 Y70.179 E57.13705
G0 F6000 X105.186 Y70.178
G1 F1200 X79.827 Y164.819 E60.39586
G0 F6000 X80.166 Y164.819
G1 F1200 X22.679 Y107.333 E63.09985
G0 F6000 X22.9 Y107.333
G0 X22.9 Y105.782
G0 X22.68 Y105.782
G1 F1200 X155.551 Y70.179 E67.67506
G0 F6000 X155.231 Y70.179
G1 F1200 X212.319 Y127.267 E70.3603
G0 F6000 X212.1 Y127.267
G0 X212.1 Y129.508
G0 X212.318 Y129.508
G1 F1200 X80.537 Y164.819 E74.89797
G0 F6000 X80.537 Y164.6
G0 X86.039 Y164.6
G0 X86.039 Y164.819
G1 F1200 X111.398 Y70.179 E78.15676
G0 F6000 X111.398 Y70.4
G0 X112.805 Y70.4
G0 X112.805 Y70.179
G1 F1200 X207.445 Y164.819 E82.60833
G0 F6000 X207.445 Y164.6
G0 X210.272 Y164.6
G0 X210.272 Y164.819
G1 F1200 X212.319 Y157.181 E82.87134
G0 F6000 X212.1 Y157.181
G0 X212.1 Y154.355
G0 X212.318 Y154.355
G1 F1200 X173.265 Y164.819 E84.21606
G0 F6000 X173.504 Y164.819
G1 F1200 X78.864 Y70.179 E88.66764
G0 F6000 X78.864 Y70.4
G0 X80.339 Y70.4
G0 X80.339 Y70.178
G1 F1200 X54.981 Y164.819 E91.92645
G0 F6000 X54.71 Y164.819
G1 F1200 X22.679 Y132.788 E93.43309
G0 F6000 X22.9 Y132.788
G0 X22.9 Y130.629
G0 X22.68 Y130.629
G1 F1200 X212.319 Y79.815 E99.96301
G0 F6000 X212.1 Y79.815
G0 X212.1 Y76.355
G0 X212.319 Y76.355
G1 F1200 X206.143 Y70.179 E100.25351
G0 F6000 X206.143 Y70.4
G0 X204.572 Y70.4
G0 X204.572 Y70.179
G1 F1200 X179.213 Y164.82 E103.51232
G0 F6000 X179.213 Y164.6
G0 X181.989 Y164.6
G0 X181.989 Y164.819
G1 F1200 X87.349 Y70.179 E107.9639
G0 F6000 X86.551 Y70.179
G1 F1200 X61.192 Y164.819 E111.22268
G0 F6000 X61.192 Y164.6
G0 X63.195 Y164.6
G0 X63.195 Y164.819
G1 F1200 X22.679 Y124.303 E113.12843
G1 X22.68 Y124.417
G1 X212.318 Y73.603 E119.65832
G0 F6000 X212.1 Y73.603
G0 X210.784 Y70.4
G0 X210.784 Y70.179
G1 F1200 X185.425 Y164.819 E122.9171
G0 F6000 X185.425 Y164.6
G0 X190.474 Y164.6
G0 X190.474 Y164.819
G1 F1200 X95.834 Y70.179 E127.36868
G0 F6000 X95.834 Y70.4
G0 X92.763 Y70.4
G0 X92.763 Y70.179
G1 F1200 X67.404 Y164.819 E130.62746
G0 F6000 X67.404 Y164.6
G0 X71.68 Y164.6
G0 X71.68 Y164.819
G1 F1200 X22.679 Y115.818 E132.93232
G0 F6000 X22.9 Y115.818
G0 X22.9 Y118.205
G0 X22.68 Y118.205
G1 F1200 X201.914 Y70.179 E139.10396
G0 F6000 X201.914 Y70.4
G0 X198.361 Y70.4
G0 X198.361 Y70.178
G1 F1200 X173.002 Y164.819 E142.36277
G0 F6000 X173.002 Y164.6
G0 X166.79 Y164.6
G0 X166.79 Y164.819
G1 F1200 X192.149 Y70.179 E145.62156
G0 F6000 X192.149 Y70.4
G0 X189.172 Y70.4
G0 X189.172 Y70.179
G1 F1200 X212.319 Y93.326 E146.71032
G0 F6000 X212.1 Y93.326
G0 X212.1 Y92.238
G0 X212.318 Y92.238
G1 F1200 X22.68 Y143.052 E153.24021
G0 F6000 X22.9 Y143.052
G0 X22.9 Y141.274
G0 X22.679 Y141.274
G1 F1200 X46.224 Y164.819 E154.3477
G0 F6000 X46.224 Y164.6
G0 X48.769 Y164.6
G0 X48.769 Y164.819
G1 F1200 X74.128 Y70.179 E157.60648
G0 F6000 X74.128 Y70.4
G0 X70.379 Y70.4
G0 X70.379 Y70.179
G1 F1200 X165.018 Y164.819 E162.05803
G0 F6000 X165.018 Y164.6
G0 X160.579 Y164.6
G0 X160.579 Y164.82
G1 F1200 X185.937 Y70.179 E165.31684
G0 F6000 X185.937 Y70.4
G0 X180.687 Y70.4
G0 X180.687 Y70.179
G1 F1200 X212.319 Y101.811 E166.80471
G0 F6000 X212.1 Y101.811
G0 X212.1 Y104.662
G0 X212.319 Y104.662
G1 F1200 X22.68 Y155.475 E173.33462
G0 F6000 X22.9 Y155.475
G0 X22.9 Y158.244
G0 X22.679 Y158.244
G1 F1200 X29.254 Y164.819 E173.64389
G0 F6000 X30.134 Y164.819
G1 F1200 X55.493 Y70.178 E176.9027
G0 F6000 X55.493 Y70.4
G0 X61.704 Y70.4
G0 X61.704 Y70.178
G1 F1200 X36.346 Y164.819 E180.16151
G0 F6000 X36.346 Y164.6
G0 X37.739 Y164.6
G0 X37.739 Y164.819
G1 F1200 X22.679 Y149.759 E180.86989
G0 F6000 X22.68 Y149.263
G1 F1200 X212.318 Y98.45 E187.39977
G0 F6000 X212.1 Y98.45
G0 X212.1 Y87.633
G0 X212.319 Y87.633
G1 F1200 X191.637 Y164.819 E190.05755
G0 F6000 X191.637 Y164.6
G0 X196.447 Y164.6
G0 X196.447 Y164.819
G1 F1200 X212.318 Y160.567 E190.60404
G0 F6000 X212.319 Y161.208
G1 F1200 X121.29 Y70.179 E194.88576
G0 F6000 X121.29 Y70.4
G0 X123.821 Y70.4
G0 X123.821 Y70.178
G1 F1200 X98.462 Y164.82 E198.14461
G0 F6000 X98.462 Y164.6
G0 X97.136 Y164.6
G0 X97.136 Y164.819
G1 F1200 X22.679 Y90.362 E201.64684
G0 F6000 X22.9 Y90.362
G0 X22.9 Y93.359
G0 X22.679 Y93.359
G1 F1200 X109.187 Y70.179 E204.62561
G0 F6000 X109.187 Y70.4
G0 X117.609 Y70.4
G0 X117.609 Y70.178
G1 F1200 X92.25 Y164.819 E207.88442
G0 F6000 X92.25 Y164.6
G0 X88.651 Y164.6
G0 X88.651 Y164.819
G1 F1200 X22.679 Y98.847 E210.98754
G0 F6000 X22.68 Y99.57
G1 F1200 X132.369 Y70.179 E214.76451
G0 F6000 X132.369 Y70.4
G0 X130.033 Y70.4
G0 X130.033 Y70.179
G1 F1200 X104.674 Y164.819 E218.02329
G0 F6000 X105.621 Y164.819
G1 F1200 X22.679 Y81.877 E221.92463
G0 F6000 X22.68 Y80.935
G1 F1200 X62.823 Y70.179 E223.30688
G0 F6000 X61.893 Y70.179
G1 F1200 X156.533 Y164.819 E227.75846
G0 F6000 X156.533 Y164.6
G0 X154.367 Y164.6
G0 X154.367 Y164.819
G1 F1200 X179.726 Y70.178 E231.01727
G0 F6000 X178.733 Y70.179
G1 F1200 X22.68 Y111.994 E236.39072
G0 F6000 X22.9 Y111.994
G0 X22.9 Y123.093
G0 X22.679 Y123.093
G1 F1200 X36.858 Y70.178 E238.21277
G0 F6000 X36.437 Y70.179
G1 F1200 X131.077 Y164.819 E242.66434
G0 F6000 X131.077 Y164.6
G0 X129.52 Y164.6
G0 X129.52 Y164.819
G1 F1200 X154.879 Y70.179 E245.92313
G0 F6000 X154.879 Y70.4
G0 X148.667 Y70.4
G0 X148.667 Y70.179
G1 F1200 X123.309 Y164.819 E249.1819
G0 F6000 X122.592 Y164.819
G1 F1200 X27.952 Y70.179 E253.63347
G0 F6000 X27.952 Y70.4
G0 X30.646 Y70.4
G0 X30.646 Y70.179
G1 F1200 X22.68 Y99.91 E254.65721
G0 F6000 X22.9 Y99.91
G0 X22.9 Y87.147
G0 X22.68 Y87.147
G1 F1200 X86.005 Y70.179 E256.83771
G0 F6000 X86.005 Y70.4
G0 X98.974 Y70.4
G0 X98.974 Y70.178
G1 F1200 X73.616 Y164.819 E260.09651
G0 F6000 X73.616 Y164.6
G0 X57.355 Y164.6
G0 X57.355 Y164.819
G1 F1200 X212.319 Y123.296 E265.43246
G0 F6000 X212.1 Y123.296
G0 X212.1 Y118.781
G0 X212.319 Y118.781
G1 F1200 X163.717 Y70.179 E267.71855
G0 F6000 X163.717 Y70.4
G0 X161.091 Y70.4
G0 X161.091 Y70.178
G1 F1200 X135.732 Y164.819 E270.97736
G0 F6000 X135.732 Y164.6
G0 X139.563 Y164.6
G0 X139.563 Y164.819
G1 F1200 X44.923 Y70.179 E275.42894
G0 F6000 X44.923 Y70.4
G0 X43.07 Y70.4
G0 X43.07 Y70.178
G1 F1200 X22.679 Y146.276 E278.04926
G0 F6000 X22.9 Y146.276
G0 X22.9 Y136.84
G0 X22.68 Y136.84
G1 F1200 X212.319 Y86.027 E284.57917
G0 F6000 X212.1 Y86.027
G0 X212.1 Y84.84
G0 X212.319 Y84.84
G1 F1200 X197.658 Y70.179 E285.26878
G1 F1500 E278.76878
G0 F6000 X197.658 Y70.4
G0 X167.302 Y70.4
G1 F1500 E285.26878
G0 F6000 X167.302 Y70.179
G1 F1200 X141.944 Y164.819 E288.52756
G0 F6000 X141.944 Y164.6
G0 X150.083 Y164.6
G0 X150.083 Y164.819
G1 F1200 X212.318 Y148.143 E290.67052
G0 F6000 X212.1 Y148.143
G0 X212.1 Y144.237
G0 X212.319 Y144.237
G1 F1200 X138.261 Y70.179 E294.15398
G0 F6000 X138.261 Y70.4
G0 X136.244 Y70.4
G0 X136.244 Y70.179
G1 F1200 X110.885 Y164.819 E297.41276
G0 F6000 X110.885 Y164.6
G0 X114.107 Y164.6
G0 X114.107 Y164.819
G1 F1200 X22.679 Y73.392 E301.71323
G0 F6000 X22.9 Y73.392
G0 X22.9 Y74.724
G0 X22.679 Y74.724
G1 F1200 X39.641 Y70.179 E302.29729
G0 F6000 X39.641 Y70.4
G0 X24.435 Y70.4
G0 X24.435 Y70.178
G1 F1200 X22.68 Y76.727 E302.5228
G1 F1500 E296.0228
G0 F6000 X22.9 Y76.727
G0 X67.916 Y70.4
G1 F1500 E302.5228
G0 F6000 X67.916 Y70.179
G1 F1200 X42.557 Y164.819 E305.78158
G0 F6000 X42.557 Y164.6
G0 X34.173 Y164.6
G0 X34.173 Y164.819
G1 F1200 X212.318 Y117.085 E311.91573
G0 F6000 X212.1 Y117.085
G0 X212.1 Y110.873
G0 X212.318 Y110.873
G1 F1200 X22.68 Y161.687 E318.44562
G1 F1500 E311.94562
G0 F6000 X22.9 Y161.687
G0 X103.719 Y164.6
G1 F1500 E318.44562
G0 F6000 X103.719 Y164.819
G1 F1200 X212.318 Y135.72 E322.18505
G1 X212.319 Y135.752
G1 X146.746 Y70.179 E325.26941
G0 F6000 X146.746 Y70.4
G0 X142.456 Y70.4
G0 X142.456 Y70.178
G1 F1200 X117.097 Y164.819 E328.52822
G0 F6000 X117.097 Y164.6
G0 X126.901 Y164.6
G0 X126.901 Y164.819
G1 F1200 X212.318 Y141.932 E331.46942
G0 F6000 X212.1 Y141.932
G0 X212.1 Y133.998
G0 X212.319 Y133.998
G1 F1200 X204.06 Y164.819 E332.53069
G0 F6000 X204.06 Y164.6
G0 X212.1 Y152.723
G0 X212.319 Y152.723
G1 F1200 X129.776 Y70.179 E336.41329
G0 F6000 X129.776 Y70.7
G1 F1500 E329.91329
;MESH:NONMESH
G0 F300 X129.776 Y70.7 Z0.4
G0 F6000 X22.87 Y164.63
G1 F1500 E336.41329
G0 F6000 X22.6 Y164.9
;TIME_ELAPSED:533.507256
;LAYER:1
M106 S85
;TYPE:WALL-INNER
;MESH:Anno-ExpMisnTray.stl
G1 F1350 X212.4 Y164.9 E342.72606
G1 X212.4 Y70.1 E345.87912
G1 X22.6 Y70.1 E352.1919
G1 X22.6 Y164.9 E355.34496
G0 F7500 X22.2 Y165.3
;TYPE:WALL-OUTER
G1 F1350 X212.8 Y165.3 E361.68434
G1 X212.8 Y69.7 E364.86401
G1 X22.2 Y69.7 E371.20339
G1 X22.2 Y165.3 E374.38306
G0 F7500 X22.47 Y165.03
G0 X23.776 Y164.6
G0 X23.776 Y164.818
;TYPE:FILL
G1 F2100 X49.135 Y70.178 E377.64184
G0 F7500 X49.135 Y70.4
G0 X45.122 Y70.4
G0 X45.122 Y70.179
G1 F2100 X139.762 Y164.819 E382.09341
G0 F7500 X139.762 Y164.6
G0 X141.798 Y164.6
G0 X141.798 Y164.82
G1 F2100 X167.157 Y70.178 E385.35226
G0 F7500 X167.157 Y70.4
G0 X163.916 Y70.4
G0 X163.916 Y70.179
G1 F2100 X212.319 Y118.582 E387.62899
G0 F7500 X212.1 Y118.582
G0 X212.1 Y117.231
G0 X212.319 Y117.231
G1 F2100 X34.718 Y164.819 E393.7444
G0 F7500 X34.718 Y164.6
G0 X36.2 Y164.6
G0 X36.2 Y164.819
G1 F2100 X61.558 Y70.178 E397.00321
G0 F7500 X62.093 Y70.179
G1 F2100 X156.733 Y164.819 E401.45478
G0 F7500 X156.733 Y164.6
G0 X154.221 Y164.6
G0 X154.221 Y164.819
G1 F2100 X179.58 Y70.179 E404.71356
G0 F7500 X179.277 Y70.179
G1 F2100 X22.68 Y112.139 E410.10573
G0 F7500 X22.9 Y112.139
G0 X22.9 Y115.619
G0 X22.679 Y115.619
G1 F2100 X71.88 Y164.819 E412.41997
G0 F7500 X71.88 Y164.6
G0 X73.469 Y164.6
G0 X73.469 Y164.819
G1 F2100 X98.828 Y70.179 E415.67876
G0 F7500 X98.828 Y70.4
G0 X96.034 Y70.4
G0 X96.034 Y70.179
G1 F2100 X190.674 Y164.819 E420.13033
G0 F7500 X191.491 Y164.819
G1 F2100 X212.319 Y87.087 E422.80691
G0 F7500 X212.318 Y86.173
G1 F2100 X22.68 Y136.986 E429.33679
G0 F7500 X22.9 Y136.986
G0 X22.9 Y141.074
G0 X22.679 Y141.074
G1 F2100 X46.424 Y164.819 E430.45368
G0 F7500 X46.424 Y164.6
G0 X48.623 Y164.6
G0 X48.623 Y164.819
G1 F2100 X73.982 Y70.179 E433.71247
G0 F7500 X73.982 Y70.4
G0 X70.578 Y70.4
G0 X70.578 Y70.179
G1 F2100 X165.218 Y164.819 E438.16404
G0 F7500 X165.218 Y164.6
G0 X166.644 Y164.6
G0 X166.644 Y164.819
G1 F2100 X192.003 Y70.179 E441.42282
G0 F7500 X192.003 Y70.4
G0 X189.372 Y70.4
G0 X189.372 Y70.179
G1 F2100 X212.319 Y93.126 E442.50218
G0 F7500 X212.318 Y92.384
G1 F2100 X22.68 Y143.198 E449.03207
G0 F7500 X22.9 Y143.198
G0 X22.9 Y145.731
G0 X22.679 Y145.731
G1 F2100 X42.923 Y70.178 E451.63362
G0 F7500 X42.923 Y70.4
G0 X40.186 Y70.4
G0 X40.186 Y70.179
G1 F2100 X22.679 Y74.87 E452.23644
G0 F7500 X22.9 Y74.87
G0 X22.9 Y76.182
G0 X22.68 Y76.182
G1 F2100 X24.289 Y70.178 E452.44318
G0 F7500 X24.289 Y70.4
G0 X22.9 Y73.192
G0 X22.679 Y73.192
G1 F2100 X114.306 Y164.819 E456.75304
G0 F7500 X114.306 Y164.6
G0 X116.951 Y164.6
G0 X116.951 Y164.819
G1 F2100 X142.31 Y70.178 E460.01185
G0 F7500 X142.31 Y70.4
G0 X138.46 Y70.4
G0 X138.46 Y70.179
G1 F2100 X212.319 Y144.038 E463.48595
G0 F7500 X212.1 Y144.038
G0 X212.1 Y142.077
G0 X212.319 Y142.077
G1 F2100 X127.446 Y164.819 E466.40842
G0 F7500 X127.446 Y164.6
G0 X129.374 Y164.6
G0 X129.374 Y164.819
G1 F2100 X154.733 Y70.179 E469.6672
G0 F7500 X155.431 Y70.179
G1 F2100 X212.319 Y127.067 E472.34304
G0 F7500 X212.1 Y127.067
G0 X212.1 Y129.654
G0 X212.318 Y129.654
G1 F2100 X81.082 Y164.819 E476.86195
G0 F7500 X80.365 Y164.819
G1 F2100 X22.679 Y107.133 E479.57532
G0 F7500 X22.9 Y107.133
G0 X22.9 Y105.928
G0 X22.68 Y105.928
G1 F2100 X156.095 Y70.179 E484.16926
G0 F7500 X156.095 Y70.4
G0 X160.945 Y70.4
G0 X160.945 Y70.179
G1 F2100 X135.586 Y164.819 E487.42804
G0 F7500 X135.586 Y164.6
G0 X131.277 Y164.6
G0 X131.277 Y164.819
G1 F2100 X36.637 Y70.179 E491.87962
G1 X36.712 Y70.179
G1 X22.679 Y122.548 E493.68287
G0 F7500 X22.9 Y122.548
G0 X22.9 Y124.104
G0 X22.679 Y124.104
G1 F2100 X63.394 Y164.819 E495.59798
G0 F7500 X63.394 Y164.6
G0 X61.046 Y164.6
G0 X61.046 Y164.819
G1 F2100 X86.405 Y70.178 E498.85679
G1 X86.549 Y70.179
G1 X22.68 Y87.293 E501.05602
G0 F7500 X22.9 Y87.293
G0 X22.9 Y90.163
G0 X22.679 Y90.163
G1 F2100 X97.336 Y164.819 E504.56764
G0 F7500 X98.316 Y164.819
G1 F2100 X123.675 Y70.178 E507.82645
G0 F7500 X123.675 Y70.4
G0 X121.49 Y70.4
G0 X121.49 Y70.179
G1 F2100 X212.319 Y161.008 E512.09877
G0 F7500 X212.318 Y160.713
G1 F2100 X196.991 Y164.819 E512.62652
G0 F7500 X197.703 Y164.819
G1 F2100 X212.319 Y110.27 E514.50483
G1 X212.319 Y110.097
G1 X172.401 Y70.179 E516.38245
G0 F7500 X173.368 Y70.179
G1 F2100 X148.009 Y164.819 E519.64123
G0 F7500 X148.247 Y164.819
G1 F2100 X53.607 Y70.179 E524.09281
G0 F7500 X53.607 Y70.4
G0 X55.347 Y70.4
G0 X55.347 Y70.179
G1 F2100 X29.988 Y164.819 E527.35159
G0 F7500 X29.453 Y164.819
G1 F2100 X22.679 Y158.045 E527.67022
G0 F7500 X22.9 Y158.045
G0 X22.9 Y155.621
G0 X22.68 Y155.621
G1 F2100 X212.318 Y104.808 E534.2001
G0 F7500 X212.1 Y104.808
G0 X212.1 Y101.611
G0 X212.319 Y101.611
G1 F2100 X180.887 Y70.179 E535.67856
G0 F7500 X180.887 Y70.4
G0 X185.792 Y70.4
G0 X185.792 Y70.178
G1 F2100 X160.433 Y164.819 E538.93738
G0 F7500 X160.433 Y164.6
G0 X150.628 Y164.6
G0 X150.628 Y164.819
G1 F2100 X212.318 Y148.289 E541.06158
G0 F7500 X212.1 Y148.289
G0 X212.1 Y152.523
G0 X212.319 Y152.523
G1 F2100 X129.975 Y70.179 E544.93479
G1 X129.886 Y70.179
G1 X104.528 Y164.819 E548.19356
G0 F7500 X104.264 Y164.819
G1 F2100 X212.318 Y135.866 E551.91423
G0 F7500 X212.319 Y135.553
G1 F2100 X146.945 Y70.179 E554.98922
G0 F7500 X146.945 Y70.4
G0 X148.522 Y70.4
G0 X148.522 Y70.178
G1 F2100 X123.163 Y164.82 E558.24807
G0 F7500 X122.791 Y164.819
G1 F2100 X28.152 Y70.179 E562.69962
G0 F7500 X28.152 Y70.4
G0 X30.5 Y70.4
G0 X30.5 Y70.178
G1 F2100 X22.68 Y99.365 E563.70462
G0 F7500 X22.68 Y99.716
G1 F2100 X132.913 Y70.179 E567.50032
G0 F7500 X132.913 Y70.4
G0 X136.098 Y70.4
G0 X136.098 Y70.179
G1 F2100 X110.739 Y164.819 E570.75911
G0 F7500 X110.739 Y164.6
G0 X105.821 Y164.6
G0 X105.821 Y164.819
G1 F2100 X22.679 Y81.677 E574.66985
G0 F7500 X22.68 Y81.081
G1 F2100 X63.367 Y70.179 E576.07084
G0 F7500 X63.367 Y70.4
G0 X67.77 Y70.4
G0 X67.77 Y70.178
G1 F2100 X42.411 Y164.819 E579.32966
G0 F7500 X42.411 Y164.6
G0 X37.939 Y164.6
G0 X37.939 Y164.819
G1 F2100 X22.679 Y149.56 E580.04742
G1 X22.68 Y149.409
G1 X212.319 Y98.596 E586.57733
G0 F7500 X212.1 Y98.596
G0 X212.1 Y111.019
G0 X212.318 Y111.019
G1 F2100 X22.68 Y161.833 E593.10722
G0 F7500 X22.9 Y161.833
G0 X22.9 Y132.589
G0 X22.679 Y132.589
G1 F2100 X54.909 Y164.819 E594.62322
