;FLAVOR:Marlin
;TIME:16764
;Filament used: 11.9194m
;Layer height: 0.2
;MINX:69.7
;MINY:52.7
;MINZ:0.2
;MAXX:165.3
;MAXY:182.3
;MAXZ:32
;Generated with Cura_SteamEngine 5.2.1
M140 S60
M105
M190 S60
M104 S200
M105
M109 S200
M82 ;absolute extrusion mode
M201 X500.00 Y500.00 Z100.00 E5000.00 ;Setup machine max acceleration
M203 X500.00 Y500.00 Z10.00 E50.00 ;Setup machine max feedrate
M204 P500.00 R1000.00 T500.00 ;Setup Print/Retract/Travel acceleration
M205 X8.00 Y8.00 Z0.40 E5.00 ;Setup Jerk
M220 S100 ;Reset Feedrate
M221 S100 ;Reset Flowrate

G28 ;Home

G92 E0 ;Reset Extruder
G1 Z2.0 F3000 ;Move Z Axis up
G1 X10.1 Y20 Z0.28 F5000.0 ;Move to start position
G1 X10.1 Y200.0 Z0.28 F1500.0 E15 ;Draw the first line
G1 X10.4 Y200.0 Z0.28 F5000.0 ;Move to side a little
G1 X10.4 Y20 Z0.28 F1500.0 E30 ;Draw the second line
G92 E0 ;Reset Extruder
G1 Z2.0 F3000 ;Move Z Axis up

G92 E0
G92 E0
G1 F1500 E-6.5
;LAYER_COUNT:160
;LAYER:0
M107
;MESH:Anno-NuWrldCrds.stl
G0 F6000 X70.1 Y181.9 Z0.2
;TYPE:WALL-INNER
G1 F1500 E0
G1 F1200 X164.9 Y181.9 E3.15306
G1 X164.9 Y53.1 E7.43697
G1 X70.1 Y53.1 E10.59003
G1 X70.1 Y100.5 E12.16656
G1 X70.1 Y181.9 E14.87393
G0 F6000 X69.7 Y182.3
;TYPE:WALL-OUTER
G1 F1200 X165.3 Y182.3 E18.0536
G1 X165.3 Y52.7 E22.36411
G1 X69.7 Y52.7 E25.54378
G1 X69.7 Y100.5 E27.13362
G1 X69.7 Y182.3 E29.8543
G0 F6000 X69.97 Y182.03
G0 X71.709 Y181.6
G0 X71.709 Y181.819
;TYPE:FILL
G1 F1200 X70.178 Y180.288 E29.92631
G0 F6000 X70.18 Y180.017
G1 F1200 X164.818 Y154.659 E33.18502
G0 F6000 X164.6 Y154.659
G0 X164.6 Y156.135
G0 X164.82 Y156.135
G1 F1200 X70.178 Y61.494 E37.63667
G0 F6000 X70.179 Y61.733
G1 F1200 X72.471 Y53.179 E37.93121
G0 F6000 X72.471 Y53.4
G0 X70.35 Y53.4
G0 X70.35 Y53.18
G1 F1200 X164.82 Y147.65 E42.37479
G0 F6000 X164.819 Y148.447
G1 F1200 X70.179 Y173.806 E45.63357
G0 F6000 X70.4 Y173.806
G0 X70.4 Y171.802
G0 X70.178 Y171.802
G1 F1200 X80.195 Y181.819 E46.10474
G0 F6000 X80.195 Y181.6
G0 X81.484 Y181.6
G0 X81.484 Y181.819
G1 F1200 X115.953 Y53.178 E50.53429
G0 F6000 X115.953 Y53.4
G0 X112.776 Y53.4
G0 X112.776 Y53.18
G1 F1200 X164.82 Y105.223 E52.98225
G0 F6000 X164.818 Y104.966
G1 F1200 X70.179 Y130.324 E56.24099
G0 F6000 X70.178 Y129.376
G1 F1200 X122.621 Y181.819 E58.70775
G0 F6000 X122.621 Y181.6
G0 X124.965 Y181.6
G0 X124.965 Y181.819
G1 F1200 X159.434 Y53.178 E63.1373
G0 F6000 X159.434 Y53.4
G0 X155.202 Y53.4
G0 X155.202 Y53.18
G1 F1200 X164.82 Y62.797 E63.58968
G0 F6000 X164.6 Y62.797
G0 X164.6 Y61.484
G0 X164.818 Y61.484
G1 F1200 X70.179 Y86.843 E66.84843
G1 X70.178 Y86.95
G1 X164.82 Y181.591 E71.30007
G0 F6000 X164.6 Y181.591
G0 X164.6 Y179.506
G0 X164.818 Y179.506
G1 F1200 X156.184 Y181.819 E71.59737
G1 X156.023 Y181.82
G1 X164.819 Y148.994 E72.72768
G0 F6000 X164.6 Y148.994
G0 X164.6 Y142.236
G0 X164.818 Y142.236
G1 F1200 X70.18 Y167.594 E75.98639
G0 F6000 X70.4 Y167.594
G0 X70.4 Y163.317
G0 X70.178 Y163.317
G1 F1200 X88.68 Y181.819 E76.85667
G0 F6000 X87.695 Y181.819
G1 F1200 X122.165 Y53.178 E81.28623
G0 F6000 X121.261 Y53.18
G1 F1200 X164.82 Y96.738 E83.33508
G0 F6000 X164.6 Y96.738
G0 X164.6 Y98.754
G0 X164.818 Y98.754
G1 F1200 X70.18 Y124.113 E86.5938
G0 F6000 X70.4 Y124.113
G0 X70.4 Y120.891
G0 X70.178 Y120.891
G1 F1200 X131.106 Y181.819 E89.45967
G1 X131.177 Y181.82
G1 X164.819 Y56.266 E93.78292
G0 F6000 X164.818 Y55.273
G1 F1200 X70.179 Y80.631 E97.04166
G0 F6000 X70.4 Y80.631
G0 X70.4 Y78.464
G0 X70.178 Y78.464
G1 F1200 X164.82 Y173.106 E101.49333
G1 X164.819 Y173.294
G1 X133.002 Y181.819 E102.5889
G0 F6000 X133.002 Y181.6
G0 X137.388 Y181.6
G0 X137.388 Y181.82
G1 F1200 X164.819 Y79.448 E106.11392
G0 F6000 X164.82 Y79.768
G1 F1200 X138.232 Y53.18 E107.36454
G0 F6000 X138.232 Y53.4
G0 X140.799 Y53.4
G0 X140.799 Y53.178
G1 F1200 X106.33 Y181.819 E111.79409
G0 F6000 X105.65 Y181.819
G1 F1200 X70.178 Y146.347 E113.46258
G0 F6000 X70.4 Y146.347
G0 X70.4 Y148.959
G0 X70.179 Y148.959
G1 F1200 X164.818 Y123.601 E116.72132
G0 F6000 X164.6 Y123.601
G0 X164.6 Y122.194
G0 X164.82 Y122.194
G1 F1200 X95.805 Y53.18 E119.96755
G0 F6000 X95.805 Y53.4
G0 X97.318 Y53.4
G0 X97.318 Y53.178
G1 F1200 X70.18 Y154.46 E123.45504
G0 F6000 X70.178 Y154.832
G1 F1200 X97.165 Y181.819 E124.72442
G0 F6000 X97.165 Y181.6
G0 X100.118 Y181.6
G0 X100.118 Y181.82
G1 F1200 X134.588 Y53.179 E129.15398
G0 F6000 X134.588 Y53.4
G0 X129.747 Y53.4
G0 X129.747 Y53.18
G1 F1200 X164.82 Y88.253 E130.8037
G0 F6000 X164.6 Y88.253
G0 X164.6 Y86.331
G0 X164.818 Y86.331
G1 F1200 X70.179 Y111.689 E134.06245
G0 F6000 X70.178 Y112.405
G1 F1200 X139.592 Y181.819 E137.32747
G0 F6000 X139.592 Y181.6
G0 X143.6 Y181.6
G0 X143.6 Y181.819
G1 F1200 X164.819 Y102.63 E140.05422
G0 F6000 X164.6 Y102.63
G0 X164.6 Y111.177
G0 X164.819 Y111.177
G1 F1200 X70.179 Y136.536 E143.313
G0 F6000 X70.4 Y136.536
G0 X70.4 Y137.861
G0 X70.178 Y137.861
G1 F1200 X114.136 Y181.819 E145.38065
G0 F6000 X114.136 Y181.6
G0 X112.542 Y181.6
G0 X112.542 Y181.82
G1 F1200 X147.011 Y53.179 E149.8102
G0 F6000 X146.717 Y53.18
G1 F1200 X164.82 Y71.282 E150.66168
G0 F6000 X164.6 Y71.282
G0 X164.6 Y73.908
G0 X164.818 Y73.908
G1 F1200 X70.179 Y99.266 E153.92043
G0 F6000 X70.4 Y99.266
G0 X70.4 Y95.435
G0 X70.178 Y95.435
G1 F1200 X156.562 Y181.819 E157.98366
G0 F6000 X156.562 Y181.6
G0 X162.235 Y181.6
G0 X162.235 Y181.82
G1 F1200 X164.819 Y172.176 E158.31574
G0 F6000 X164.6 Y172.176
G0 X164.6 Y167.082
G0 X164.819 Y167.082
G1 F1200 X109.82 Y181.819 E160.20954
G0 F6000 X109.82 Y181.6
G0 X118.753 Y181.6
G0 X118.753 Y181.82
G1 F1200 X153.223 Y53.179 E164.6391
G0 F6000 X153.223 Y53.4
G0 X149.45 Y53.4
G0 X149.45 Y53.179
G1 F1200 X70.179 Y74.419 E167.36867
G0 F6000 X70.4 Y74.419
G0 X70.4 Y69.979
G0 X70.178 Y69.979
G1 F1200 X164.82 Y164.62 E171.82031
G0 F6000 X164.6 Y164.62
G0 X164.6 Y160.871
G0 X164.818 Y160.871
G1 F1200 X86.638 Y181.819 E174.51232
G0 F6000 X86.638 Y181.6
G0 X93.907 Y181.6
G0 X93.907 Y181.82
G1 F1200 X128.376 Y53.179 E178.94186
G0 F6000 X128.376 Y53.4
G0 X126.268 Y53.4
G0 X126.268 Y53.179
G1 F1200 X70.179 Y68.208 E180.8732
G0 F6000 X70.4 Y68.208
G0 X70.4 Y61.996
G0 X70.179 Y61.996
G1 F1200 X103.086 Y53.179 E182.0063
G0 F6000 X103.529 Y53.179
G1 F1200 X70.18 Y177.641 E186.29195
G0 F6000 X70.4 Y177.641
G0 X75.272 Y181.6
G0 X75.272 Y181.819
G1 F1200 X109.741 Y53.179 E190.72146
G0 F6000 X109.741 Y53.4
G0 X104.291 Y53.4
G0 X104.291 Y53.18
G1 F1200 X164.82 Y113.709 E193.56856
G0 F6000 X164.6 Y113.709
G0 X164.6 Y117.389
G0 X164.818 Y117.389
G1 F1200 X70.18 Y142.748 E196.82728
G0 F6000 X70.4 Y142.748
G0 X70.4 Y131.279
G0 X70.179 Y131.279
G1 F1200 X91.106 Y53.179 E199.51653
G0 F6000 X91.106 Y53.4
G0 X87.32 Y53.4
G0 X87.32 Y53.18
G1 F1200 X164.82 Y130.679 E203.16187
G0 F6000 X164.819 Y129.812
G1 F1200 X70.179 Y155.171 E206.42065
G0 F6000 X70.4 Y155.171
G0 X70.4 Y161.382
G0 X70.18 Y161.382
G1 F1200 X164.818 Y136.024 E209.67936
G0 F6000 X164.6 Y136.024
G0 X164.6 Y139.164
G0 X164.82 Y139.164
G1 F1200 X78.835 Y53.18 E213.72381
G1 X78.683 Y53.179
G1 X70.179 Y84.915 E214.81659
G0 F6000 X70.4 Y84.915
G0 X70.4 Y93.054
G0 X70.179 Y93.054
G1 F1200 X164.818 Y67.696 E218.07533
G0 F6000 X164.6 Y67.696
G0 X164.6 Y80.119
G0 X164.818 Y80.119
G1 F1200 X70.18 Y105.478 E221.33405
G0 F6000 X70.4 Y105.478
G0 X70.4 Y103.92
G0 X70.178 Y103.92
G1 F1200 X148.077 Y181.819 E224.99818
G0 F6000 X148.077 Y181.6
G0 X149.812 Y181.6
G0 X149.812 Y181.82
G1 F1200 X164.819 Y125.812 E226.92672
G1 F1500 E220.42672
G0 F6000 X164.6 Y125.812
G0 X164.6 Y92.543
G1 F1500 E226.92672
G0 F6000 X164.818 Y92.543
G1 F1200 X70.179 Y117.901 E230.18546
G0 F6000 X70.4 Y117.901
G0 X70.4 Y108.097
G0 X70.179 Y108.097
G1 F1200 X84.894 Y53.179 E232.07648
G0 F6000 X84.894 Y53.4
G0 X79.904 Y53.4
G0 X79.904 Y53.179
G1 F1200 X70.179 Y55.785 E232.41134
G1 F1500 E225.91134
G0 F6000 X70.4 Y55.785
G0 X163.688 Y53.4
G1 F1500 E232.41134
G0 F6000 X163.688 Y53.18
G1 F1200 X164.82 Y54.312 E232.46459
G0 F6000 X164.3 Y54.312
G1 F1500 E225.96459
;MESH:NONMESH
G0 F300 X164.3 Y54.312 Z0.4
G0 F6000 X70.37 Y181.63
G1 F1500 E232.46459
G0 F6000 X70.1 Y181.9
;TIME_ELAPSED:372.027592
;LAYER:1
M106 S85
;TYPE:WALL-INNER
;MESH:Anno-NuWrldCrds.stl
G1 F1350 X164.9 Y181.9 E235.61765
G1 X164.9 Y53.1 E239.90156
G1 X70.1 Y53.1 E243.05462
G1 X70.1 Y181.9 E247.33852
G0 F7500 X69.7 Y182.3
;TYPE:WALL-OUTER
G1 F1350 X165.3 Y182.3 E250.51819
G1 X165.3 Y52.7 E254.82871
G1 X69.7 Y52.7 E258.00837
G1 X69.7 Y182.3 E262.31889
G0 F7500 X69.97 Y182.03
G0 X70.4 Y180.163
G0 X70.18 Y180.163
;TYPE:FILL
G1 F2100 X164.818 Y154.805 E265.5776
G0 F7500 X164.6 Y154.805
G0 X164.6 Y155.936
G0 X164.82 Y155.936
G1 F2100 X70.178 Y61.294 E270.02927
G1 X70.179 Y61.188
G1 X72.325 Y53.179 E270.30504
G0 F7500 X72.325 Y53.4
G0 X70.549 Y53.4
G0 X70.549 Y53.18
G1 F2100 X164.82 Y147.45 E274.73924
G0 F7500 X164.819 Y148.449
G1 F2100 X155.877 Y181.82 E275.88832
G0 F7500 X156.728 Y181.819
G1 F2100 X164.819 Y179.652 E276.16691
G0 F7500 X164.6 Y179.652
G0 X164.6 Y181.391
G0 X164.82 Y181.391
G1 F2100 X70.178 Y86.75 E280.61856
G0 F7500 X70.179 Y86.989
G1 F2100 X164.818 Y61.63 E283.87731
G0 F7500 X164.82 Y62.598
G1 F2100 X155.402 Y53.18 E284.3203
G0 F7500 X155.402 Y53.4
G0 X153.077 Y53.4
G0 X153.077 Y53.179
G1 F2100 X118.607 Y181.82 E288.74986
G0 F7500 X118.607 Y181.6
G0 X122.82 Y181.6
G0 X122.82 Y181.819
G1 F2100 X70.178 Y129.177 E291.22598
G0 F7500 X70.4 Y129.177
G0 X70.4 Y130.47
G0 X70.179 Y130.47
G1 F2100 X164.819 Y105.112 E294.48475
G1 X164.82 Y105.024
G1 X112.975 Y53.18 E296.92336
G0 F7500 X112.975 Y53.4
G0 X115.807 Y53.4
G0 X115.807 Y53.179
G1 F2100 X81.337 Y181.82 E301.35291
G0 F7500 X80.394 Y181.819
G1 F2100 X70.178 Y171.603 E301.83344
G0 F7500 X70.4 Y171.603
G0 X70.4 Y173.952
G0 X70.18 Y173.952
G1 F2100 X164.819 Y148.593 E305.09219
G0 F7500 X164.6 Y148.593
G0 X164.6 Y142.382
G0 X164.819 Y142.382
G1 F2100 X70.179 Y167.74 E308.35096
G0 F7500 X70.4 Y167.74
G0 X70.4 Y163.118
G0 X70.178 Y163.118
G1 F2100 X88.879 Y181.819 E309.2306
G0 F7500 X88.879 Y181.6
G0 X87.549 Y181.6
G0 X87.549 Y181.819
G1 F2100 X122.018 Y53.178 E313.66015
G0 F7500 X121.461 Y53.18
G1 F2100 X164.82 Y96.539 E315.69962
G0 F7500 X164.6 Y96.539
G0 X164.6 Y98.9
G0 X164.818 Y98.9
G1 F2100 X70.179 Y124.259 E318.95837
G0 F7500 X70.4 Y124.259
G0 X70.4 Y120.691
G0 X70.178 Y120.691
G1 F2100 X131.306 Y181.819 E321.83365
G0 F7500 X131.031 Y181.819
G1 F2100 X164.819 Y55.722 E326.1756
G0 F7500 X164.818 Y55.419
G1 F2100 X70.18 Y80.777 E329.43431
G0 F7500 X70.4 Y80.777
G0 X70.4 Y78.265
G0 X70.178 Y78.265
G1 F2100 X164.82 Y172.906 E333.88596
G0 F7500 X164.818 Y173.44
G1 F2100 X133.546 Y181.819 E334.96276
G0 F7500 X133.546 Y181.6
G0 X137.242 Y181.6
G0 X137.242 Y181.82
G1 F2100 X164.819 Y78.903 E338.50655
G0 F7500 X164.82 Y79.568
G1 F2100 X138.431 Y53.18 E339.74778
G0 F7500 X138.431 Y53.4
G0 X140.653 Y53.4
G0 X140.653 Y53.178
G1 F2100 X106.184 Y181.819 E344.17733
G0 F7500 X105.85 Y181.819
G1 F2100 X70.178 Y146.147 E345.85523
G0 F7500 X70.4 Y146.147
G0 X70.4 Y149.105
G0 X70.179 Y149.105
G1 F2100 X164.819 Y123.747 E349.114
G0 F7500 X164.6 Y123.747
G0 X164.6 Y125.267
G0 X164.819 Y125.267
G1 F2100 X149.666 Y181.819 E351.06128
G0 F7500 X149.666 Y181.6
G0 X148.276 Y181.6
G0 X148.276 Y181.819
G1 F2100 X70.178 Y103.721 E354.73477
G0 F7500 X70.4 Y103.721
G0 X70.4 Y105.624
G0 X70.179 Y105.624
G1 F2100 X164.818 Y80.265 E357.99352
G0 F7500 X164.6 Y80.265
G0 X164.6 Y74.054
G0 X164.818 Y74.054
G1 F2100 X70.18 Y99.412 E361.25223
G0 F7500 X70.4 Y99.412
G0 X70.4 Y95.235
G0 X70.178 Y95.235
G1 F2100 X156.762 Y181.819 E365.32488
G0 F7500 X156.762 Y181.6
G0 X162.089 Y181.6
G0 X162.089 Y181.82
G1 F2100 X164.819 Y171.631 E365.67572
G0 F7500 X164.6 Y171.631
G0 X164.6 Y167.228
G0 X164.819 Y167.228
G1 F2100 X110.365 Y181.819 E367.55076
G0 F7500 X110.365 Y181.6
G0 X112.396 Y181.6
G0 X112.396 Y181.819
G1 F2100 X146.865 Y53.178 E371.98031
G1 X146.916 Y53.18
G1 X164.82 Y71.083 E372.82243
G0 F7500 X164.6 Y71.083
G0 X164.6 Y67.842
G0 X164.818 Y67.842
G1 F2100 X70.179 Y93.2 E376.08117
G0 F7500 X70.4 Y93.2
G0 X70.4 Y84.37
G0 X70.179 Y84.37
G1 F2100 X78.537 Y53.178 E377.15522
G0 F7500 X79.034 Y53.18
G1 F2100 X164.82 Y138.965 E381.19031
G0 F7500 X164.6 Y138.965
G0 X164.6 Y136.17
G0 X164.818 Y136.17
G1 F2100 X70.18 Y161.529 E384.44903
G0 F7500 X70.4 Y161.529
G0 X70.4 Y155.317
G0 X70.18 Y155.317
G1 F2100 X164.818 Y129.958 E387.70774
G0 F7500 X164.82 Y130.48
G1 F2100 X87.52 Y53.18 E391.3437
G0 F7500 X87.52 Y53.4
G0 X84.748 Y53.4
G0 X84.748 Y53.179
G1 F2100 X70.179 Y107.552 E393.21594
G0 F7500 X70.4 Y107.552
G0 X70.4 Y111.835
G0 X70.179 Y111.835
G1 F2100 X164.819 Y86.477 E396.47472
G0 F7500 X164.6 Y86.477
G0 X164.6 Y88.053
G0 X164.82 Y88.053
G1 F2100 X129.946 Y53.18 E398.11506
G0 F7500 X129.946 Y53.4
G0 X128.23 Y53.4
G0 X128.23 Y53.179
G1 F2100 X93.761 Y181.819 E402.54458
G0 F7500 X93.761 Y181.6
G0 X97.365 Y181.6
G0 X97.365 Y181.819
G1 F2100 X70.178 Y154.632 E403.82337
G0 F7500 X70.18 Y153.915
G1 F2100 X97.172 Y53.179 E407.29205
G0 F7500 X97.172 Y53.4
G0 X96.005 Y53.4
G0 X96.005 Y53.18
G1 F2100 X164.82 Y121.995 E410.5289
G0 F7500 X164.6 Y121.995
G0 X164.6 Y117.535
G0 X164.818 Y117.535
G1 F2100 X70.18 Y142.894 E413.78762
G0 F7500 X70.4 Y142.894
G0 X70.4 Y137.662
G0 X70.178 Y137.662
G1 F2100 X114.335 Y181.819 E415.86463
G0 F7500 X114.335 Y181.6
G0 X124.819 Y181.6
G0 X124.819 Y181.82
G1 F2100 X159.288 Y53.179 E420.29418
G0 F7500 X159.288 Y53.4
G0 X163.887 Y53.4
G0 X163.887 Y53.18
G1 F2100 X164.82 Y54.112 E420.33804
G0 F7500 X164.6 Y54.112
G0 X149.994 Y53.4
G0 X149.994 Y53.179
G1 F2100 X70.179 Y74.566 E423.08635
G0 F7500 X70.4 Y74.566
G0 X70.4 Y69.78
G0 X70.178 Y69.78
G1 F2100 X164.82 Y164.421 E427.53799
G0 F7500 X164.6 Y164.421
G0 X164.6 Y161.017
G0 X164.819 Y161.017
G1 F2100 X87.183 Y181.819 E430.21126
G0 F7500 X87.183 Y181.6
G0 X75.126 Y181.6
G0 X75.126 Y181.819
G1 F2100 X109.595 Y53.179 E434.64078
G0 F7500 X109.595 Y53.4
G0 X104.49 Y53.4
G0 X104.49 Y53.18
G1 F2100 X164.82 Y113.509 E437.47849
G0 F7500 X164.6 Y113.509
G0 X164.6 Y111.324
G0 X164.818 Y111.324
G1 F2100 X70.18 Y136.682 E440.7372
G0 F7500 X70.4 Y136.682
G0 X70.4 Y130.733
G0 X70.179 Y130.733
G1 F2100 X90.96 Y53.179 E443.40766
G0 F7500 X90.96 Y53.4
G0 X80.449 Y53.4
G0 X80.449 Y53.179
G1 F2100 X70.179 Y55.931 E443.76129
G0 F7500 X70.4 Y55.931
G0 X70.4 Y62.142
G0 X70.179 Y62.142
G1 F2100 X103.63 Y53.179 E444.91312
G0 F7500 X103.384 Y53.178
G1 F2100 X70.18 Y177.097 E449.18008
G0 F7500 X70.4 Y177.097
G0 X70.4 Y180.088
G0 X70.178 Y180.088
G1 F2100 X71.909 Y181.819 E449.2615
G0 F7500 X71.909 Y181.6
G0 X99.972 Y181.6
G0 X99.972 Y181.82
G1 F2100 X134.442 Y53.179 E453.69105
G0 F7500 X134.442 Y53.4
G0 X126.812 Y53.4
G0 X126.812 Y53.179
G1 F2100 X70.179 Y68.354 E455.64112
G1 F1500 E449.14112
G0 F7500 X70.4 Y68.354
G0 X70.4 Y112.206
G1 F1500 E455.64112
G0 F7500 X70.178 Y112.206
G1 F2100 X139.791 Y181.819 E458.91551
G0 F7500 X139.791 Y181.6
G0 X143.454 Y181.6
G0 X143.454 Y181.82
G1 F2100 X164.819 Y102.085 E461.66106
G0 F7500 X164.6 Y102.085
G0 X164.6 Y92.689
G0 X164.818 Y92.689
G1 F2100 X70.18 Y118.047 E464.91976
G0 F7500 X70.7 Y118.047
G1 F1500 E458.41976
;MESH:NONMESH
G0 F300 X70.7 Y118.047 Z0.6
G0 F7500 X70.37 Y181.63
G1 F1500 E464.91976
G0 F7500 X70.1 Y181.9
;TIME_ELAPSED:604.249477
;LAYER:2
M106 S170
;TYPE:WALL-INNER
;MESH:Anno-NuWrldCrds.stl
G1 F1500 X164.9 Y181.9 E468.07283
G1 X164.9 Y53.1 E472.35673
G1 X70.1 Y53.1 E475.50979
G1 X70.1 Y181.9 E479.7937
G0 F9000 X69.7 Y182.3
;TYPE:WALL-OUTER
G1 F1500 X165.3 Y182.3 E482.97337
G1 X165.3 Y52.7 E487.28388
G1 X69.7 Y52.7 E490.46355
G1 X69.7 Y182.3 E494.77406
G0 F9000 X69.97 Y182.03
G0 X70.4 Y180.31
G0 X70.18 Y180.31
;TYPE:FILL
G1 F3000 X164.818 Y154.952 E498.03277
G0 F9000 X164.82 Y155.735
G1 F3000 X70.178 Y61.094 E502.48442
G0 F9000 X70.179 Y60.64
G1 F3000 X72.178 Y53.179 E502.74132
G0 F9000 X72.178 Y53.4
G0 X70.75 Y53.4
G0 X70.75 Y53.18
G1 F3000 X164.82 Y147.25 E507.16609
G0 F9000 X164.819 Y147.901
G1 F3000 X155.73 Y181.82 E508.33404
G0 F9000 X155.73 Y181.6
G0 X156.962 Y181.6
G0 X156.962 Y181.819
G1 F3000 X70.178 Y95.035 E512.41609
G0 F9000 X70.4 Y95.035
G0 X70.4 Y93.347
G0 X70.179 Y93.347
G1 F3000 X164.819 Y67.989 E515.67487
G0 F9000 X164.6 Y67.989
G0 X164.6 Y70.882
