;FLAVOR:Marlin
;TIME:15365
;Filament used: 11.3985m
;Layer height: 0.2
;MINX:93.347
;MINY:21.2
;MINZ:0.2
;MAXX:140.8
;MAXY:213.8
;MAXZ:14.6
;Generated with Cura_SteamEngine 5.2.1
M140 S60
M105
M190 S60
M104 S200
M105
M109 S200
M82 ;absolute extrusion mode
M201 X500.00 Y500.00 Z100.00 E5000.00 ;Setup machine max acceleration
M203 X500.00 Y500.00 Z10.00 E50.00 ;Setup machine max feedrate
M204 P500.00 R1000.00 T500.00 ;Setup Print/Retract/Travel acceleration
M205 X8.00 Y8.00 Z0.40 E5.00 ;Setup Jerk
M220 S100 ;Reset Feedrate
M221 S100 ;Reset Flowrate

G28 ;Home

G92 E0 ;Reset Extruder
G1 Z2.0 F3000 ;Move Z Axis up
G1 X10.1 Y20 Z0.28 F5000.0 ;Move to start position
G1 X10.1 Y200.0 Z0.28 F1500.0 E15 ;Draw the first line
G1 X10.4 Y200.0 Z0.28 F5000.0 ;Move to side a little
G1 X10.4 Y20 Z0.28 F1500.0 E30 ;Draw the second line
G92 E0 ;Reset Extruder
G1 Z2.0 F3000 ;Move Z Axis up

G92 E0
G92 E0
G1 F1500 E-6.5
;LAYER_COUNT:73
;LAYER:0
M107
;MESH:Anno1stPlyr+7Pts.stl
G0 F6000 X94.6 Y213.4 Z0.2
;TYPE:WALL-INNER
G1 F1500 E0
G1 F1200 X140.4 Y213.4 E1.52331
G1 X140.4 Y167.103 E3.06316
G1 X130.953 Y167.102 E3.37737
G1 X130.688 Y167.018 E3.38661
G1 X130.549 Y166.903 E3.39261
G1 X130.443 Y166.734 E3.39925
G1 X130.399 Y166.539 E3.4059
G1 X130.4 Y146.445 E4.07423
G1 X130.495 Y146.169 E4.08394
G1 X130.653 Y146.006 E4.09149
G1 X130.953 Y145.899 E4.10208
G1 X140.4 Y145.898 E4.41629
G1 X140.4 Y89.102 E6.30533
G1 X130.953 Y89.101 E6.61954
G1 X130.688 Y89.017 E6.62878
G1 X130.549 Y88.902 E6.63479
G1 X130.443 Y88.733 E6.64142
G1 X130.399 Y88.538 E6.64807
G1 X130.4 Y68.444 E7.3164
G1 X130.495 Y68.168 E7.32611
G1 X130.653 Y68.005 E7.33366
G1 X130.953 Y67.898 E7.34425
G1 X140.4 Y67.897 E7.65846
G1 X140.4 Y21.6 E9.1983
G1 X94.6 Y21.6 E10.72162
G1 X94.6 Y44.5 E11.48327
G1 X94.6 Y67.897 E12.26146
G1 X104.047 Y67.898 E12.57567
G1 X104.312 Y67.982 E12.58492
G1 X104.451 Y68.097 E12.59092
G1 X104.557 Y68.266 E12.59755
G1 X104.601 Y68.461 E12.6042
G1 X104.6 Y88.555 E13.27253
G1 X104.505 Y88.831 E13.28224
G1 X104.347 Y88.994 E13.28979
G1 X104.047 Y89.101 E13.30038
G1 X94.6 Y89.102 E13.61459
G1 X94.6 Y145.898 E15.50363
G1 X104.047 Y145.899 E15.81784
G1 X104.312 Y145.983 E15.82709
G1 X104.451 Y146.098 E15.83309
G1 X104.557 Y146.267 E15.83972
G1 X104.601 Y146.462 E15.84637
G1 X104.6 Y166.556 E16.5147
G1 X104.505 Y166.832 E16.52441
G1 X104.347 Y166.995 E16.53196
G1 X104.047 Y167.102 E16.54255
G1 X94.6 Y167.103 E16.85676
G1 X94.6 Y213.4 E18.39661
G0 F6000 X94.2 Y213.8
;TYPE:WALL-OUTER
G1 F1200 X140.8 Y213.8 E19.94653
G1 X140.8 Y166.703 E21.51298
G1 X130.983 Y166.703 E21.8395
G1 X130.848 Y166.637 E21.84449
G1 X130.798 Y166.521 E21.8487
G1 X130.798 Y146.48 E22.51526
G1 X130.848 Y146.364 E22.51946
G1 X130.983 Y146.298 E22.52446
G1 X140.8 Y146.298 E22.85098
G1 X140.8 Y88.702 E24.76663
G1 X130.983 Y88.702 E25.09314
G1 X130.848 Y88.636 E25.09814
G1 X130.798 Y88.52 E25.10234
G1 X130.798 Y68.479 E25.76891
G1 X130.848 Y68.363 E25.77311
G1 X130.983 Y68.297 E25.77811
G1 X140.8 Y68.297 E26.10462
G1 X140.8 Y21.2 E27.67107
G1 X94.2 Y21.2 E29.221
G1 X94.2 Y44.5 E29.99596
G1 X94.2 Y68.297 E30.78745
G1 X104.017 Y68.297 E31.11396
G1 X104.152 Y68.363 E31.11896
G1 X104.202 Y68.479 E31.12316
G1 X104.202 Y88.52 E31.78973
G1 X104.152 Y88.636 E31.79393
G1 X104.017 Y88.702 E31.79893
G1 X94.2 Y88.702 E32.12544
G1 X94.2 Y146.298 E34.04109
G1 X104.017 Y146.298 E34.36761
G1 X104.152 Y146.364 E34.37261
G1 X104.202 Y146.48 E34.37681
G1 X104.202 Y166.521 E35.04337
G1 X104.152 Y166.637 E35.04758
G1 X104.017 Y166.703 E35.05257
G1 X94.2 Y166.703 E35.37909
G1 X94.2 Y213.8 E36.94554
G0 F6000 X94.47 Y213.53
G0 X94.9 Y210.723
G0 X94.68 Y210.723
;TYPE:FILL
G1 F1200 X140.318 Y198.494 E38.51702
G0 F6000 X140.1 Y198.494
G0 X140.1 Y199.517
G0 X140.32 Y199.517
G1 F1200 X104.677 Y163.874 E40.19355
G0 F6000 X104.677 Y164.562
G1 F1200 X130.321 Y157.691 E41.07656
G0 F6000 X130.098 Y157.691
G0 X130.098 Y155.578
G0 X130.321 Y155.578
G1 F1200 X94.679 Y119.935 E42.75308
G0 F6000 X94.9 Y119.935
G0 X94.9 Y117.548
G0 X94.679 Y117.548
G1 F1200 X140.318 Y105.319 E44.32458
G0 F6000 X140.32 Y106.179
G1 F1200 X104.676 Y70.536 E46.00115
G0 F6000 X104.676 Y71.388
G1 F1200 X140.319 Y61.837 E47.22846
G0 F6000 X140.1 Y61.837
G0 X140.1 Y63.752
G0 X140.319 Y63.752
G1 F1200 X98.246 Y21.679 E49.20745
G0 F6000 X98.246 Y21.9
G0 X99.546 Y21.9
G0 X99.546 Y21.68
G1 F1200 X94.679 Y39.843 E49.83286
G0 F6000 X94.9 Y39.843
G0 X94.9 Y36.796
G0 X94.679 Y36.796
G1 F1200 X140.318 Y24.567 E51.40437
G0 F6000 X140.1 Y24.567
G0 X136.816 Y21.9
G0 X136.816 Y21.679
G1 F1200 X103.554 Y145.817 E55.67886
G1 X103.59 Y145.817
G1 X94.679 Y136.906 E56.09801
G0 F6000 X94.679 Y136.183
G1 F1200 X140.319 Y123.954 E57.66955
G0 F6000 X140.319 Y124.518
G1 F1200 X134.612 Y145.818 E58.40298
G0 F6000 X134.612 Y145.598
G0 X137.531 Y145.598
G0 X137.531 Y145.817
G1 F1200 X94.679 Y102.965 E60.4186
G0 F6000 X94.9 Y102.965
G0 X94.9 Y105.125
G0 X94.679 Y105.125
G1 F1200 X140.318 Y92.896 E61.99011
G0 F6000 X140.1 Y92.896
G0 X137.365 Y89.402
G0 X137.365 Y89.18
G1 F1200 X104.101 Y213.32 E66.26468
G0 F6000 X103.21 Y213.319
G1 F1200 X94.679 Y204.788 E66.66595
G0 F6000 X94.679 Y204.511
G1 F1200 X140.318 Y192.282 E68.23746
G0 F6000 X140.1 Y192.282
G0 X140.1 Y191.032
G0 X140.32 Y191.032
G1 F1200 X104.677 Y155.389 E69.914
G0 F6000 X104.902 Y155.389
G0 X104.902 Y158.351
G0 X104.677 Y158.351
G1 F1200 X130.32 Y151.48 E70.79698
G0 F6000 X130.098 Y151.48
G0 X130.098 Y147.093
G0 X130.321 Y147.093
G1 F1200 X94.679 Y111.45 E72.47349
G1 X94.68 Y111.336
G1 X140.318 Y99.107 E74.04496
G0 F6000 X140.1 Y99.107
G0 X140.1 Y97.694
G0 X140.32 Y97.694
G1 F1200 X131.807 Y89.181 E74.44539
G0 F6000 X131.153 Y89.18
G1 F1200 X97.89 Y213.32 E78.71995
G0 F6000 X97.89 Y213.1
G0 X108.171 Y213.1
G0 X108.171 Y213.319
G1 F1200 X140.319 Y204.705 E79.82692
G0 F6000 X140.1 Y204.705
G0 X140.1 Y208.003
G0 X140.32 Y208.003
G1 F1200 X99.498 Y167.181 E81.74706
G0 F6000 X99.498 Y167.403
G0 X97.829 Y167.403
G0 X97.829 Y167.181
G1 F1200 X94.68 Y178.936 E82.15182
G0 F6000 X94.679 Y179.332
G1 F1200 X128.665 Y213.319 E83.75044
G0 F6000 X128.948 Y213.32
G1 F1200 X140.319 Y170.884 E85.21166
G0 F6000 X140.1 Y170.884
G0 X140.1 Y173.647
G0 X140.318 Y173.647
G1 F1200 X94.679 Y185.876 E86.78317
G0 F6000 X94.9 Y185.876
G0 X94.9 Y187.818
G0 X94.679 Y187.818
G1 F1200 X120.18 Y213.319 E87.98266
G0 F6000 X120.18 Y213.1
G0 X122.737 Y213.1
G0 X122.737 Y213.319
G1 F1200 X135.099 Y167.181 E89.57134
G0 F6000 X135.099 Y167.403
G0 X133.44 Y167.403
G0 X133.44 Y167.182
G1 F1200 X140.32 Y174.062 E89.89495
G0 F6000 X140.1 Y174.062
G0 X140.1 Y179.859
G0 X140.319 Y179.859
G1 F1200 X94.68 Y192.088 E91.46646
G0 F6000 X94.9 Y192.088
G0 X94.9 Y196.303
G0 X94.679 Y196.303
G1 F1200 X111.695 Y213.319 E92.26684
G0 F6000 X111.695 Y213.1
G0 X110.313 Y213.1
G0 X110.313 Y213.319
G1 F1200 X140.319 Y101.336 E96.1228
G0 F6000 X140.1 Y101.336
G0 X140.1 Y111.531
G0 X140.318 Y111.531
G1 F1200 X94.679 Y123.76 E97.69431
G0 F6000 X94.9 Y123.76
G0 X94.9 Y128.421
G0 X94.679 Y128.421
G1 F1200 X130.321 Y164.063 E99.3708
G1 X130.32 Y163.903
G1 X94.68 Y173.453 E100.59801
G0 F6000 X94.9 Y173.453
G0 X94.9 Y170.847
G0 X94.679 Y170.847
G1 F1200 X137.151 Y213.319 E102.59576
G0 F6000 X137.151 Y213.1
G0 X135.16 Y213.1
G0 X135.16 Y213.319
G1 F1200 X140.319 Y194.065 E103.25874
G0 F6000 X140.1 Y194.065
G0 X140.1 Y186.07
G0 X140.318 Y186.07
G1 F1200 X94.679 Y198.299 E104.83025
G0 F6000 X94.9 Y198.299
G0 X94.9 Y202.118
G0 X94.68 Y202.118
G1 F1200 X104.041 Y167.18 E106.03328
G0 F6000 X104.041 Y167.403
G0 X104.83 Y167.331
G0 X104.902 Y164.806
G0 X104.677 Y164.806
G1 F1200 X130.321 Y69.103 E109.32867
G0 F6000 X130.098 Y69.103
G0 X130.17 Y67.669
G0 X130.631 Y67.597
G0 X130.631 Y67.944
G1 F1200 X140.319 Y31.79 E110.57358
G0 F6000 X140.1 Y31.79
G0 X140.1 Y30.779
G0 X140.318 Y30.779
G1 F1200 X94.679 Y43.008 E112.14509
G0 F6000 X94.678 Y43.567
G1 F1200 X130.321 Y79.21 E113.82162
G0 F6000 X130.098 Y79.21
G0 X130.098 Y76.94
G0 X130.32 Y76.94
G1 F1200 X104.677 Y83.811 E114.7046
G0 F6000 X104.902 Y83.811
G0 X104.902 Y87.506
G0 X104.676 Y87.506
G1 F1200 X140.32 Y123.15 E116.38118
G0 F6000 X140.1 Y123.15
G0 X140.1 Y117.742
G0 X140.319 Y117.742
G1 F1200 X94.68 Y129.971 E117.95269
G0 F6000 X94.9 Y129.971
G0 X94.9 Y132.573
G0 X94.679 Y132.573
G1 F1200 X124.393 Y21.68 E121.77112
G0 F6000 X123.702 Y21.679
G1 F1200 X140.319 Y38.296 E122.55273
G0 F6000 X140.1 Y38.296
G0 X140.1 Y36.991
G0 X140.319 Y36.991
G1 F1200 X94.68 Y49.22 E124.12424
G0 F6000 X94.9 Y49.22
G0 X94.9 Y52.052
G0 X94.678 Y52.052
G1 F1200 X130.321 Y87.695 E125.80078
G0 F6000 X130.098 Y87.695
G0 X130.17 Y89.33
G0 X131.002 Y89.402
G0 X131.002 Y89.18
G1 F1200 X94.679 Y98.913 E127.05151
G0 F6000 X94.9 Y98.913
G0 X94.9 Y94.48
G0 X94.679 Y94.48
G1 F1200 X140.32 Y140.12 E129.19829
G0 F6000 X140.1 Y140.12
G0 X140.1 Y142.589
G0 X140.319 Y142.589
G1 F1200 X104.677 Y152.139 E130.42557
G0 F6000 X104.902 Y152.139
G0 X104.902 Y146.904
G0 X104.677 Y146.904
G1 F1200 X140.32 Y182.547 E132.10211
G0 F6000 X140.1 Y182.547
G0 X140.1 Y167.436
G0 X140.318 Y167.436
G1 F1200 X94.679 Y179.664 E133.67361
G0 F6000 X94.9 Y179.664
G0 X94.87 Y167.373
G0 X94.679 Y167.241
G1 F1200 X94.899 Y167.182 E133.68118
G1 F1500 E127.18118
G0 F6000 X94.899 Y167.403
G0 X104.83 Y167.331
G0 X104.83 Y145.67
G0 X95.105 Y145.598
G1 F1500 E133.68118
G0 F6000 X95.105 Y145.817
G1 F1200 X94.679 Y145.391 E133.70122
G0 F6000 X94.9 Y145.391
G0 X97.342 Y145.598
G0 X97.342 Y145.817
G1 F1200 X130.605 Y21.679 E137.97572
G0 F6000 X130.605 Y21.9
G0 X132.187 Y21.9
G0 X132.187 Y21.679
G1 F1200 X140.319 Y29.811 E138.35822
G0 F6000 X140.1 Y29.811
G0 X140.1 Y43.202
G0 X140.318 Y43.202
G1 F1200 X94.679 Y55.431 E139.92973
G0 F6000 X94.9 Y55.431
G0 X94.9 Y60.538
G0 X94.678 Y60.538
G1 F1200 X101.957 Y67.816 E140.27209
G0 F6000 X101.957 Y67.597
G0 X99.607 Y67.597
G0 X99.607 Y67.817
G1 F1200 X111.97 Y21.679 E141.86078
G0 F6000 X111.97 Y21.9
G0 X115.217 Y21.9
G0 X115.217 Y21.679
G1 F1200 X140.319 Y46.782 E143.04153
G0 F6000 X140.1 Y46.782
G0 X140.1 Y49.414
G0 X140.318 Y49.414
G1 F1200 X94.679 Y61.643 E144.61303
G0 F6000 X94.9 Y61.643
G0 X94.9 Y63.025
G0 X94.679 Y63.025
G1 F1200 X105.758 Y21.68 E146.03669
G0 F6000 X106.732 Y21.679
G1 F1200 X140.319 Y55.267 E147.61654
G0 F6000 X140.319 Y54.971
G1 F1200 X136.877 Y67.817 E148.05887
G0 F6000 X135.898 Y67.817
G1 F1200 X94.678 Y26.597 E149.99774
G0 F6000 X94.9 Y26.597
G0 X94.9 Y24.373
G0 X94.679 Y24.373
G1 F1200 X104.733 Y21.679 E150.34393
G0 F6000 X104.733 Y21.9
G0 X94.9 Y30.585
G0 X94.68 Y30.585
G1 F1200 X127.916 Y21.679 E151.48836
G0 F6000 X127.916 Y21.9
G0 X118.181 Y21.9
G0 X118.181 Y21.679
G1 F1200 X104.676 Y72.08 E153.22384
G0 F6000 X104.902 Y72.08
G0 X104.902 Y77.599
G0 X104.677 Y77.599
G1 F1200 X130.32 Y70.728 E154.10682
G1 X130.321 Y70.724
G1 X94.678 Y35.082 E155.78333
G1 F1500 E149.28333
G0 F6000 X94.9 Y35.082
G0 X94.822 Y67.597
G1 F1500 E155.78333
G0 F6000 X94.822 Y67.816
G1 F1200 X140.319 Y55.626 E157.34994
G1 F1500 E150.84994
G0 F6000 X140.1 Y55.626
G0 X130.17 Y67.669
G0 X130.098 Y83.151
G1 F1500 E157.34994
G0 F6000 X130.32 Y83.151
G1 F1200 X94.679 Y92.701 E158.57718
G0 F6000 X94.9 Y92.701
G0 X97.866 Y89.402
G0 X97.866 Y89.181
G1 F1200 X140.32 Y131.635 E160.57409
G0 F6000 X140.1 Y131.635
G0 X140.1 Y130.166
G0 X140.318 Y130.166
G1 F1200 X94.679 Y142.395 E162.1456
G0 F6000 X94.9 Y142.395
G0 X104.446 Y145.598
G0 X104.446 Y145.989
G1 F1200 X140.319 Y136.377 E163.38083
G0 F6000 X140.1 Y136.377
G0 X140.1 Y114.665
G0 X140.32 Y114.665
G1 F1200 X104.676 Y79.021 E165.05741
G0 F6000 X104.902 Y79.021
G0 X104.83 Y89.33
G0 X100.095 Y89.402
G0 X100.095 Y89.18
G1 F1200 X94.679 Y109.391 E165.75335
G1 F1500 E159.25335
G0 F6000 X94.9 Y109.391
G0 X130.098 Y161.831
G1 F1500 E165.75335
G0 F6000 X130.321 Y161.831
G1 F1200 X116.525 Y213.319 E167.52626
G0 F6000 X116.525 Y213.1
G0 X131.354 Y213.1
G0 X131.354 Y213.319
G1 F1200 X140.318 Y210.917 E167.83492
G0 F6000 X139.8 Y210.917
G1 F1500 E161.33492
;MESH:NONMESH
G0 F300 X139.8 Y210.917 Z0.4
G0 F6000 X94.87 Y213.13
G1 F1500 E167.83492
G0 F6000 X94.6 Y213.4
;TIME_ELAPSED:280.283017
;LAYER:1
M106 S85
;TYPE:WALL-INNER
;MESH:Anno1stPlyr+7Pts.stl
G1 F1350 X140.4 Y213.4 E169.35823
G1 X140.4 Y167.103 E170.89808
G1 X130.953 Y167.102 E171.21229
G1 X130.688 Y167.018 E171.22153
G1 X130.549 Y166.903 E171.22753
G1 X130.443 Y166.734 E171.23417
G1 X130.399 Y166.539 E171.24082
G1 X130.4 Y146.445 E171.90915
G1 X130.495 Y146.169 E171.91885
G1 X130.653 Y146.006 E171.9264
G1 X130.953 Y145.899 E171.937
G1 X140.4 Y145.898 E172.25121
G1 X140.4 Y89.102 E174.14025
G1 X130.953 Y89.101 E174.45446
G1 X130.688 Y89.017 E174.4637
G1 X130.549 Y88.902 E174.4697
G1 X130.443 Y88.733 E174.47634
G1 X130.399 Y88.538 E174.48299
G1 X130.4 Y68.444 E175.15132
G1 X130.495 Y68.168 E175.16103
G1 X130.653 Y68.005 E175.16858
G1 X130.953 Y67.898 E175.17917
G1 X140.4 Y67.897 E175.49338
G1 X140.4 Y21.6 E177.03322
G1 X94.6 Y21.6 E178.55654
G1 X94.6 Y67.897 E180.09638
G1 X104.047 Y67.898 E180.41059
G1 X104.312 Y67.982 E180.41984
G1 X104.451 Y68.097 E180.42584
G1 X104.557 Y68.266 E180.43247
G1 X104.601 Y68.461 E180.43912
G1 X104.6 Y88.555 E181.10745
G1 X104.505 Y88.831 E181.11716
G1 X104.347 Y88.994 E181.12471
G1 X104.047 Y89.101 E181.1353
G1 X94.6 Y89.102 E181.44951
G1 X94.6 Y145.898 E183.33855
G1 X104.047 Y145.899 E183.65276
G1 X104.312 Y145.983 E183.66201
G1 X104.451 Y146.098 E183.66801
G1 X104.557 Y146.267 E183.67464
G1 X104.601 Y146.462 E183.68129
G1 X104.6 Y166.556 E184.34962
G1 X104.505 Y166.832 E184.35933
G1 X104.347 Y166.995 E184.36688
G1 X104.047 Y167.102 E184.37747
G1 X94.6 Y167.103 E184.69168
G1 X94.6 Y213.4 E186.23153
G0 F7500 X94.2 Y213.8
;TYPE:WALL-OUTER
G1 F1350 X140.8 Y213.8 E187.78145
G1 X140.8 Y166.703 E189.3479
G1 X130.983 Y166.703 E189.67442
G1 X130.848 Y166.637 E189.67941
G1 X130.798 Y166.521 E189.68361
G1 X130.798 Y146.48 E190.35018
G1 X130.848 Y146.364 E190.35438
G1 X130.983 Y146.298 E190.35938
G1 X140.8 Y146.298 E190.6859
G1 X140.8 Y88.702 E192.60155
G1 X130.983 Y88.702 E192.92806
G1 X130.848 Y88.636 E192.93306
G1 X130.798 Y88.52 E192.93726
G1 X130.798 Y68.479 E193.60383
G1 X130.848 Y68.363 E193.60803
G1 X130.983 Y68.297 E193.61303
G1 X140.8 Y68.297 E193.93954
G1 X140.8 Y21.2 E195.50599
G1 X94.2 Y21.2 E197.05592
G1 X94.2 Y68.297 E198.62237
G1 X104.017 Y68.297 E198.94888
G1 X104.152 Y68.363 E198.95388
G1 X104.202 Y68.479 E198.95808
G1 X104.202 Y88.52 E199.62465
G1 X104.152 Y88.636 E199.62885
G1 X104.017 Y88.702 E199.63385
G1 X94.2 Y88.702 E199.96036
G1 X94.2 Y146.298 E201.87601
G1 X104.017 Y146.298 E202.20253
G1 X104.152 Y146.364 E202.20753
G1 X104.202 Y146.48 E202.21173
G1 X104.202 Y166.521 E202.87829
G1 X104.152 Y166.637 E202.88249
G1 X104.017 Y166.703 E202.88749
G1 X94.2 Y166.703 E203.21401
G1 X94.2 Y213.8 E204.78046
G0 F7500 X94.924 Y213.319
;TYPE:FILL
G1 F2100 X94.679 Y213.074 E204.79198
G0 F7500 X94.9 Y213.074
G0 X94.9 Y210.869
G0 X94.68 Y210.869
G1 F2100 X140.319 Y198.64 E206.36349
G0 F7500 X140.32 Y199.318
G1 F2100 X104.677 Y163.675 E208.04003
G0 F7500 X104.677 Y164.261
G1 F2100 X130.321 Y68.558 E211.33542
G0 F7500 X130.438 Y68.121
G1 F2100 X140.319 Y31.245 E212.60518
G0 F7500 X140.318 Y30.925
G1 F2100 X94.68 Y43.154 E214.17666
G0 F7500 X94.678 Y43.368
G1 F2100 X130.321 Y79.01 E215.85317
G0 F7500 X130.098 Y79.01
G0 X130.098 Y77.086
G0 X130.32 Y77.086
G1 F2100 X104.677 Y83.957 E216.73615
G0 F7500 X104.902 Y83.957
G0 X104.902 Y87.307
G0 X104.676 Y87.307
G1 F2100 X140.32 Y122.951 E218.41273
G0 F7500 X140.1 Y122.951
G0 X140.1 Y123.972
G0 X140.319 Y123.972
G1 F2100 X134.466 Y145.819 E219.16499
G0 F7500 X134.466 Y145.598
G0 X137.73 Y145.598
G0 X137.73 Y145.817
G1 F2100 X94.679 Y102.765 E221.19
G0 F7500 X94.9 Y102.765
G0 X94.9 Y105.271
G0 X94.679 Y105.271
G1 F2100 X140.318 Y93.042 E222.76151
G0 F7500 X140.1 Y93.042
G0 X140.1 Y97.495
G0 X140.32 Y97.495
G1 F2100 X132.006 Y89.181 E223.15258
G0 F7500 X131.547 Y89.18
G1 F2100 X94.679 Y99.059 E224.42207
G0 F7500 X94.9 Y99.059
G0 X94.9 Y94.28
G0 X94.679 Y94.28
G1 F2100 X140.32 Y139.921 E226.56888
G0 F7500 X140.1 Y139.921
G0 X140.1 Y142.735
G0 X140.318 Y142.735
G1 F2100 X104.677 Y152.285 E227.79612
