;FLAVOR:Marlin
;TIME:24197
;Filament used: 17.3676m
;Layer height: 0.2
;MINX:69
;MINY:33.9
;MINZ:0.2
;MAXX:166.05
;MAXY:201.1
;MAXZ:13.6
;Generated with Cura_SteamEngine 5.2.1
M140 S60
M105
M190 S60
M104 S200
M105
M109 S200
M82 ;absolute extrusion mode
M201 X500.00 Y500.00 Z100.00 E5000.00 ;Setup machine max acceleration
M203 X500.00 Y500.00 Z10.00 E50.00 ;Setup machine max feedrate
M204 P500.00 R1000.00 T500.00 ;Setup Print/Retract/Travel acceleration
M205 X8.00 Y8.00 Z0.40 E5.00 ;Setup Jerk
M220 S100 ;Reset Feedrate
M221 S100 ;Reset Flowrate

G28 ;Home

G92 E0 ;Reset Extruder
G1 Z2.0 F3000 ;Move Z Axis up
G1 X10.1 Y20 Z0.28 F5000.0 ;Move to start position
G1 X10.1 Y200.0 Z0.28 F1500.0 E15 ;Draw the first line
G1 X10.4 Y200.0 Z0.28 F5000.0 ;Move to side a little
G1 X10.4 Y20 Z0.28 F1500.0 E30 ;Draw the second line
G92 E0 ;Reset Extruder
G1 Z2.0 F3000 ;Move Z Axis up

G92 E0
G92 E0
G1 F1500 E-6.5
;LAYER_COUNT:68
;LAYER:0
M107
;MESH:AnnoCubes3Sml.stl(1)
G0 F6000 X116.2 Y200.7 Z0.2
;TYPE:WALL-INNER
G1 F1500 E0
G1 F1200 X116.2 Y34.3 E5.53449
G1 X69.4 Y34.3 E7.09106
G1 X69.4 Y200.7 E12.62555
G1 X116.2 Y200.7 E14.18212
G0 F6000 X116.6 Y201.1
;TYPE:WALL-OUTER
G1 F1200 X116.6 Y33.9 E19.74322
G1 X69 Y33.9 E21.3264
G1 X69 Y201.1 E26.88749
G1 X116.6 Y201.1 E28.47068
G0 F6000 X116.33 Y200.83
G0 X115.9 Y200.017
G0 X116.12 Y200.017
;TYPE:FILL
G1 F1200 X69.479 Y153.376 E30.66453
G0 F6000 X69.7 Y153.376
G0 X69.7 Y154.952
G0 X69.48 Y154.952
G1 F1200 X116.119 Y142.455 E32.27047
G0 F6000 X115.9 Y142.455
G0 X115.9 Y140.62
G0 X116.12 Y140.62
G1 F1200 X69.479 Y93.979 E34.46432
G0 F6000 X69.7 Y93.979
G0 X69.7 Y92.835
G0 X69.48 Y92.835
G1 F1200 X116.118 Y80.338 E36.07023
G0 F6000 X116.119 Y81.222
G1 F1200 X69.479 Y34.582 E38.26403
G0 F6000 X69.7 Y34.582
G0 X71.444 Y34.6
G0 X71.444 Y34.378
G1 F1200 X69.479 Y41.711 E38.51653
G0 F6000 X69.7 Y41.711
G0 X69.7 Y43.067
G0 X69.479 Y43.067
G1 F1200 X116.119 Y89.707 E40.71033
G0 F6000 X115.9 Y89.707
G0 X115.9 Y92.761
G0 X116.119 Y92.761
G1 F1200 X69.48 Y105.258 E42.31627
G0 F6000 X69.7 Y105.258
G0 X69.7 Y102.464
G0 X69.479 Y102.464
G1 F1200 X116.12 Y149.105 E44.51012
G0 F6000 X116.119 Y148.666
G1 F1200 X69.479 Y161.163 E46.1161
G0 F6000 X69.479 Y161.861
G1 F1200 X108.236 Y200.618 E47.93911
G0 F6000 X107.685 Y200.619
G1 F1200 X116.119 Y198.36 E48.22951
G0 F6000 X115.9 Y198.36
G0 X113.863 Y200.4
G0 X113.863 Y200.619
G1 F1200 X116.119 Y192.2 E48.51941
G1 X116.119 Y192.148
G1 X84.504 Y200.619 E49.60802
G0 F6000 X84.504 Y200.4
G0 X82.805 Y200.4
G0 X82.805 Y200.619
G1 F1200 X116.119 Y76.289 E53.88913
G0 F6000 X115.9 Y76.289
G0 X115.9 Y74.126
G0 X116.119 Y74.126
G1 F1200 X69.48 Y86.623 E55.49507
G0 F6000 X69.7 Y86.623
G0 X69.7 Y85.494
G0 X69.479 Y85.494
G1 F1200 X116.12 Y132.134 E57.68889
G0 F6000 X115.9 Y132.134
G0 X115.9 Y130.031
G0 X116.119 Y130.031
G1 F1200 X69.479 Y142.528 E59.29487
G0 F6000 X69.7 Y142.528
G0 X69.7 Y144.891
G0 X69.479 Y144.891
G1 F1200 X116.12 Y191.531 E61.48869
G0 F6000 X115.9 Y191.531
G0 X115.9 Y185.936
G0 X116.119 Y185.936
G1 F1200 X69.479 Y198.433 E63.09467
G0 F6000 X69.7 Y198.433
G0 X70.381 Y200.4
G0 X70.381 Y200.62
G1 F1200 X114.926 Y34.378 E68.81895
G0 F6000 X114.926 Y34.6
G0 X115.9 Y36.857
G0 X116.118 Y36.857
G1 F1200 X69.48 Y49.353 E70.42485
G0 F6000 X69.7 Y49.353
G0 X69.7 Y51.553
G0 X69.479 Y51.553
G1 F1200 X116.119 Y98.193 E72.61866
G0 F6000 X116.118 Y98.973
G1 F1200 X69.48 Y111.47 E74.22457
G0 F6000 X69.479 Y111.258
G1 F1200 X90.079 Y34.378 E76.87181
G0 F6000 X90.079 Y34.6
G0 X86.247 Y34.6
G0 X86.247 Y34.38
G1 F1200 X116.119 Y64.251 E78.27687
G0 F6000 X115.9 Y64.251
G0 X115.9 Y61.703
G0 X116.119 Y61.703
G1 F1200 X69.479 Y74.2 E79.88285
G0 F6000 X69.7 Y74.2
G0 X69.7 Y77.008
G0 X69.479 Y77.008
G1 F1200 X116.12 Y123.649 E82.0767
G1 X116.119 Y123.82
G1 X69.479 Y136.317 E83.68267
G1 X69.479 Y136.405
G1 X116.12 Y183.046 E85.87652
G0 F6000 X115.9 Y183.046
G0 X115.9 Y179.725
G0 X116.118 Y179.725
G1 F1200 X69.48 Y192.222 E87.48243
G0 F6000 X69.7 Y192.222
G0 X69.7 Y195.802
G0 X69.479 Y195.802
G1 F1200 X74.295 Y200.618 E87.70896
G0 F6000 X74.295 Y200.4
G0 X76.593 Y200.4
G0 X76.593 Y200.619
G1 F1200 X116.119 Y53.107 E92.7883
G0 F6000 X115.9 Y53.107
G0 X115.9 Y55.492
G0 X116.119 Y55.492
G1 F1200 X69.48 Y67.988 E94.39424
G0 F6000 X69.479 Y68.523
G1 F1200 X116.119 Y115.163 E96.58804
G0 F6000 X115.9 Y115.163
G0 X115.9 Y117.608
G0 X116.119 Y117.608
G1 F1200 X69.48 Y130.105 E98.19398
G0 F6000 X69.7 Y130.105
G0 X69.7 Y127.92
G0 X69.479 Y127.92
G1 F1200 X116.12 Y174.561 E100.38783
G0 F6000 X115.9 Y174.561
G0 X115.9 Y173.513
G0 X116.119 Y173.513
G1 F1200 X69.48 Y186.01 E101.99377
G0 F6000 X69.7 Y186.01
G0 X69.7 Y187.317
G0 X69.479 Y187.317
G1 F1200 X82.78 Y200.618 E102.61941
G0 F6000 X82.78 Y200.4
G0 X89.016 Y200.4
G0 X89.016 Y200.62
G1 F1200 X116.119 Y99.471 E106.10232
G0 F6000 X115.9 Y99.471
G0 X115.9 Y105.185
G0 X116.119 Y105.185
G1 F1200 X69.479 Y117.682 E107.70829
G0 F6000 X69.7 Y117.682
G0 X69.7 Y119.435
G0 X69.479 Y119.435
G1 F1200 X116.12 Y166.076 E109.90214
G0 F6000 X115.9 Y166.076
G0 X115.9 Y167.301
G0 X116.119 Y167.301
G1 F1200 X69.479 Y179.798 E111.50812
G0 F6000 X69.479 Y178.832
G1 F1200 X91.266 Y200.618 E112.53289
G0 F6000 X91.266 Y200.4
G0 X95.228 Y200.4
G0 X95.228 Y200.619
G1 F1200 X116.119 Y122.654 E115.21749
G0 F6000 X115.9 Y122.654
G0 X115.9 Y111.396
G0 X116.119 Y111.396
G1 F1200 X69.48 Y123.893 E116.82343
G0 F6000 X69.7 Y123.893
G0 X69.7 Y134.441
G0 X69.479 Y134.441
G1 F1200 X96.291 Y34.378 E120.26895
G0 F6000 X96.291 Y34.6
G0 X94.733 Y34.6
G0 X94.733 Y34.38
G1 F1200 X116.119 Y55.766 E121.27488
G0 F6000 X115.9 Y55.766
G0 X115.9 Y49.28
G0 X116.119 Y49.28
G1 F1200 X69.479 Y61.777 E122.88085
G0 F6000 X69.7 Y61.777
G0 X69.7 Y60.038
G0 X69.479 Y60.038
G1 F1200 X116.119 Y106.678 E125.07465
G0 F6000 X115.9 Y106.678
G0 X115.9 Y86.55
G0 X116.119 Y86.55
G1 F1200 X69.479 Y99.047 E126.68063
G0 F6000 X69.7 Y99.047
G0 X69.7 Y88.076
G0 X69.479 Y88.076
G1 F1200 X83.867 Y34.379 E128.5296
G0 F6000 X83.867 Y34.6
G0 X79 Y34.6
G0 X79 Y34.379
G1 F1200 X69.479 Y36.93 E128.85744
G0 F6000 X69.7 Y36.93
G0 X69.7 Y43.142
G0 X69.48 Y43.142
G1 F1200 X102.183 Y34.379 E129.98352
G0 F6000 X102.502 Y34.379
G1 F1200 X69.479 Y157.623 E134.22723
G0 F6000 X69.7 Y157.623
G0 X69.7 Y148.74
G0 X69.48 Y148.74
G1 F1200 X116.119 Y136.243 E135.83317
G0 F6000 X115.9 Y136.243
G0 X115.9 Y145.836
G0 X116.119 Y145.836
G1 F1200 X101.44 Y200.619 E137.71954
G0 F6000 X101.44 Y200.4
G0 X99.751 Y200.4
G0 X99.751 Y200.618
G1 F1200 X69.479 Y170.346 E139.14344
G0 F6000 X69.7 Y170.346
G0 X69.7 Y167.375
G0 X69.48 Y167.375
G1 F1200 X116.119 Y154.878 E140.74938
G0 F6000 X115.9 Y154.878
G0 X115.9 Y157.59
G0 X116.12 Y157.59
G1 F1200 X69.479 Y110.95 E142.94321
G1 F1500 E136.44321
G0 F6000 X69.7 Y110.95
G0 X69.7 Y80.412
G1 F1500 E142.94321
G0 F6000 X69.479 Y80.412
G1 F1200 X116.119 Y67.915 E144.54918
G0 F6000 X115.9 Y67.915
G0 X115.9 Y72.737
G0 X116.119 Y72.737
G1 F1200 X77.762 Y34.38 E146.35338
G1 X77.656 Y34.378
G1 X69.479 Y64.893 E147.40412
G0 F6000 X69.7 Y64.893
G0 X69.7 Y55.565
G0 X69.479 Y55.565
G1 F1200 X116.119 Y43.068 E149.01009
G0 F6000 X115.9 Y43.068
G0 X115.9 Y47.281
G0 X116.119 Y47.281
G1 F1200 X103.218 Y34.38 E149.61691
G0 F6000 X103.218 Y34.6
G0 X108.714 Y34.6
G0 X108.714 Y34.378
G1 F1200 X69.479 Y180.805 E154.6589
G0 F6000 X69.7 Y180.805
G0 X69.7 Y173.587
G0 X69.48 Y173.587
G1 F1200 X116.119 Y161.089 E156.26485
G0 F6000 X115.9 Y161.089
G0 X115.9 Y169.018
G0 X116.119 Y169.018
G1 F1200 X107.652 Y200.619 E157.35297
G1 F1500 E150.85297
G0 F6000 X107.652 Y200.4
G0 X115.9 Y38.796
G1 F1500 E157.35297
G0 F6000 X116.119 Y38.796
G1 F1200 X111.703 Y34.38 E157.56069
G0 F6000 X111.703 Y34.9
G1 F1500 E151.06069
;MESH:AnnoCubes3Sml.stl
G0 F6000 X116.38 Y200.43
G0 X118.67 Y200.43
G0 X119.12 Y200.43
G1 F1500 E157.56069
G0 F6000 X118.85 Y200.7
;TYPE:WALL-INNER
G1 F1200 X165.65 Y200.7 E159.11726
G1 X165.65 Y34.3 E164.65175
G1 X118.85 Y34.3 E166.20832
G1 X118.85 Y200.7 E171.74281
G0 F6000 X118.45 Y201.1
;TYPE:WALL-OUTER
G1 F1200 X166.05 Y201.1 E173.32599
G1 X166.05 Y33.9 E178.88709
G1 X118.45 Y33.9 E180.47027
G1 X118.45 Y201.1 E186.03136
G0 F6000 X118.72 Y200.83
G0 X119.831 Y200.4
G0 X119.831 Y200.619
;TYPE:FILL
G1 F1200 X164.376 Y34.379 E191.75559
G0 F6000 X164.376 Y34.6
G0 X165.35 Y36.857
G0 X165.569 Y36.857
G1 F1200 X118.93 Y49.354 E193.36153
G0 F6000 X119.15 Y49.354
G0 X119.15 Y51.554
G0 X118.928 Y51.554
G1 F1200 X165.569 Y98.195 E195.55538
G0 F6000 X165.568 Y98.974
G1 F1200 X118.93 Y111.47 E197.16128
G0 F6000 X118.929 Y111.259
G1 F1200 X139.529 Y34.379 E199.80852
G0 F6000 X139.529 Y34.6
G0 X135.695 Y34.6
G0 X135.695 Y34.38
G1 F1200 X165.569 Y64.254 E201.2137
G0 F6000 X165.35 Y64.254
G0 X165.35 Y61.703
G0 X165.569 Y61.703
G1 F1200 X118.93 Y74.2 E202.81964
G0 F6000 X119.15 Y74.2
G0 X119.15 Y77.01
G0 X118.928 Y77.01
G1 F1200 X165.569 Y123.651 E205.01349
G1 X165.569 Y123.82
G1 X118.93 Y136.317 E206.61943
G1 X118.928 Y136.407
G1 X165.569 Y183.048 E208.81328
G0 F6000 X165.35 Y183.048
G0 X165.35 Y185.937
G0 X165.569 Y185.937
G1 F1200 X118.929 Y198.434 E210.41926
G0 F6000 X119.15 Y198.434
G0 X119.15 Y195.804
G0 X118.928 Y195.804
G1 F1200 X123.743 Y200.618 E210.64572
G0 F6000 X123.743 Y200.4
G0 X126.043 Y200.4
G0 X126.043 Y200.619
G1 F1200 X165.569 Y53.108 E215.72503
G0 F6000 X165.35 Y53.108
G0 X165.35 Y55.492
G0 X165.569 Y55.492
G1 F1200 X118.93 Y67.989 E217.33097
G0 F6000 X118.928 Y68.525
G1 F1200 X165.569 Y115.165 E219.5248
G0 F6000 X165.35 Y115.165
G0 X165.35 Y117.608
G0 X165.569 Y117.608
G1 F1200 X118.93 Y130.105 E221.13074
G0 F6000 X119.15 Y130.105
G0 X119.15 Y127.921
G0 X118.928 Y127.921
G1 F1200 X165.569 Y174.562 E223.32459
G0 F6000 X165.35 Y174.562
G0 X165.35 Y173.513
G0 X165.569 Y173.513
G1 F1200 X118.93 Y186.01 E224.93053
G0 F6000 X119.15 Y186.01
G0 X119.15 Y187.318
G0 X118.928 Y187.318
G1 F1200 X132.228 Y200.618 E225.55612
G1 X132.255 Y200.62
G1 X165.569 Y76.29 E229.83723
G0 F6000 X165.35 Y76.29
G0 X165.35 Y74.127
G0 X165.569 Y74.127
G1 F1200 X118.93 Y86.624 E231.44317
G0 F6000 X119.15 Y86.624
G0 X119.15 Y85.495
G0 X118.928 Y85.495
G1 F1200 X165.569 Y132.136 E233.63702
G0 F6000 X165.35 Y132.136
G0 X165.35 Y130.032
G0 X165.569 Y130.032
G1 F1200 X118.929 Y142.529 E235.24299
G0 F6000 X119.15 Y142.529
G0 X119.15 Y144.892
G0 X118.928 Y144.892
G1 F1200 X165.569 Y191.533 E237.43684
G0 F6000 X165.569 Y192.148
G1 F1200 X133.955 Y200.619 E238.52542
G0 F6000 X133.955 Y200.4
G0 X138.466 Y200.4
G0 X138.466 Y200.619
G1 F1200 X165.569 Y99.471 E242.0083
G0 F6000 X165.35 Y99.471
G0 X165.35 Y105.185
G0 X165.569 Y105.185
G1 F1200 X118.929 Y117.682 E243.61427
G0 F6000 X119.15 Y117.682
G0 X119.15 Y119.436
G0 X118.928 Y119.436
G1 F1200 X165.569 Y166.077 E245.80812
G0 F6000 X165.35 Y166.077
G0 X165.35 Y167.302
G0 X165.569 Y167.302
G1 F1200 X118.929 Y179.799 E247.4141
G0 F6000 X118.928 Y178.833
G1 F1200 X140.714 Y200.618 E248.43882
G0 F6000 X140.714 Y200.4
G0 X144.678 Y200.4
G0 X144.678 Y200.619
G1 F1200 X165.569 Y122.654 E251.12342
G0 F6000 X165.35 Y122.654
G0 X165.35 Y111.397
G0 X165.569 Y111.397
G1 F1200 X118.929 Y123.894 E252.7294
G0 F6000 X119.15 Y123.894
G0 X119.15 Y134.441
G0 X118.929 Y134.441
G1 F1200 X145.741 Y34.378 E256.17491
G0 F6000 X145.741 Y34.6
G0 X144.181 Y34.6
G0 X144.181 Y34.38
G1 F1200 X165.569 Y55.768 E257.18094
G0 F6000 X165.35 Y55.768
G0 X165.35 Y49.28
G0 X165.569 Y49.28
G1 F1200 X118.929 Y61.777 E258.78691
G0 F6000 X119.15 Y61.777
G0 X119.15 Y60.039
G0 X118.928 Y60.039
G1 F1200 X165.569 Y106.68 E260.98076
G0 F6000 X165.35 Y106.68
G0 X165.35 Y92.762
G0 X165.569 Y92.762
G1 F1200 X118.929 Y105.259 E262.58673
G0 F6000 X119.15 Y105.259
G0 X119.15 Y102.466
G0 X118.928 Y102.466
G1 F1200 X165.569 Y149.106 E264.78056
G0 F6000 X165.569 Y148.667
G1 F1200 X118.929 Y161.164 E266.38653
G0 F6000 X118.928 Y161.863
G1 F1200 X157.684 Y200.618 E268.20947
G0 F6000 X157.138 Y200.619
G1 F1200 X165.569 Y198.36 E268.49978
G0 F6000 X165.35 Y198.36
G0 X165.35 Y200.018
G0 X165.569 Y200.018
G1 F1200 X118.928 Y153.377 E270.69363
G0 F6000 X119.15 Y153.377
G0 X119.15 Y154.952
G0 X118.93 Y154.952
G1 F1200 X165.568 Y142.455 E272.29954
G0 F6000 X165.35 Y142.455
G0 X165.35 Y140.621
G0 X165.569 Y140.621
G1 F1200 X118.928 Y93.98 E274.49339
G0 F6000 X119.15 Y93.98
G0 X119.15 Y92.835
G0 X118.93 Y92.835
G1 F1200 X165.568 Y80.339 E276.09929
G0 F6000 X165.569 Y81.224
G1 F1200 X118.928 Y34.583 E278.29314
G0 F6000 X119.15 Y34.583
G0 X120.894 Y34.6
G0 X120.894 Y34.379
G1 F1200 X118.929 Y41.712 E278.54564
G0 F6000 X119.15 Y41.712
G0 X119.15 Y43.069
G0 X118.928 Y43.069
G1 F1200 X165.569 Y89.709 E280.73947
G0 F6000 X165.35 Y89.709
G0 X165.35 Y86.55
G0 X165.569 Y86.55
G1 F1200 X118.929 Y99.047 E282.34544
G0 F6000 X119.15 Y99.047
G0 X119.15 Y88.076
G0 X118.929 Y88.076
G1 F1200 X133.317 Y34.379 E284.19441
G0 F6000 X133.317 Y34.6
G0 X128.453 Y34.6
G0 X128.453 Y34.379
G1 F1200 X118.929 Y36.931 E284.52236
G0 F6000 X119.15 Y36.931
G0 X119.15 Y43.142
G0 X118.929 Y43.142
G1 F1200 X151.634 Y34.379 E285.6485
G0 F6000 X151.952 Y34.379
G1 F1200 X118.929 Y157.623 E289.89221
G0 F6000 X119.15 Y157.623
G0 X119.15 Y148.74
G0 X118.93 Y148.74
G1 F1200 X165.569 Y136.243 E291.49815
G0 F6000 X165.35 Y136.243
G0 X165.35 Y145.836
G0 X165.569 Y145.836
G1 F1200 X150.89 Y200.62 E293.38455
G0 F6000 X150.89 Y200.4
G0 X149.199 Y200.4
G0 X149.199 Y200.618
G1 F1200 X118.928 Y170.348 E294.80838
G0 F6000 X119.15 Y170.348
G0 X119.15 Y167.375
G0 X118.93 Y167.375
G1 F1200 X165.569 Y154.878 E296.41432
G0 F6000 X165.35 Y154.878
G0 X165.35 Y157.592
G0 X165.569 Y157.592
G1 F1200 X118.928 Y110.951 E298.60817
G1 F1500 E292.10817
G0 F6000 X119.15 Y110.951
G0 X119.15 Y80.412
G1 F1500 E298.60817
G0 F6000 X118.929 Y80.412
G1 F1200 X165.569 Y67.915 E300.21415
G0 F6000 X165.35 Y67.915
G0 X165.35 Y72.739
G0 X165.569 Y72.739
G1 F1200 X127.21 Y34.38 E302.01844
G1 X127.106 Y34.378
G1 X118.929 Y64.894 E303.06921
G0 F6000 X119.15 Y64.894
G0 X119.15 Y55.566
G0 X118.929 Y55.566
G1 F1200 X165.569 Y43.068 E304.67519
G0 F6000 X165.35 Y43.068
G0 X165.35 Y47.283
G0 X165.569 Y47.283
G1 F1200 X152.666 Y34.38 E305.28211
G0 F6000 X152.666 Y34.6
G0 X158.164 Y34.6
G0 X158.164 Y34.379
G1 F1200 X118.929 Y180.806 E310.32409
G0 F6000 X119.15 Y180.806
G0 X119.15 Y173.587
G0 X118.93 Y173.587
G1 F1200 X165.568 Y161.09 E311.93
G0 F6000 X165.35 Y161.09
G0 X165.35 Y169.018
G0 X165.569 Y169.018
G1 F1200 X157.101 Y200.619 E313.01814
G0 F6000 X157.101 Y200.4
G0 X163.313 Y200.4
G0 X163.313 Y200.619
G1 F1200 X165.569 Y192.2 E313.30803
G0 F6000 X165.35 Y192.2
G0 X165.35 Y179.725
G0 X165.569 Y179.725
G1 F1200 X118.93 Y192.222 E314.91398
G1 F1500 E308.41398
G0 F6000 X119.15 Y192.222
G0 X165.35 Y38.798
G1 F1500 E314.91398
G0 F6000 X165.569 Y38.798
G1 F1200 X161.151 Y34.38 E315.12179
G0 F6000 X161.151 Y34.9
G1 F1500 E308.62179
;MESH:NONMESH
G0 F300 X161.151 Y34.9 Z0.4
G0 F6000 X118.67 Y200.43
G0 X116.38 Y200.43
G0 X115.93 Y200.43
G1 F1500 E315.12179
G0 F6000 X116.2 Y200.7
;TIME_ELAPSED:516.266776
;LAYER:1
M106 S85
;TYPE:WALL-INNER
;MESH:AnnoCubes3Sml.stl(1)
G1 F1350 X116.2 Y34.3 E320.65627
G1 X69.4 Y34.3 E322.21285
G1 X69.4 Y200.7 E327.74733
G1 X116.2 Y200.7 E329.30391
G0 F7500 X116.6 Y201.1
;TYPE:WALL-OUTER
G1 F1350 X116.6 Y33.9 E334.865
G1 X69 Y33.9 E336.44818
G1 X69 Y201.1 E342.00928
G1 X116.6 Y201.1 E343.59246
G0 F7500 X116.33 Y200.83
G0 X115.9 Y199.817
G0 X116.12 Y199.817
;TYPE:FILL
G1 F2100 X69.479 Y153.177 E345.78629
G0 F7500 X69.7 Y153.177
G0 X69.7 Y155.098
G0 X69.479 Y155.098
G1 F2100 X116.119 Y142.601 E347.39226
G0 F7500 X115.9 Y142.601
G0 X115.9 Y140.42
G0 X116.12 Y140.42
G1 F2100 X69.479 Y93.78 E349.58609
G0 F7500 X69.479 Y92.981
G1 F2100 X116.119 Y80.484 E351.19206
G0 F7500 X116.119 Y81.023
G1 F2100 X69.479 Y34.383 E353.38586
G0 F7500 X69.67 Y34.57
G0 X71.298 Y34.6
G0 X71.298 Y34.378
G1 F2100 X69.479 Y41.167 E353.61963
G0 F7500 X69.7 Y41.167
G0 X69.7 Y42.868
G0 X69.479 Y42.868
G1 F2100 X116.119 Y89.508 E355.81343
G0 F7500 X115.9 Y89.508
G0 X115.9 Y86.696
G0 X116.119 Y86.696
G1 F2100 X69.48 Y99.193 E357.41937
G0 F7500 X69.7 Y99.193
G0 X69.7 Y102.265
G0 X69.479 Y102.265
G1 F2100 X116.12 Y148.906 E359.61322
G1 X116.119 Y148.812
