;FLAVOR:Marlin
;TIME:17016
;Filament used: 11.9424m
;Layer height: 0.2
;MINX:69.699
;MINY:52.7
;MINZ:0.2
;MAXX:165.301
;MAXY:182.3
;MAXZ:32
;Generated with Cura_SteamEngine 5.2.1
M140 S60
M105
M190 S60
M104 S200
M105
M109 S200
M82 ;absolute extrusion mode
M201 X500.00 Y500.00 Z100.00 E5000.00 ;Setup machine max acceleration
M203 X500.00 Y500.00 Z10.00 E50.00 ;Setup machine max feedrate
M204 P500.00 R1000.00 T500.00 ;Setup Print/Retract/Travel acceleration
M205 X8.00 Y8.00 Z0.40 E5.00 ;Setup Jerk
M220 S100 ;Reset Feedrate
M221 S100 ;Reset Flowrate

G28 ;Home

G92 E0 ;Reset Extruder
G1 Z2.0 F3000 ;Move Z Axis up
G1 X10.1 Y20 Z0.28 F5000.0 ;Move to start position
G1 X10.1 Y200.0 Z0.28 F1500.0 E15 ;Draw the first line
G1 X10.4 Y200.0 Z0.28 F5000.0 ;Move to side a little
G1 X10.4 Y20 Z0.28 F1500.0 E30 ;Draw the second line
G92 E0 ;Reset Extruder
G1 Z2.0 F3000 ;Move Z Axis up

G92 E0
G92 E0
G1 F1500 E-6.5
;LAYER_COUNT:160
;LAYER:0
M107
;MESH:Anno-ArtEngInvCrds.stl
G0 F6000 X70.099 Y181.9 Z0.2
;TYPE:WALL-INNER
G1 F1500 E0
G1 F1200 X164.901 Y181.9 E3.15313
G1 X164.901 Y53.1 E7.43703
G1 X70.099 Y53.1 E10.59016
G1 X70.099 Y181.9 E14.87407
G0 F6000 X69.699 Y182.3
;TYPE:WALL-OUTER
G1 F1200 X165.301 Y182.3 E18.0538
G1 X165.301 Y52.7 E22.36431
G1 X69.699 Y52.7 E25.54405
G1 X69.699 Y182.3 E29.85456
G0 F6000 X69.969 Y182.03
G0 X71.71 Y181.6
G0 X71.71 Y181.819
;TYPE:FILL
G1 F1200 X70.178 Y180.287 E29.92662
G0 F6000 X70.179 Y180.018
G1 F1200 X164.819 Y154.659 E33.18541
G0 F6000 X164.601 Y154.659
G0 X164.601 Y156.136
G0 X164.82 Y156.136
G1 F1200 X70.178 Y61.493 E37.6371
G0 F6000 X70.178 Y61.737
G1 F1200 X72.471 Y53.179 E37.93178
G0 F6000 X72.471 Y53.4
G0 X70.349 Y53.4
G0 X70.349 Y53.179
G1 F1200 X164.82 Y147.65 E42.37541
G0 F6000 X164.82 Y148.447
G1 F1200 X70.178 Y173.806 E45.63425
G0 F6000 X70.399 Y173.806
G0 X70.399 Y171.802
G0 X70.178 Y171.802
G1 F1200 X80.195 Y181.819 E46.10542
G0 F6000 X80.195 Y181.6
G0 X81.484 Y181.6
G0 X81.484 Y181.819
G1 F1200 X115.953 Y53.178 E50.53497
G0 F6000 X115.953 Y53.4
G0 X112.775 Y53.4
G0 X112.775 Y53.179
G1 F1200 X164.82 Y105.224 E52.98301
G0 F6000 X164.819 Y104.966
G1 F1200 X70.178 Y130.325 E56.24182
G0 F6000 X70.178 Y129.375
G1 F1200 X122.622 Y181.819 E58.70862
G0 F6000 X122.622 Y181.6
G0 X124.965 Y181.6
G0 X124.965 Y181.819
G1 F1200 X159.434 Y53.178 E63.13817
G0 F6000 X159.434 Y53.4
G0 X155.202 Y53.4
G0 X155.202 Y53.179
G1 F1200 X164.82 Y62.798 E63.5906
G0 F6000 X164.601 Y62.798
G0 X164.601 Y61.484
G0 X164.819 Y61.484
G1 F1200 X70.179 Y86.843 E66.84938
G1 X70.178 Y86.949
G1 X164.82 Y181.592 E71.30107
G0 F6000 X164.601 Y181.592
G0 X164.601 Y179.506
G0 X164.819 Y179.506
G1 F1200 X156.184 Y181.819 E71.5984
G1 X156.024 Y181.819
G1 X164.82 Y148.99 E72.72881
G0 F6000 X164.601 Y148.99
G0 X164.601 Y142.236
G0 X164.819 Y142.236
G1 F1200 X70.179 Y167.594 E75.98758
G0 F6000 X70.399 Y167.594
G0 X70.399 Y163.316
G0 X70.178 Y163.316
G1 F1200 X88.681 Y181.819 E76.85791
G0 F6000 X87.695 Y181.819
G1 F1200 X122.165 Y53.178 E81.28746
G0 F6000 X121.261 Y53.179
G1 F1200 X164.82 Y96.739 E83.33637
G0 F6000 X164.601 Y96.739
G0 X164.601 Y98.754
G0 X164.819 Y98.754
G1 F1200 X70.179 Y124.113 E86.59515
G0 F6000 X70.399 Y124.113
G0 X70.399 Y120.89
G0 X70.178 Y120.89
G1 F1200 X131.107 Y181.819 E89.46106
G1 X131.177 Y181.819
G1 X164.819 Y56.263 E93.78438
G0 F6000 X164.819 Y55.272
G1 F1200 X70.178 Y80.631 E97.0432
G0 F6000 X70.399 Y80.631
G0 X70.399 Y78.464
G0 X70.178 Y78.464
G1 F1200 X164.82 Y173.106 E101.49487
G1 X164.819 Y173.294
G1 X133.002 Y181.819 E102.59043
G0 F6000 X133.002 Y181.6
G0 X137.389 Y181.6
G0 X137.389 Y181.819
G1 F1200 X164.82 Y79.444 E106.11555
G0 F6000 X164.82 Y79.768
G1 F1200 X138.231 Y53.179 E107.36622
G0 F6000 X138.231 Y53.4
G0 X140.799 Y53.4
G0 X140.799 Y53.178
G1 F1200 X106.33 Y181.819 E111.79576
G0 F6000 X105.651 Y181.819
G1 F1200 X70.178 Y146.346 E113.4643
G0 F6000 X70.399 Y146.346
G0 X70.399 Y148.96
G0 X70.178 Y148.96
G1 F1200 X164.819 Y123.601 E116.72312
G0 F6000 X164.601 Y123.601
G0 X164.601 Y122.195
G0 X164.82 Y122.195
G1 F1200 X95.805 Y53.179 E119.9694
G0 F6000 X95.805 Y53.4
G0 X97.318 Y53.4
G0 X97.318 Y53.178
G1 F1200 X70.179 Y154.463 E123.45698
G0 F6000 X70.178 Y154.831
G1 F1200 X97.166 Y181.819 E124.72642
G0 F6000 X97.166 Y181.6
G0 X100.119 Y181.6
G0 X100.119 Y181.819
G1 F1200 X134.588 Y53.179 E129.15593
G0 F6000 X134.588 Y53.4
G0 X129.746 Y53.4
G0 X129.746 Y53.179
G1 F1200 X164.82 Y88.253 E130.80571
G0 F6000 X164.601 Y88.253
G0 X164.601 Y86.331
G0 X164.819 Y86.331
G1 F1200 X70.178 Y111.69 E134.06452
G0 F6000 X70.178 Y112.405
G1 F1200 X139.592 Y181.819 E137.32954
G0 F6000 X139.592 Y181.6
G0 X143.6 Y181.6
G0 X143.6 Y181.819
G1 F1200 X164.82 Y102.626 E140.05643
G0 F6000 X164.601 Y102.626
G0 X164.601 Y111.177
G0 X164.82 Y111.177
G1 F1200 X70.178 Y136.536 E143.31528
G0 F6000 X70.399 Y136.536
G0 X70.399 Y137.861
G0 X70.178 Y137.861
G1 F1200 X114.136 Y181.819 E145.38293
G0 F6000 X114.136 Y181.6
G0 X112.542 Y181.6
G0 X112.542 Y181.819
G1 F1200 X147.011 Y53.179 E149.81244
G0 F6000 X146.716 Y53.179
G1 F1200 X164.82 Y71.283 E150.664
G0 F6000 X164.601 Y71.283
G0 X164.601 Y73.907
G0 X164.819 Y73.907
G1 F1200 X70.178 Y99.266 E153.92281
G0 F6000 X70.399 Y99.266
G0 X70.399 Y95.434
G0 X70.178 Y95.434
G1 F1200 X156.563 Y181.819 E157.9861
G0 F6000 X156.563 Y181.6
G0 X162.235 Y181.6
G0 X162.235 Y181.82
G1 F1200 X164.82 Y172.172 E158.31831
G0 F6000 X164.601 Y172.172
G0 X164.601 Y167.082
G0 X164.82 Y167.082
G1 F1200 X109.82 Y181.819 E160.21215
G0 F6000 X109.82 Y181.6
G0 X118.754 Y181.6
G0 X118.754 Y181.819
G1 F1200 X153.223 Y53.179 E164.64166
G0 F6000 X153.223 Y53.4
G0 X149.45 Y53.4
G0 X149.45 Y53.179
G1 F1200 X70.178 Y74.42 E167.37127
G0 F6000 X70.399 Y74.42
G0 X70.399 Y69.978
G0 X70.178 Y69.978
G1 F1200 X164.82 Y164.621 E171.82296
G0 F6000 X164.601 Y164.621
G0 X164.601 Y160.871
G0 X164.819 Y160.871
G1 F1200 X86.637 Y181.819 E174.51503
G0 F6000 X86.637 Y181.6
G0 X93.907 Y181.6
G0 X93.907 Y181.819
G1 F1200 X128.376 Y53.179 E178.94455
G0 F6000 X128.376 Y53.4
G0 X126.268 Y53.4
G0 X126.268 Y53.179
G1 F1200 X70.178 Y68.208 E180.87592
G0 F6000 X70.399 Y68.208
G0 X70.399 Y61.997
G0 X70.178 Y61.997
G1 F1200 X103.086 Y53.179 E182.00905
G0 F6000 X103.529 Y53.179
G1 F1200 X70.179 Y177.645 E186.29484
G0 F6000 X70.399 Y177.645
G0 X75.272 Y181.6
G0 X75.272 Y181.819
G1 F1200 X109.741 Y53.179 E190.72436
G0 F6000 X109.741 Y53.4
G0 X104.29 Y53.4
G0 X104.29 Y53.179
G1 F1200 X164.82 Y113.709 E193.5715
G0 F6000 X164.601 Y113.709
G0 X164.601 Y117.389
G0 X164.819 Y117.389
G1 F1200 X70.179 Y142.748 E196.83028
G0 F6000 X70.399 Y142.748
G0 X70.399 Y131.281
G0 X70.179 Y131.281
G1 F1200 X91.106 Y53.179 E199.5196
G0 F6000 X91.106 Y53.4
G0 X87.319 Y53.4
G0 X87.319 Y53.179
G1 F1200 X164.82 Y130.68 E203.16501
G0 F6000 X164.82 Y129.812
G1 F1200 X70.178 Y155.171 E206.42385
G0 F6000 X70.399 Y155.171
G0 X70.399 Y161.383
G0 X70.179 Y161.383
G1 F1200 X164.819 Y136.024 E209.68264
G0 F6000 X164.601 Y136.024
G0 X164.601 Y139.165
G0 X164.82 Y139.165
G1 F1200 X78.834 Y53.179 E213.72715
G1 X78.683 Y53.178
G1 X70.178 Y84.919 E214.82011
G0 F6000 X70.399 Y84.919
G0 X70.399 Y93.055
G0 X70.178 Y93.055
G1 F1200 X164.819 Y67.696 E218.07892
G0 F6000 X164.601 Y67.696
G0 X164.601 Y80.119
G0 X164.819 Y80.119
G1 F1200 X70.179 Y105.478 E221.3377
G0 F6000 X70.399 Y105.478
G0 X70.399 Y103.919
G0 X70.178 Y103.919
G1 F1200 X148.078 Y181.819 E225.00188
G0 F6000 X148.078 Y181.6
G0 X149.812 Y181.6
G0 X149.812 Y181.819
G1 F1200 X164.82 Y125.808 E226.93053
G1 F1500 E220.43053
G0 F6000 X164.601 Y125.808
G0 X164.601 Y92.542
G1 F1500 E226.93053
G0 F6000 X164.819 Y92.542
G1 F1200 X70.178 Y117.901 E230.18934
G0 F6000 X70.399 Y117.901
G0 X70.399 Y108.1
G0 X70.178 Y108.1
G1 F1200 X84.894 Y53.179 E232.08046
G0 F6000 X84.894 Y53.4
G0 X79.903 Y53.4
G0 X79.903 Y53.179
G1 F1200 X70.178 Y55.785 E232.41533
G1 F1500 E225.91533
G0 F6000 X70.399 Y55.785
G0 X163.687 Y53.4
G1 F1500 E232.41533
G0 F6000 X163.687 Y53.179
G1 F1200 X164.82 Y54.312 E232.46862
G0 F6000 X164.301 Y54.312
G1 F1500 E225.96862
;MESH:NONMESH
G0 F300 X164.301 Y54.312 Z0.4
G0 F6000 X70.369 Y181.63
G1 F1500 E232.46862
G0 F6000 X70.099 Y181.9
;TIME_ELAPSED:372.032313
;LAYER:1
M106 S85
;TYPE:WALL-INNER
;MESH:Anno-ArtEngInvCrds.stl
G1 F1350 X164.901 Y181.9 E235.62175
G1 X164.901 Y53.1 E239.90565
G1 X70.099 Y53.1 E243.05878
G1 X70.099 Y181.9 E247.34269
G0 F7500 X69.699 Y182.3
;TYPE:WALL-OUTER
G1 F1350 X165.301 Y182.3 E250.52242
G1 X165.301 Y52.7 E254.83293
G1 X69.699 Y52.7 E258.01267
G1 X69.699 Y182.3 E262.32318
G0 F7500 X69.969 Y182.03
G0 X70.399 Y180.164
G0 X70.179 Y180.164
;TYPE:FILL
G1 F2100 X164.819 Y154.805 E265.58197
G0 F7500 X164.601 Y154.805
G0 X164.601 Y155.936
G0 X164.82 Y155.936
G1 F2100 X70.178 Y61.294 E270.03363
G1 X70.178 Y61.192
G1 X72.325 Y53.179 E270.30955
G0 F7500 X72.325 Y53.4
G0 X70.548 Y53.4
G0 X70.548 Y53.179
G1 F2100 X164.82 Y147.451 E274.74382
G0 F7500 X164.82 Y148.445
G1 F2100 X155.878 Y181.819 E275.89299
G0 F7500 X156.729 Y181.819
G1 F2100 X164.82 Y179.651 E276.17159
G0 F7500 X164.601 Y179.651
G0 X164.601 Y181.392
G0 X164.82 Y181.392
G1 F2100 X70.178 Y86.749 E280.62329
G0 F7500 X70.178 Y86.989
G1 F2100 X164.819 Y61.63 E283.8821
G0 F7500 X164.82 Y62.598
G1 F2100 X155.401 Y53.179 E284.32514
G0 F7500 X155.401 Y53.4
G0 X153.077 Y53.4
G0 X153.077 Y53.179
G1 F2100 X118.608 Y181.819 E288.75466
G0 F7500 X118.608 Y181.6
G0 X122.821 Y181.6
G0 X122.821 Y181.819
G1 F2100 X70.178 Y129.176 E291.23082
G0 F7500 X70.399 Y129.176
G0 X70.399 Y130.471
G0 X70.178 Y130.471
G1 F2100 X164.82 Y105.112 E294.48967
G1 X164.82 Y105.025
G1 X112.975 Y53.179 E296.92832
G0 F7500 X112.975 Y53.4
G0 X115.807 Y53.4
G0 X115.807 Y53.179
G1 F2100 X81.338 Y181.819 E301.35784
G0 F7500 X80.395 Y181.819
G1 F2100 X70.178 Y171.602 E301.83841
G0 F7500 X70.399 Y171.602
G0 X70.399 Y173.952
G0 X70.179 Y173.952
G1 F2100 X164.819 Y148.593 E305.0972
G0 F7500 X164.601 Y148.593
G0 X164.601 Y142.381
G0 X164.82 Y142.381
G1 F2100 X70.178 Y167.741 E308.35605
G0 F7500 X70.399 Y167.741
G0 X70.399 Y163.117
G0 X70.178 Y163.117
G1 F2100 X88.88 Y181.819 E309.23574
G0 F7500 X88.88 Y181.6
G0 X87.549 Y181.6
G0 X87.549 Y181.819
G1 F2100 X122.018 Y53.178 E313.66528
G0 F7500 X121.46 Y53.179
G1 F2100 X164.82 Y96.539 E315.7048
G0 F7500 X164.601 Y96.539
G0 X164.601 Y98.9
G0 X164.819 Y98.9
G1 F2100 X70.178 Y124.259 E318.96362
G0 F7500 X70.399 Y124.259
G0 X70.399 Y120.691
G0 X70.178 Y120.691
G1 F2100 X131.306 Y181.819 E321.83889
G0 F7500 X131.031 Y181.819
G1 F2100 X164.82 Y55.718 E326.18098
G0 F7500 X164.819 Y55.418
G1 F2100 X70.179 Y80.777 E329.43977
G0 F7500 X70.399 Y80.777
G0 X70.399 Y78.264
G0 X70.178 Y78.264
G1 F2100 X164.82 Y172.907 E333.89146
G0 F7500 X164.819 Y173.44
G1 F2100 X133.546 Y181.819 E334.96829
G0 F7500 X133.546 Y181.6
G0 X137.243 Y181.6
G0 X137.243 Y181.819
G1 F2100 X164.82 Y78.9 E338.51214
G0 F7500 X164.82 Y79.569
G1 F2100 X138.431 Y53.179 E339.75343
G0 F7500 X138.431 Y53.4
G0 X140.653 Y53.4
G0 X140.653 Y53.178
G1 F2100 X106.184 Y181.819 E344.18297
G0 F7500 X105.851 Y181.819
G1 F2100 X70.178 Y146.146 E345.86092
G0 F7500 X70.399 Y146.146
G0 X70.399 Y149.106
G0 X70.178 Y149.106
G1 F2100 X164.82 Y123.746 E349.11978
G0 F7500 X164.601 Y123.746
G0 X164.601 Y125.263
G0 X164.82 Y125.263
G1 F2100 X149.666 Y181.819 E351.06719
G0 F7500 X149.666 Y181.6
G0 X148.277 Y181.6
G0 X148.277 Y181.819
G1 F2100 X70.178 Y103.72 E354.74073
G0 F7500 X70.399 Y103.72
G0 X70.399 Y105.624
G0 X70.178 Y105.624
G1 F2100 X164.819 Y80.265 E357.99954
G0 F7500 X164.601 Y80.265
G0 X164.601 Y74.053
G0 X164.819 Y74.053
G1 F2100 X70.179 Y99.412 E361.25833
G0 F7500 X70.399 Y99.412
G0 X70.399 Y95.235
G0 X70.178 Y95.235
G1 F2100 X156.762 Y181.819 E365.33097
G0 F7500 X156.762 Y181.6
G0 X162.089 Y181.6
G0 X162.089 Y181.819
G1 F2100 X164.82 Y171.627 E365.68192
G0 F7500 X164.601 Y171.627
G0 X164.601 Y167.228
G0 X164.82 Y167.228
G1 F2100 X110.365 Y181.819 E367.55699
G0 F7500 X110.365 Y181.6
G0 X112.396 Y181.6
G0 X112.396 Y181.819
G1 F2100 X146.865 Y53.179 E371.9865
G1 X146.916 Y53.179
G1 X164.82 Y71.084 E372.82868
G0 F7500 X164.601 Y71.084
G0 X164.601 Y67.842
G0 X164.819 Y67.842
G1 F2100 X70.178 Y93.201 E376.08749
G0 F7500 X70.399 Y93.201
G0 X70.399 Y84.373
G0 X70.178 Y84.373
G1 F2100 X78.537 Y53.178 E377.16165
G0 F7500 X79.034 Y53.179
G1 F2100 X164.82 Y138.966 E381.19678
G0 F7500 X164.601 Y138.966
G0 X164.601 Y136.17
G0 X164.819 Y136.17
G1 F2100 X70.179 Y161.529 E384.45556
G0 F7500 X70.399 Y161.529
G0 X70.399 Y155.317
G0 X70.179 Y155.317
G1 F2100 X164.819 Y129.958 E387.71434
G0 F7500 X164.82 Y130.481
G1 F2100 X87.519 Y53.179 E391.35037
G0 F7500 X87.519 Y53.4
G0 X84.749 Y53.4
G0 X84.749 Y53.178
G1 F2100 X70.178 Y107.555 E393.22276
G0 F7500 X70.399 Y107.555
G0 X70.399 Y111.836
G0 X70.178 Y111.836
G1 F2100 X164.82 Y86.477 E396.48161
G0 F7500 X164.601 Y86.477
G0 X164.601 Y88.054
G0 X164.82 Y88.054
G1 F2100 X129.945 Y53.179 E398.12202
G0 F7500 X129.945 Y53.4
G0 X128.23 Y53.4
G0 X128.23 Y53.179
G1 F2100 X93.761 Y181.819 E402.55154
G0 F7500 X93.761 Y181.6
G0 X97.365 Y181.6
G0 X97.365 Y181.819
G1 F2100 X70.178 Y154.632 E403.83033
G0 F7500 X70.179 Y153.919
G1 F2100 X97.172 Y53.179 E407.29915
G0 F7500 X97.172 Y53.4
G0 X96.004 Y53.4
G0 X96.004 Y53.179
G1 F2100 X164.82 Y121.995 E410.53604
G0 F7500 X164.601 Y121.995
G0 X164.601 Y117.535
G0 X164.819 Y117.535
G1 F2100 X70.179 Y142.894 E413.79483
G0 F7500 X70.399 Y142.894
G0 X70.399 Y137.661
G0 X70.178 Y137.661
G1 F2100 X114.336 Y181.819 E415.87188
G0 F7500 X114.336 Y181.6
G0 X124.819 Y181.6
G0 X124.819 Y181.819
G1 F2100 X159.288 Y53.179 E420.3014
G0 F7500 X159.288 Y53.4
G0 X163.886 Y53.4
G0 X163.886 Y53.179
G1 F2100 X164.82 Y54.113 E420.34533
G0 F7500 X164.601 Y54.113
G0 X149.995 Y53.4
G0 X149.995 Y53.179
G1 F2100 X70.178 Y74.566 E423.09371
G0 F7500 X70.399 Y74.566
G0 X70.399 Y69.779
G0 X70.178 Y69.779
G1 F2100 X164.82 Y164.422 E427.5454
G0 F7500 X164.601 Y164.422
G0 X164.601 Y161.016
G0 X164.82 Y161.016
G1 F2100 X87.182 Y181.819 E430.21874
G0 F7500 X87.182 Y181.6
G0 X75.126 Y181.6
G0 X75.126 Y181.819
G1 F2100 X109.595 Y53.179 E434.64826
G0 F7500 X109.595 Y53.4
G0 X104.489 Y53.4
G0 X104.489 Y53.179
G1 F2100 X164.82 Y113.51 E437.48604
G0 F7500 X164.601 Y113.51
G0 X164.601 Y111.323
G0 X164.819 Y111.323
G1 F2100 X70.179 Y136.682 E440.74482
G0 F7500 X70.399 Y136.682
G0 X70.399 Y130.737
G0 X70.178 Y130.737
G1 F2100 X90.96 Y53.179 E443.41541
G0 F7500 X90.96 Y53.4
G0 X80.448 Y53.4
G0 X80.448 Y53.179
G1 F2100 X70.178 Y55.931 E443.76905
G0 F7500 X70.399 Y55.931
G0 X70.399 Y62.142
G0 X70.179 Y62.142
G1 F2100 X103.63 Y53.179 E444.92088
G0 F7500 X103.384 Y53.178
G1 F2100 X70.179 Y177.101 E449.18797
G0 F7500 X70.399 Y177.101
G0 X70.399 Y180.088
G0 X70.178 Y180.088
G1 F2100 X71.909 Y181.819 E449.26939
G0 F7500 X71.909 Y181.6
G0 X99.973 Y181.6
G0 X99.973 Y181.819
G1 F2100 X134.442 Y53.179 E453.69891
G0 F7500 X134.442 Y53.4
G0 X126.812 Y53.4
G0 X126.812 Y53.179
G1 F2100 X70.178 Y68.354 E455.64901
G1 F1500 E449.14901
G0 F7500 X70.399 Y68.354
G0 X70.399 Y112.205
G1 F1500 E455.64901
G0 F7500 X70.178 Y112.205
G1 F2100 X139.792 Y181.819 E458.92344
G0 F7500 X139.792 Y181.6
G0 X143.454 Y181.6
G0 X143.454 Y181.819
G1 F2100 X164.82 Y102.082 E461.66906
G0 F7500 X164.601 Y102.082
G0 X164.601 Y92.688
G0 X164.819 Y92.688
G1 F2100 X70.179 Y118.047 E464.92784
G0 F7500 X70.699 Y118.047
G1 F1500 E458.42784
;MESH:NONMESH
G0 F300 X70.699 Y118.047 Z0.6
G0 F7500 X70.369 Y181.63
G1 F1500 E464.92784
G0 F7500 X70.099 Y181.9
;TIME_ELAPSED:604.254998
;LAYER:2
M106 S170
;TYPE:WALL-INNER
;MESH:Anno-ArtEngInvCrds.stl
G1 F1500 X164.901 Y181.9 E468.08097
G1 X164.901 Y53.1 E472.36488
G1 X70.099 Y53.1 E475.518
G1 X70.099 Y181.9 E479.80191
G0 F9000 X69.699 Y182.3
;TYPE:WALL-OUTER
G1 F1500 X165.301 Y182.3 E482.98164
G1 X165.301 Y52.7 E487.29216
G1 X69.699 Y52.7 E490.47189
G1 X69.699 Y182.3 E494.78241
G0 F9000 X69.969 Y182.03
G0 X70.399 Y180.311
G0 X70.179 Y180.311
;TYPE:FILL
G1 F3000 X164.819 Y154.952 E498.04119
G0 F9000 X164.82 Y155.736
G1 F3000 X70.178 Y61.093 E502.49288
G0 F9000 X70.178 Y60.643
G1 F3000 X72.178 Y53.179 E502.74989
G0 F9000 X72.178 Y53.4
G0 X70.749 Y53.4
G0 X70.749 Y53.179
