;FLAVOR:Marlin
;TIME:17472
;Filament used: 12.4554m
;Layer height: 0.2
;MINX:69
;MINY:57.651
;MINZ:0.2
;MAXX:166.05
;MAXY:177.349
;MAXZ:13.6
;Generated with Cura_SteamEngine 5.2.1
M140 S60
M105
M190 S60
M104 S200
M105
M109 S200
M82 ;absolute extrusion mode
M201 X500.00 Y500.00 Z100.00 E5000.00 ;Setup machine max acceleration
M203 X500.00 Y500.00 Z10.00 E50.00 ;Setup machine max feedrate
M204 P500.00 R1000.00 T500.00 ;Setup Print/Retract/Travel acceleration
M205 X8.00 Y8.00 Z0.40 E5.00 ;Setup Jerk
M220 S100 ;Reset Feedrate
M221 S100 ;Reset Flowrate

G28 ;Home

G92 E0 ;Reset Extruder
G1 Z2.0 F3000 ;Move Z Axis up
G1 X10.1 Y20 Z0.28 F5000.0 ;Move to start position
G1 X10.1 Y200.0 Z0.28 F1500.0 E15 ;Draw the first line
G1 X10.4 Y200.0 Z0.28 F5000.0 ;Move to side a little
G1 X10.4 Y20 Z0.28 F1500.0 E30 ;Draw the second line
G92 E0 ;Reset Extruder
G1 Z2.0 F3000 ;Move Z Axis up

G92 E0
G92 E0
G1 F1500 E-6.5
;LAYER_COUNT:68
;LAYER:0
M107
;MESH:AnnoCubes2Sml.stl(1)
G0 F6000 X116.2 Y176.949 Z0.2
;TYPE:WALL-INNER
G1 F1500 E0
G1 F1200 X116.2 Y58.051 E3.95456
G1 X69.4 Y58.051 E5.51114
G1 X69.4 Y176.949 E9.4657
G1 X116.2 Y176.949 E11.02228
G0 F6000 X116.6 Y177.349
;TYPE:WALL-OUTER
G1 F1200 X116.6 Y57.651 E15.00345
G1 X69 Y57.651 E16.58663
G1 X69 Y177.349 E20.5678
G1 X116.6 Y177.349 E22.15098
G0 F6000 X116.33 Y177.079
G0 X114.015 Y176.649
G0 X114.015 Y176.869
;TYPE:FILL
G1 F1200 X116.119 Y169.018 E22.42132
G0 F6000 X115.9 Y169.018
G0 X115.9 Y167.301
G0 X116.119 Y167.301
G1 F1200 X80.414 Y176.868 E23.65077
G0 F6000 X80.414 Y176.649
G0 X82.957 Y176.649
G0 X82.957 Y176.868
G1 F1200 X114.773 Y58.13 E27.73933
G0 F6000 X114.773 Y58.351
G0 X115.9 Y61.703
G0 X116.118 Y61.703
G1 F1200 X69.479 Y74.2 E29.34527
G0 F6000 X69.7 Y74.2
G0 X69.7 Y77.008
G0 X69.478 Y77.008
G1 F1200 X116.119 Y123.648 E31.53909
G1 X116.118 Y123.82
G1 X69.479 Y136.317 E33.14504
G1 X69.479 Y136.405
G1 X109.942 Y176.868 E35.04829
G0 F6000 X109.942 Y176.649
G0 X107.804 Y176.649
G0 X107.804 Y176.869
G1 F1200 X116.119 Y145.836 E36.11686
G0 F6000 X115.9 Y145.836
G0 X115.9 Y148.666
G0 X116.119 Y148.666
G1 F1200 X69.479 Y161.163 E37.72283
G0 F6000 X69.479 Y161.861
G1 F1200 X84.486 Y176.868 E38.42872
G0 F6000 X84.486 Y176.649
G0 X89.169 Y176.649
G0 X89.169 Y176.869
G1 F1200 X116.119 Y76.29 E41.892
G0 F6000 X115.9 Y76.29
G0 X115.9 Y74.126
G0 X116.119 Y74.126
G1 F1200 X69.48 Y86.623 E43.49794
G0 F6000 X69.7 Y86.623
G0 X69.7 Y85.493
G0 X69.478 Y85.493
G1 F1200 X116.119 Y132.134 E45.69179
G0 F6000 X115.9 Y132.134
G0 X115.9 Y130.031
G0 X116.119 Y130.031
G1 F1200 X69.479 Y142.528 E47.29776
G0 F6000 X69.7 Y142.528
G0 X69.7 Y144.891
G0 X69.479 Y144.891
G1 F1200 X101.457 Y176.868 E48.80189
G1 X101.592 Y176.868
G1 X116.119 Y122.654 E50.66866
G0 F6000 X115.9 Y122.654
G0 X115.9 Y117.608
G0 X116.119 Y117.608
G1 F1200 X69.48 Y130.105 E52.2746
G0 F6000 X69.7 Y130.105
G0 X69.7 Y127.92
G0 X69.479 Y127.92
G1 F1200 X116.119 Y174.56 E54.46841
G0 F6000 X115.9 Y174.56
G0 X115.9 Y173.513
G0 X116.119 Y173.513
G1 F1200 X103.596 Y176.868 E54.89961
G0 F6000 X103.596 Y176.649
G0 X95.38 Y176.649
G0 X95.38 Y176.869
G1 F1200 X116.119 Y99.472 E57.56466
G0 F6000 X116.118 Y98.973
G1 F1200 X69.48 Y111.47 E59.17057
G0 F6000 X69.479 Y111.258
G1 F1200 X83.715 Y58.129 E60.99998
G0 F6000 X83.091 Y58.13
G1 F1200 X69.48 Y61.777 E61.46866
G0 F6000 X69.7 Y61.777
G0 X69.7 Y60.037
G0 X69.478 Y60.037
G1 F1200 X116.119 Y106.678 E63.66251
G0 F6000 X115.9 Y106.678
G0 X115.9 Y105.185
G0 X116.118 Y105.185
G1 F1200 X69.479 Y117.682 E65.26845
G0 F6000 X69.7 Y117.682
G0 X69.7 Y119.435
G0 X69.479 Y119.435
G1 F1200 X116.119 Y166.075 E67.46225
G0 F6000 X115.9 Y166.075
G0 X115.9 Y161.09
G0 X116.118 Y161.09
G1 F1200 X69.48 Y173.587 E69.06816
G0 F6000 X69.7 Y173.587
G0 X69.7 Y170.346
G0 X69.479 Y170.346
G1 F1200 X76.001 Y176.868 E69.37494
G0 F6000 X76.745 Y176.868
G1 F1200 X108.562 Y58.129 E73.46353
G0 F6000 X108.562 Y58.351
G0 X109.998 Y58.351
G0 X109.998 Y58.131
G1 F1200 X116.119 Y64.251 E73.75142
G0 F6000 X115.9 Y64.251
G0 X115.9 Y67.915
G0 X116.118 Y67.915
G1 F1200 X69.479 Y80.412 E75.35737
G0 F6000 X69.7 Y80.412
G0 X69.7 Y88.076
G0 X69.479 Y88.076
G1 F1200 X77.503 Y58.13 E76.38851
G0 F6000 X77.503 Y58.351
G0 X76.057 Y58.351
G0 X76.057 Y58.131
G1 F1200 X116.119 Y98.193 E78.2729
G0 F6000 X115.9 Y98.193
G0 X115.9 Y92.761
G0 X116.119 Y92.761
G1 F1200 X69.48 Y105.258 E79.87884
G0 F6000 X69.7 Y105.258
G0 X69.7 Y102.464
G0 X69.478 Y102.464
G1 F1200 X116.119 Y149.104 E82.07267
G0 F6000 X115.9 Y149.104
G0 X115.9 Y154.878
G0 X116.119 Y154.878
G1 F1200 X69.48 Y167.375 E83.67861
G0 F6000 X69.7 Y167.375
G0 X70.534 Y176.649
G0 X70.534 Y176.868
G1 F1200 X102.35 Y58.129 E87.7672
G0 F6000 X101.513 Y58.131
G1 F1200 X116.119 Y72.737 E88.45422
G0 F6000 X115.9 Y72.737
G0 X115.9 Y80.338
G0 X116.118 Y80.338
G1 F1200 X69.48 Y92.835 E90.06013
G0 F6000 X69.7 Y92.835
G0 X69.7 Y93.978
G0 X69.478 Y93.978
G1 F1200 X116.119 Y140.619 E92.25398
G0 F6000 X115.9 Y140.619
G0 X115.9 Y142.455
G0 X116.118 Y142.455
G1 F1200 X69.48 Y154.952 E93.85989
G0 F6000 X69.7 Y154.952
G0 X69.7 Y153.376
G0 X69.479 Y153.376
G1 F1200 X92.971 Y176.868 E94.96488
G1 F1500 E88.46488
G0 F6000 X92.971 Y176.649
G0 X115.9 Y157.59
G1 F1500 E94.96488
G0 F6000 X116.119 Y157.59
G1 F1200 X69.478 Y110.949 E97.15873
G0 F6000 X69.7 Y110.949
G0 X69.7 Y99.047
G0 X69.479 Y99.047
G1 F1200 X116.118 Y86.55 E98.76467
G0 F6000 X115.9 Y86.55
G0 X115.9 Y89.707
G0 X116.119 Y89.707
G1 F1200 X84.543 Y58.131 E100.24991
G0 F6000 X84.543 Y58.351
G0 X89.927 Y58.351
G0 X89.927 Y58.129
G1 F1200 X69.479 Y134.44 E102.87757
G0 F6000 X69.7 Y134.44
G0 X69.7 Y123.893
G0 X69.48 Y123.893
G1 F1200 X116.119 Y111.396 E104.48351
G0 F6000 X115.9 Y111.396
G0 X115.9 Y115.163
G0 X116.119 Y115.163
G1 F1200 X69.478 Y68.522 E106.67736
G0 F6000 X69.48 Y67.988
G1 F1200 X106.271 Y58.13 E107.9442
G0 F6000 X106.271 Y58.351
G0 X96.138 Y58.351
G0 X96.138 Y58.13
G1 F1200 X69.479 Y157.622 E111.37005
G0 F6000 X69.7 Y157.622
G0 X69.7 Y148.74
G0 X69.48 Y148.74
G1 F1200 X116.119 Y136.243 E112.97599
G1 F1500 E106.47599
G0 F6000 X115.9 Y136.243
G0 X115.9 Y81.222
G1 F1500 E112.97599
G0 F6000 X116.119 Y81.222
G1 F1200 X93.028 Y58.131 E114.06212
G0 F6000 X93.028 Y58.351
G0 X71.292 Y58.351
G0 X71.292 Y58.129
G1 F1200 X69.479 Y64.894 E114.29507
G0 F6000 X70 Y64.894
G1 F1500 E107.79507
;MESH:AnnoCubes2Sml.stl
G0 F6000 X116.38 Y176.679
G0 X118.67 Y176.679
G0 X119.12 Y176.679
G1 F1500 E114.29507
G0 F6000 X118.85 Y176.949
;TYPE:WALL-INNER
G1 F1200 X165.65 Y176.949 E115.85164
G1 X165.65 Y58.051 E119.8062
G1 X118.85 Y58.051 E121.36278
G1 X118.85 Y176.949 E125.31734
G0 F6000 X118.45 Y177.349
;TYPE:WALL-OUTER
G1 F1200 X166.05 Y177.349 E126.90052
G1 X166.05 Y57.651 E130.8817
G1 X118.45 Y57.651 E132.46488
G1 X118.45 Y177.349 E136.44605
G0 F6000 X118.72 Y177.079
G0 X119.984 Y176.649
G0 X119.984 Y176.867
;TYPE:FILL
G1 F1200 X151.8 Y58.129 E140.53461
G0 F6000 X150.961 Y58.131
G1 F1200 X165.569 Y72.739 E141.22172
G0 F6000 X165.35 Y72.739
G0 X165.35 Y74.127
G0 X165.568 Y74.127
G1 F1200 X118.93 Y86.624 E142.82763
G0 F6000 X119.15 Y86.624
G0 X119.15 Y85.496
G0 X118.929 Y85.496
G1 F1200 X165.569 Y132.136 E145.02144
G0 F6000 X165.35 Y132.136
G0 X165.35 Y130.032
G0 X165.568 Y130.032
G1 F1200 X118.929 Y142.529 E146.62738
G0 F6000 X119.15 Y142.529
G0 X119.15 Y144.893
G0 X118.929 Y144.893
G1 F1200 X150.904 Y176.867 E148.13136
G1 X151.042 Y176.868
G1 X165.569 Y122.653 E149.99817
G0 F6000 X165.569 Y123.651
G1 F1200 X118.929 Y77.01 E152.19199
G0 F6000 X119.15 Y77.01
G0 X119.15 Y74.2
G0 X118.93 Y74.2
G1 F1200 X165.568 Y61.704 E153.7979
G0 F6000 X165.35 Y61.704
G0 X165.35 Y64.254
G0 X165.569 Y64.254
G1 F1200 X159.446 Y58.131 E154.0859
G0 F6000 X159.446 Y58.351
G0 X158.012 Y58.351
G0 X158.012 Y58.129
G1 F1200 X126.196 Y176.868 E158.17449
G0 F6000 X125.448 Y176.867
G1 F1200 X118.929 Y170.349 E158.4811
G0 F6000 X119.15 Y170.349
G0 X119.15 Y167.375
G0 X118.929 Y167.375
G1 F1200 X165.569 Y154.878 E160.08708
G0 F6000 X165.35 Y154.878
G0 X165.35 Y157.592
G0 X165.569 Y157.592
G1 F1200 X118.929 Y110.952 E162.28088
G0 F6000 X118.929 Y111.258
G1 F1200 X133.165 Y58.129 E164.11029
G0 F6000 X132.542 Y58.13
G1 F1200 X118.93 Y61.777 E164.579
G0 F6000 X119.15 Y61.777
G0 X119.15 Y60.04
G0 X118.929 Y60.04
G1 F1200 X165.569 Y106.68 E166.7728
G0 F6000 X165.35 Y106.68
G0 X165.35 Y105.185
G0 X165.568 Y105.185
G1 F1200 X118.929 Y117.682 E168.37874
G0 F6000 X119.15 Y117.682
G0 X119.15 Y119.437
G0 X118.929 Y119.437
G1 F1200 X165.569 Y166.077 E170.57255
G0 F6000 X165.35 Y166.077
G0 X165.35 Y167.302
G0 X165.569 Y167.302
G1 F1200 X129.866 Y176.868 E171.80192
G0 F6000 X129.866 Y176.649
G0 X132.407 Y176.649
G0 X132.407 Y176.868
G1 F1200 X164.223 Y58.129 E175.89051
G0 F6000 X164.223 Y58.351
G0 X155.724 Y58.351
G0 X155.724 Y58.13
G1 F1200 X118.93 Y67.989 E177.15745
G0 F6000 X118.929 Y68.525
G1 F1200 X165.569 Y115.165 E179.35125
G0 F6000 X165.35 Y115.165
G0 X165.35 Y117.608
G0 X165.569 Y117.608
G1 F1200 X118.93 Y130.105 E180.9572
G0 F6000 X119.15 Y130.105
G0 X119.15 Y127.922
G0 X118.929 Y127.922
G1 F1200 X165.569 Y174.562 E183.151
G0 F6000 X165.35 Y174.562
G0 X165.35 Y173.513
G0 X165.569 Y173.513
G1 F1200 X153.048 Y176.868 E183.58214
G0 F6000 X153.048 Y176.649
G0 X157.254 Y176.649
G0 X157.254 Y176.869
G1 F1200 X165.569 Y145.835 E184.65074
G0 F6000 X165.35 Y145.835
G0 X165.35 Y148.667
G0 X165.568 Y148.667
G1 F1200 X118.929 Y161.164 E186.25668
G0 F6000 X118.929 Y161.863
G1 F1200 X133.933 Y176.867 E186.96243
G0 F6000 X133.933 Y176.649
G0 X138.619 Y176.649
G0 X138.619 Y176.868
G1 F1200 X165.569 Y76.29 E190.42567
G0 F6000 X165.35 Y76.29
G0 X165.35 Y80.339
G0 X165.568 Y80.339
G1 F1200 X118.93 Y92.835 E192.03157
G0 F6000 X119.15 Y92.835
G0 X119.15 Y93.981
G0 X118.929 Y93.981
G1 F1200 X165.569 Y140.621 E194.22538
G0 F6000 X165.35 Y140.621
G0 X165.35 Y142.455
G0 X165.568 Y142.455
G1 F1200 X118.93 Y154.952 E195.83129
G0 F6000 X119.15 Y154.952
G0 X119.15 Y153.378
G0 X118.929 Y153.378
G1 F1200 X142.419 Y176.867 E196.93616
G0 F6000 X142.419 Y176.649
G0 X144.831 Y176.649
G0 X144.831 Y176.868
G1 F1200 X165.569 Y99.471 E199.6012
G0 F6000 X165.568 Y98.974
G1 F1200 X118.93 Y111.47 E201.2071
G0 F6000 X119.15 Y111.47
G0 X119.15 Y105.259
G0 X118.93 Y105.259
G1 F1200 X165.568 Y92.762 E202.81301
G0 F6000 X165.35 Y92.762
G0 X165.35 Y89.709
G0 X165.569 Y89.709
G1 F1200 X133.991 Y58.131 E204.29834
G0 F6000 X133.991 Y58.351
G0 X139.377 Y58.351
G0 X139.377 Y58.129
G1 F1200 X118.929 Y134.44 E206.926
G0 F6000 X119.15 Y134.44
G0 X119.15 Y136.317
G0 X118.93 Y136.317
G1 F1200 X165.568 Y123.82 E208.5319
G0 F6000 X165.35 Y123.82
G0 X165.35 Y111.397
G0 X165.568 Y111.397
G1 F1200 X118.929 Y123.894 E210.13785
G0 F6000 X119.15 Y123.894
G0 X119.15 Y136.407
G0 X118.929 Y136.407
G1 F1200 X159.389 Y176.867 E212.04096
G0 F6000 X159.389 Y176.649
G0 X163.465 Y176.649
G0 X163.465 Y176.868
G1 F1200 X165.569 Y169.017 E212.3113
G0 F6000 X165.35 Y169.017
G0 X165.35 Y161.09
G0 X165.568 Y161.09
G1 F1200 X118.93 Y173.587 E213.91721
G0 F6000 X119.15 Y173.587
G0 X119.15 Y157.622
G0 X118.929 Y157.622
G1 F1200 X145.588 Y58.129 E217.34309
G0 F6000 X145.588 Y58.351
G0 X142.476 Y58.351
G0 X142.476 Y58.131
G1 F1200 X165.569 Y81.224 E218.42932
G0 F6000 X165.35 Y81.224
G0 X165.35 Y86.55
G0 X165.568 Y86.55
G1 F1200 X118.929 Y99.047 E220.03526
G0 F6000 X119.15 Y99.047
G0 X119.15 Y102.466
G0 X118.929 Y102.466
G1 F1200 X165.569 Y149.106 E222.22906
G0 F6000 X165.35 Y149.106
G0 X165.35 Y136.243
G0 X165.569 Y136.243
G1 F1200 X118.929 Y148.741 E223.83504
G1 F1500 E217.33504
G0 F6000 X119.15 Y148.741
G0 X119.15 Y88.076
G1 F1500 E223.83504
G0 F6000 X118.929 Y88.076
G1 F1200 X126.953 Y58.129 E224.86622
G0 F6000 X126.953 Y58.351
G0 X125.505 Y58.351
G0 X125.505 Y58.131
G1 F1200 X165.569 Y98.195 E226.75071
G1 F1500 E220.25071
G0 F6000 X165.35 Y98.195
G0 X165.35 Y67.915
G1 F1500 E226.75071
G0 F6000 X165.568 Y67.915
G1 F1200 X118.929 Y80.412 E228.35665
G0 F6000 X119.15 Y80.412
G0 X119.15 Y64.894
G0 X118.929 Y64.894
G1 F1200 X120.742 Y58.129 E228.58959
G0 F6000 X120.742 Y58.651
G1 F1500 E222.08959
;MESH:NONMESH
G0 F300 X120.742 Y58.651 Z0.4
G0 F6000 X118.67 Y176.679
G0 X116.38 Y176.679
G0 X115.93 Y176.679
G1 F1500 E228.58959
G0 F6000 X116.2 Y176.949
;TIME_ELAPSED:377.598547
;LAYER:1
M106 S85
;TYPE:WALL-INNER
;MESH:AnnoCubes2Sml.stl(1)
G1 F1350 X116.2 Y58.051 E232.54416
G1 X69.4 Y58.051 E234.10073
G1 X69.4 Y176.949 E238.0553
G1 X116.2 Y176.949 E239.61187
G0 F7500 X116.6 Y177.349
;TYPE:WALL-OUTER
G1 F1350 X116.6 Y57.651 E243.59304
G1 X69 Y57.651 E245.17622
G1 X69 Y177.349 E249.1574
G1 X116.6 Y177.349 E250.74058
G0 F7500 X116.33 Y177.079
G0 X113.869 Y176.649
G0 X113.869 Y176.869
;TYPE:FILL
G1 F2100 X116.119 Y168.473 E251.02968
G0 F7500 X115.9 Y168.473
G0 X115.9 Y167.447
G0 X116.119 Y167.447
G1 F2100 X80.958 Y176.869 E252.2404
G0 F7500 X80.958 Y176.649
G0 X82.811 Y176.649
G0 X82.811 Y176.868
G1 F2100 X114.627 Y58.13 E256.32896
G0 F7500 X114.627 Y58.351
G0 X115.9 Y61.849
G0 X116.118 Y61.849
G1 F2100 X69.479 Y74.346 E257.9349
G0 F7500 X69.7 Y74.346
G0 X69.7 Y76.808
G0 X69.478 Y76.808
G1 F2100 X116.119 Y123.449 E260.12875
G0 F7500 X116.118 Y123.966
G1 F2100 X69.479 Y136.463 E261.73469
G0 F7500 X69.479 Y136.206
G1 F2100 X110.141 Y176.868 E263.64731
G0 F7500 X110.141 Y176.649
G0 X107.658 Y176.649
G0 X107.658 Y176.868
G1 F2100 X116.119 Y145.291 E264.73461
G0 F7500 X115.9 Y145.291
G0 X115.9 Y142.601
G0 X116.118 Y142.601
G1 F2100 X69.479 Y155.098 E266.34055
G0 F7500 X69.7 Y155.098
G0 X69.7 Y153.177
G0 X69.479 Y153.177
G1 F2100 X93.171 Y176.868 E267.45493
G0 F7500 X93.171 Y176.649
G0 X95.234 Y176.649
G0 X95.234 Y176.869
G1 F2100 X116.119 Y98.927 E270.13874
G1 X116.118 Y99.119
G1 X69.479 Y111.616 E271.74469
G0 F7500 X69.478 Y110.749
G1 F2100 X116.119 Y157.39 E273.93854
G0 F7500 X115.9 Y157.39
G0 X115.9 Y155.024
G0 X116.118 Y155.024
G1 F2100 X69.48 Y167.521 E275.54445
G0 F7500 X69.7 Y167.521
G0 X69.7 Y170.147
G0 X69.479 Y170.147
G1 F2100 X76.2 Y176.868 E275.86058
G0 F7500 X76.599 Y176.869
G1 F2100 X108.416 Y58.129 E279.94921
G0 F7500 X108.416 Y58.351
G0 X106.816 Y58.351
G0 X106.816 Y58.13
G1 F2100 X69.48 Y68.134 E281.23482
G1 X69.478 Y68.323
G1 X116.119 Y114.964 E283.42867
G0 F7500 X115.9 Y114.964
G0 X115.9 Y117.754
G0 X116.118 Y117.754
G1 F2100 X69.48 Y130.251 E285.03458
G0 F7500 X69.7 Y130.251
G0 X69.7 Y127.721
G0 X69.479 Y127.721
G1 F2100 X116.119 Y174.361 E287.22838
G0 F7500 X116.119 Y173.659
G1 F2100 X104.141 Y176.868 E287.64082
G0 F7500 X104.141 Y176.649
G0 X101.656 Y176.649
G0 X101.656 Y176.868
G1 F2100 X69.479 Y144.691 E289.15433
G0 F7500 X69.7 Y144.691
G0 X69.7 Y142.674
G0 X69.48 Y142.674
G1 F2100 X116.119 Y130.177 E290.76027
G0 F7500 X115.9 Y130.177
G0 X115.9 Y131.934
G0 X116.119 Y131.934
G1 F2100 X69.478 Y85.294 E292.95409
G0 F7500 X69.7 Y85.294
G0 X69.7 Y86.769
G0 X69.48 Y86.769
G1 F2100 X116.118 Y74.273 E294.55999
G0 F7500 X115.9 Y74.273
G0 X115.9 Y75.745
G0 X116.119 Y75.745
G1 F2100 X89.023 Y176.868 E298.04201
G0 F7500 X89.023 Y176.649
G0 X84.685 Y176.649
G0 X84.685 Y176.868
G1 F2100 X69.479 Y161.662 E298.75725
G0 F7500 X69.48 Y161.309
G1 F2100 X116.119 Y148.812 E300.36319
G1 X116.119 Y148.905
G1 X69.478 Y102.264 E302.55704
G0 F7500 X69.7 Y102.264
G0 X69.7 Y99.193
G0 X69.48 Y99.193
G1 F2100 X116.118 Y86.696 E304.16295
G0 F7500 X115.9 Y86.696
G0 X115.9 Y89.508
G0 X116.119 Y89.508
G1 F2100 X84.742 Y58.131 E305.63883
G0 F7500 X84.742 Y58.351
G0 X83.636 Y58.351
G0 X83.636 Y58.13
G1 F2100 X69.48 Y61.923 E306.12627
G0 F7500 X69.7 Y61.923
G0 X69.7 Y59.838
G0 X69.478 Y59.838
G1 F2100 X116.119 Y106.478 E308.32009
G0 F7500 X115.9 Y106.478
G0 X115.9 Y105.331
G0 X116.118 Y105.331
G1 F2100 X69.479 Y117.828 E309.92604
G0 F7500 X69.7 Y117.828
G0 X69.7 Y119.235
G0 X69.479 Y119.235
G1 F2100 X116.119 Y165.875 E312.11984
G0 F7500 X115.9 Y165.875
G0 X115.9 Y161.236
G0 X116.118 Y161.236
G1 F2100 X69.479 Y173.733 E313.72578
G0 F7500 X69.7 Y173.733
G0 X70.388 Y176.649
G0 X70.388 Y176.868
G1 F2100 X102.204 Y58.13 E317.81434
G0 F7500 X101.713 Y58.131
G1 F2100 X116.119 Y72.537 E318.49195
G0 F7500 X115.9 Y72.537
G0 X115.9 Y68.061
G0 X116.118 Y68.061
G1 F2100 X69.48 Y80.558 E320.09786
