;FLAVOR:Marlin
;TIME:24484
;Filament used: 19.0451m
;Layer height: 0.2
;MINX:38.7
;MINY:45.7
;MINZ:0.2
;MAXX:196.3
;MAXY:189.3
;MAXZ:32
;Generated with Cura_SteamEngine 5.2.1
M140 S60
M105
M190 S60
M104 S200
M105
M109 S200
M82 ;absolute extrusion mode
M201 X500.00 Y500.00 Z100.00 E5000.00 ;Setup machine max acceleration
M203 X500.00 Y500.00 Z10.00 E50.00 ;Setup machine max feedrate
M204 P500.00 R1000.00 T500.00 ;Setup Print/Retract/Travel acceleration
M205 X8.00 Y8.00 Z0.40 E5.00 ;Setup Jerk
M220 S100 ;Reset Feedrate
M221 S100 ;Reset Flowrate

G28 ;Home

G92 E0 ;Reset Extruder
G1 Z2.0 F3000 ;Move Z Axis up
G1 X10.1 Y20 Z0.28 F5000.0 ;Move to start position
G1 X10.1 Y200.0 Z0.28 F1500.0 E15 ;Draw the first line
G1 X10.4 Y200.0 Z0.28 F5000.0 ;Move to side a little
G1 X10.4 Y20 Z0.28 F1500.0 E30 ;Draw the second line
G92 E0 ;Reset Extruder
G1 Z2.0 F3000 ;Move Z Axis up

G92 E0
G92 E0
G1 F1500 E-6.5
;LAYER_COUNT:160
;LAYER:0
M107
;MESH:Anno-NewWorldIslands.stl
G0 F6000 X39.1 Y188.9 Z0.2
;TYPE:WALL-INNER
G1 F1500 E0
G1 F1200 X195.9 Y188.9 E5.21519
G1 X195.9 Y46.1 E9.96474
G1 X39.1 Y46.1 E15.17993
G1 X39.1 Y188.9 E19.92947
G0 F6000 X38.7 Y189.3
;TYPE:WALL-OUTER
G1 F1200 X196.3 Y189.3 E25.17127
G1 X196.3 Y45.7 E29.94743
G1 X38.7 Y45.7 E35.18922
G1 X38.7 Y189.3 E39.96538
G0 F6000 X38.97 Y189.03
G0 X39.4 Y188.324
G0 X39.18 Y188.324
;TYPE:FILL
G1 F1200 X195.819 Y146.353 E45.35899
G0 F6000 X195.6 Y146.353
G0 X195.6 Y144.707
G0 X195.819 Y144.707
G1 F1200 X97.29 Y46.179 E49.99347
G0 F6000 X97.29 Y46.4
G0 X99.194 Y46.4
G0 X99.194 Y46.178
G1 F1200 X60.973 Y188.819 E54.90509
G0 F6000 X60.515 Y188.819
G1 F1200 X195.819 Y152.564 E59.56408
G0 F6000 X195.819 Y153.193
G1 F1200 X88.805 Y46.179 E64.59769
G0 F6000 X88.805 Y46.4
G0 X86.77 Y46.4
G0 X86.77 Y46.179
G1 F1200 X48.55 Y188.819 E69.50927
G0 F6000 X48.55 Y188.6
G0 X44.769 Y188.6
G0 X44.769 Y188.819
G1 F1200 X39.18 Y183.23 E69.77216
G0 F6000 X39.4 Y183.23
G0 X39.4 Y182.112
G0 X39.18 Y182.112
G1 F1200 X195.818 Y140.141 E75.16574
G0 F6000 X195.6 Y140.141
G0 X195.6 Y136.222
G0 X195.819 Y136.222
G1 F1200 X105.776 Y46.179 E79.40109
G0 F6000 X106.028 Y46.179
G1 F1200 X39.18 Y64.091 E81.7029
G0 F6000 X39.18 Y64.436
G1 F1200 X163.562 Y188.819 E87.55347
G0 F6000 X163.562 Y188.6
G0 X166.571 Y188.6
G0 X166.571 Y188.819
G1 F1200 X195.818 Y79.667 E91.31194
G0 F6000 X195.6 Y79.667
G0 X195.6 Y78.025
G0 X195.818 Y78.025
G1 F1200 X39.18 Y119.996 E96.70552
G0 F6000 X39.4 Y119.996
G0 X39.4 Y123.833
G0 X39.18 Y123.833
G1 F1200 X104.166 Y188.819 E99.76227
G0 F6000 X104.455 Y188.819
G1 F1200 X142.675 Y46.179 E104.67385
G0 F6000 X142.675 Y46.4
G0 X139.717 Y46.4
G0 X139.717 Y46.179
G1 F1200 X195.819 Y102.281 E107.31271
G0 F6000 X195.819 Y102.849
G1 F1200 X172.783 Y188.82 E110.27299
G0 F6000 X172.048 Y188.819
G1 F1200 X39.18 Y55.951 E116.5227
G0 F6000 X39.4 Y55.951
G0 X39.4 Y57.879
G0 X39.179 Y57.879
G1 F1200 X82.846 Y46.179 E118.02629
G0 F6000 X82.846 Y46.4
G0 X80.559 Y46.4
G0 X80.559 Y46.178
G1 F1200 X42.338 Y188.819 E122.93792
G0 F6000 X42.338 Y188.6
G0 X53.254 Y188.6
G0 X53.254 Y188.819
G1 F1200 X39.18 Y174.745 E123.59991
G0 F6000 X39.4 Y174.745
G0 X39.4 Y175.901
G0 X39.18 Y175.901
G1 F1200 X195.818 Y133.929 E128.99351
G0 F6000 X195.6 Y133.929
G0 X195.6 Y127.737
G0 X195.819 Y127.737
G1 F1200 X114.261 Y46.179 E132.82974
G0 F6000 X114.261 Y46.4
G0 X111.617 Y46.4
G0 X111.617 Y46.179
G1 F1200 X73.396 Y188.82 E137.74137
G0 F6000 X73.396 Y188.6
G0 X70.224 Y188.6
G0 X70.224 Y188.819
G1 F1200 X39.18 Y157.774 E139.2016
G0 F6000 X39.18 Y157.266
G1 F1200 X195.818 Y115.294 E144.5952
G0 F6000 X195.6 Y115.294
G0 X195.6 Y119.252
G0 X195.819 Y119.252
G1 F1200 X122.746 Y46.179 E148.03233
G0 F6000 X122.746 Y46.4
G0 X124.04 Y46.4
G0 X124.04 Y46.179
G1 F1200 X85.82 Y188.819 E152.94391
G0 F6000 X85.82 Y188.6
G0 X87.195 Y188.6
G0 X87.195 Y188.819
G1 F1200 X39.18 Y140.804 E155.20239
G0 F6000 X39.4 Y140.804
G0 X39.4 Y138.631
G0 X39.18 Y138.631
G1 F1200 X195.818 Y96.659 E160.59598
G0 F6000 X195.6 Y96.659
G0 X195.6 Y93.796
G0 X195.819 Y93.796
G1 F1200 X148.202 Y46.179 E162.83573
G0 F6000 X148.887 Y46.179
G1 F1200 X110.666 Y188.819 E167.74732
G0 F6000 X110.666 Y188.6
G0 X112.651 Y188.6
G0 X112.651 Y188.819
G1 F1200 X39.18 Y115.348 E171.20318
G0 F6000 X39.4 Y115.348
G0 X39.4 Y113.784
G0 X39.179 Y113.784
G1 F1200 X195.819 Y71.813 E176.59682
G0 F6000 X195.6 Y71.813
G0 X195.6 Y68.34
G0 X195.819 Y68.34
G1 F1200 X173.658 Y46.179 E177.63921
G1 X173.733 Y46.179
G1 X135.513 Y188.82 E182.55082
G0 F6000 X135.513 Y188.6
G0 X138.107 Y188.6
G0 X138.107 Y188.819
G1 F1200 X39.18 Y89.892 E187.20404
G0 F6000 X39.179 Y88.937
G1 F1200 X195.819 Y46.966 E192.59769
G0 F6000 X195.6 Y46.966
G0 X192.368 Y46.4
G0 X192.368 Y46.18
G1 F1200 X154.148 Y188.82 E197.50927
G0 F6000 X153.241 Y188.819
G1 F1200 X195.818 Y177.411 E198.97534
G0 F6000 X195.6 Y177.411
G0 X195.6 Y178.649
G0 X195.819 Y178.649
G1 F1200 X63.349 Y46.179 E205.20632
G0 F6000 X63.349 Y46.4
G0 X61.924 Y46.4
G0 X61.924 Y46.178
G1 F1200 X39.18 Y131.06 E208.1291
G0 F6000 X39.4 Y131.06
G0 X39.4 Y132.318
G0 X39.18 Y132.318
G1 F1200 X95.68 Y188.819 E210.78671
G0 F6000 X95.68 Y188.6
G0 X98.243 Y188.6
G0 X98.243 Y188.82
G1 F1200 X136.463 Y46.178 E215.69836
G0 F6000 X136.463 Y46.4
G0 X131.231 Y46.4
G0 X131.231 Y46.179
G1 F1200 X195.819 Y110.766 E218.73635
G0 F6000 X195.6 Y110.766
G0 X195.6 Y109.083
G0 X195.819 Y109.083
G1 F1200 X39.179 Y151.054 E224.13
G0 F6000 X39.4 Y151.054
G0 X39.4 Y149.289
G0 X39.18 Y149.289
G1 F1200 X78.71 Y188.819 E225.98937
G0 F6000 X79.608 Y188.82
G1 F1200 X117.828 Y46.178 E230.90102
G0 F6000 X117.828 Y46.4
G0 X129.21 Y46.4
G0 X129.21 Y46.179
G1 F1200 X39.179 Y70.303 E234.0011
G0 F6000 X39.4 Y70.303
G0 X39.4 Y72.921
G0 X39.18 Y72.921
G1 F1200 X155.077 Y188.819 E239.45256
G0 F6000 X155.077 Y188.6
G0 X160.359 Y188.6
G0 X160.359 Y188.82
G1 F1200 X195.818 Y56.485 E244.00931
G0 F6000 X195.6 Y56.485
G0 X195.6 Y59.39
G0 X195.818 Y59.39
G1 F1200 X39.18 Y101.361 E249.40289
G0 F6000 X39.4 Y101.361
G0 X39.4 Y98.377
G0 X39.18 Y98.377
G1 F1200 X129.621 Y188.819 E253.65698
G0 F6000 X129.301 Y188.819
G1 F1200 X167.522 Y46.179 E258.56857
G0 F6000 X167.522 Y46.4
G0 X165.173 Y46.4
G0 X165.173 Y46.179
G1 F1200 X195.819 Y76.825 E260.01006
G0 F6000 X195.6 Y76.825
G0 X195.6 Y84.236
G0 X195.819 Y84.236
G1 F1200 X39.18 Y126.207 E265.40368
G0 F6000 X39.4 Y126.207
G0 X39.4 Y132.419
G0 X39.179 Y132.419
G1 F1200 X195.819 Y90.448 E270.79732
G0 F6000 X195.6 Y90.448
G0 X195.6 Y85.311
G0 X195.819 Y85.311
G1 F1200 X156.687 Y46.179 E272.63797
G0 F6000 X156.687 Y46.4
G0 X155.098 Y46.4
G0 X155.098 Y46.179
G1 F1200 X116.878 Y188.82 E277.54959
G0 F6000 X116.878 Y188.6
G0 X121.136 Y188.6
G0 X121.136 Y188.819
G1 F1200 X39.18 Y106.862 E281.40457
G0 F6000 X39.179 Y107.572
G1 F1200 X195.819 Y65.601 E286.79822
G0 F6000 X195.6 Y65.601
G0 X195.6 Y59.855
G0 X195.819 Y59.855
G1 F1200 X182.143 Y46.179 E287.44149
G0 F6000 X182.143 Y46.4
G0 X179.945 Y46.4
G0 X179.945 Y46.179
G1 F1200 X141.724 Y188.82 E292.35312
G0 F6000 X141.724 Y188.6
G0 X146.592 Y188.6
G0 X146.592 Y188.819
G1 F1200 X39.18 Y81.407 E297.40545
G0 F6000 X39.4 Y81.407
G0 X39.4 Y82.726
G0 X39.18 Y82.726
G1 F1200 X175.574 Y46.179 E302.10196
G0 F6000 X175.574 Y46.4
G0 X186.157 Y46.4
G0 X186.157 Y46.179
G1 F1200 X147.936 Y188.819 E307.01355
G0 F6000 X147.936 Y188.6
G0 X130.059 Y188.6
G0 X130.059 Y188.819
G1 F1200 X195.819 Y171.199 E309.27789
G0 F6000 X195.6 Y171.199
G0 X195.6 Y170.163
G0 X195.819 Y170.163
G1 F1200 X71.834 Y46.179 E315.10974
G0 F6000 X71.834 Y46.4
G0 X74.347 Y46.4
G0 X74.347 Y46.179
G1 F1200 X39.18 Y177.425 E319.62899
G0 F6000 X39.4 Y177.425
G0 X39.4 Y169.689
G0 X39.18 Y169.689
G1 F1200 X195.819 Y127.718 E325.02261
G0 F6000 X195.6 Y127.718
G0 X195.6 Y126.031
G0 X195.819 Y126.031
G1 F1200 X178.994 Y188.82 E327.18465
G0 F6000 X178.994 Y188.6
G0 X180.533 Y188.6
G0 X180.533 Y188.819
G1 F1200 X39.18 Y47.465 E333.83349
G0 F6000 X39.4 Y47.465
G0 X39.4 Y51.668
G0 X39.179 Y51.668
G1 F1200 X59.665 Y46.179 E334.53889
G0 F6000 X59.665 Y46.4
G0 X55.712 Y46.4
G0 X55.712 Y46.178
G1 F1200 X39.18 Y107.878 E336.66343
G0 F6000 X39.4 Y107.878
G0 X39.4 Y95.149
G0 X39.179 Y95.149
G1 F1200 X195.818 Y53.178 E342.05704
G0 F6000 X195.6 Y53.178
G0 X195.6 Y51.369
G0 X195.819 Y51.369
G1 F1200 X190.628 Y46.179 E342.30119
G0 F6000 X190.628 Y46.4
G0 X161.31 Y46.4
G0 X161.31 Y46.179
G1 F1200 X123.089 Y188.819 E347.21278
G0 F6000 X123.089 Y188.6
G0 X106.877 Y188.6
G0 X106.877 Y188.819
G1 F1200 X195.819 Y164.988 E350.27535
G0 F6000 X195.6 Y164.988
G0 X195.6 Y161.678
G0 X195.819 Y161.678
G1 F1200 X80.32 Y46.179 E355.70807
G0 F6000 X80.32 Y46.4
G0 X68.135 Y46.4
G0 X68.135 Y46.178
G1 F1200 X39.18 Y154.242 E359.42907
G0 F6000 X39.4 Y154.242
G0 X39.4 Y163.477
G0 X39.18 Y163.477
G1 F1200 X195.819 Y121.506 E364.82269
G0 F6000 X195.6 Y121.506
G0 X195.6 Y102.871
G0 X195.819 Y102.871
G1 F1200 X39.18 Y144.842 E370.2163
G0 F6000 X39.4 Y144.842
G0 X39.4 Y166.259
G0 X39.18 Y166.259
G1 F1200 X61.739 Y188.819 E371.27743
G0 F6000 X61.739 Y188.6
G0 X67.185 Y188.6
G0 X67.185 Y188.819
G1 F1200 X105.405 Y46.179 E376.18901
G0 F6000 X105.405 Y46.4
G0 X92.982 Y46.4
G0 X92.982 Y46.179
G1 F1200 X54.761 Y188.82 E381.10064
G0 F6000 X54.761 Y188.6
G0 X83.696 Y188.6
G0 X83.696 Y188.819
G1 F1200 X195.818 Y158.776 E384.96138
G0 F6000 X195.6 Y158.776
G0 X195.6 Y149.213
G0 X195.819 Y149.213
G1 F1200 X185.206 Y188.819 E386.32516
G0 F6000 X185.206 Y188.6
G0 X189.018 Y188.6
G0 X189.018 Y188.819
G1 F1200 X46.379 Y46.179 E393.03448
G0 F6000 X46.379 Y46.4
G0 X43.289 Y46.4
G0 X43.289 Y46.178
G1 F1200 X39.18 Y61.513 E393.56252
G0 F6000 X39.4 Y61.513
G0 X39.4 Y76.514
G0 X39.179 Y76.514
G1 F1200 X152.392 Y46.179 E397.46083
G0 F6000 X152.392 Y46.4
G0 X130.252 Y46.4
G0 X130.252 Y46.179
G1 F1200 X92.031 Y188.82 E402.37245
G1 F1500 E395.87245
G0 F6000 X92.031 Y188.6
G0 X176.423 Y188.6
G1 F1500 E402.37245
G0 F6000 X176.423 Y188.82
G1 F1200 X195.819 Y183.622 E403.04033
G0 F6000 X195.6 Y183.622
G0 X195.6 Y187.134
G0 X195.819 Y187.134
G1 F1200 X54.864 Y46.179 E409.67042
G0 F6000 X54.864 Y46.4
G0 X49.5 Y46.4
G0 X49.5 Y46.178
G1 F1200 X39.18 Y84.695 E410.99668
G1 F1500 E404.49668
G0 F6000 X39.4 Y84.695
G0 X195.6 Y172.395
G1 F1500 E410.99668
G0 F6000 X195.819 Y172.395
G1 F1200 X191.418 Y188.82 E411.56225
G0 F6000 X191.418 Y188.3
G1 F1500 E405.06225
;MESH:NONMESH
G0 F300 X191.418 Y188.3 Z0.4
G0 F6000 X39.37 Y188.63
G1 F1500 E411.56225
G0 F6000 X39.1 Y188.9
;TIME_ELAPSED:649.864739
;LAYER:1
M106 S85
;TYPE:WALL-INNER
;MESH:Anno-NewWorldIslands.stl
G1 F1350 X195.9 Y188.9 E416.77744
G1 X195.9 Y46.1 E421.52699
G1 X39.1 Y46.1 E426.74218
G1 X39.1 Y188.9 E431.49173
G0 F7500 X38.7 Y189.3
;TYPE:WALL-OUTER
G1 F1350 X196.3 Y189.3 E436.73352
G1 X196.3 Y45.7 E441.50968
G1 X38.7 Y45.7 E446.75148
G1 X38.7 Y189.3 E451.52763
G0 F7500 X39.18 Y188.47
;TYPE:FILL
G1 F2100 X195.819 Y146.499 E456.92125
G0 F7500 X195.6 Y146.499
G0 X195.6 Y144.508
G0 X195.819 Y144.508
G1 F2100 X97.49 Y46.179 E461.54634
G0 F7500 X97.49 Y46.4
G0 X99.047 Y46.4
G0 X99.047 Y46.179
G1 F2100 X60.827 Y188.82 E466.45795
G0 F7500 X61.059 Y188.819
G1 F2100 X195.818 Y152.71 E471.09817
G0 F7500 X195.819 Y152.993
G1 F2100 X89.004 Y46.179 E476.1224
G0 F7500 X89.004 Y46.4
G0 X86.624 Y46.4
G0 X86.624 Y46.178
G1 F2100 X48.404 Y188.819 E481.03401
G0 F7500 X48.404 Y188.6
G0 X44.968 Y188.6
G0 X44.968 Y188.819
G1 F2100 X39.18 Y183.031 E481.30626
G0 F7500 X39.18 Y182.258
G1 F2100 X195.819 Y140.287 E486.69988
G0 F7500 X195.6 Y140.287
G0 X195.6 Y136.023
G0 X195.819 Y136.023
G1 F2100 X105.975 Y46.179 E490.92586
G0 F7500 X106.573 Y46.179
G1 F2100 X39.179 Y64.237 E493.24647
G1 X39.18 Y64.237
G1 X163.762 Y188.819 E499.10642
G0 F7500 X163.762 Y188.6
G0 X166.425 Y188.6
G0 X166.425 Y188.82
G1 F2100 X195.818 Y79.122 E502.8837
G0 F7500 X195.819 Y78.17
G1 F2100 X39.18 Y120.142 E508.27732
G0 F7500 X39.4 Y120.142
G0 X39.4 Y123.634
G0 X39.18 Y123.634
G1 F2100 X104.365 Y188.819 E511.34342
G1 X104.309 Y188.82
G1 X142.529 Y46.178 E516.25507
G0 F7500 X142.529 Y46.4
G0 X139.916 Y46.4
G0 X139.916 Y46.179
G1 F2100 X195.819 Y102.082 E518.88457
G0 F7500 X195.818 Y102.304
G1 F2100 X172.637 Y188.819 E521.86358
G0 F7500 X172.247 Y188.819
G1 F2100 X39.18 Y55.751 E528.12266
G0 F7500 X39.4 Y55.751
G0 X39.4 Y58.025
G0 X39.179 Y58.025
G1 F2100 X83.391 Y46.179 E529.64503
G0 F7500 X83.391 Y46.4
G0 X80.519 Y46.4
G0 X80.519 Y46.179
G1 F2100 X195.819 Y161.479 E535.06839
G0 F7500 X195.6 Y161.479
G0 X195.6 Y158.922
G0 X195.819 Y158.922
G1 F2100 X84.241 Y188.819 E538.9104
G0 F7500 X84.241 Y188.6
G0 X85.674 Y188.6
G0 X85.674 Y188.819
G1 F2100 X123.894 Y46.178 E543.82201
G0 F7500 X122.946 Y46.179
G1 F2100 X195.819 Y119.052 E547.24974
G0 F7500 X195.6 Y119.052
G0 X195.6 Y121.652
G0 X195.819 Y121.652
G1 F2100 X39.179 Y163.623 E552.64338
G0 F7500 X39.4 Y163.623
G0 X39.4 Y166.06
G0 X39.18 Y166.06
G1 F2100 X61.939 Y188.819 E553.7139
G0 F7500 X61.939 Y188.6
G0 X67.039 Y188.6
G0 X67.039 Y188.819
G1 F2100 X105.259 Y46.178 E558.62551
G0 F7500 X105.259 Y46.4
G0 X111.471 Y46.4
G0 X111.471 Y46.179
G1 F2100 X73.25 Y188.819 E563.5371
G0 F7500 X73.25 Y188.6
G0 X70.424 Y188.6
G0 X70.424 Y188.819
G1 F2100 X39.18 Y157.575 E565.00672
G1 X39.18 Y157.412
G1 X195.818 Y115.44 E570.40031
G0 F7500 X195.6 Y115.44
G0 X195.6 Y110.567
G0 X195.819 Y110.567
G1 F2100 X131.431 Y46.179 E573.42893
G0 F7500 X131.431 Y46.4
G0 X130.106 Y46.4
G0 X130.106 Y46.179
G1 F2100 X91.885 Y188.819 E578.34052
G0 F7500 X91.885 Y188.6
G0 X95.88 Y188.6
G0 X95.88 Y188.819
G1 F2100 X39.18 Y132.119 E581.00751
G0 F7500 X39.18 Y132.565
G1 F2100 X195.818 Y90.594 E586.40109
G0 F7500 X195.6 Y90.594
G0 X195.6 Y93.596
G0 X195.819 Y93.596
G1 F2100 X148.401 Y46.179 E588.63147
G0 F7500 X148.741 Y46.179
G1 F2100 X110.52 Y188.819 E593.54306
G0 F7500 X110.52 Y188.6
G0 X112.85 Y188.6
G0 X112.85 Y188.819
G1 F2100 X39.18 Y115.148 E597.00829
G0 F7500 X39.4 Y115.148
G0 X39.4 Y113.93
G0 X39.18 Y113.93
G1 F2100 X195.818 Y71.959 E602.40188
G0 F7500 X195.6 Y71.959
G0 X195.6 Y68.141
G0 X195.819 Y68.141
G1 F2100 X173.857 Y46.179 E603.4349
G0 F7500 X173.587 Y46.179
G1 F2100 X135.367 Y188.819 E608.34648
G0 F7500 X135.367 Y188.6
G0 X138.306 Y188.6
G0 X138.306 Y188.819
G1 F2100 X39.18 Y89.692 E613.00909
G0 F7500 X39.179 Y89.084
G1 F2100 X195.819 Y47.112 E618.40274
G0 F7500 X195.6 Y47.112
G0 X192.222 Y46.4
G0 X192.222 Y46.179
G1 F2100 X154.002 Y188.819 E623.31433
G0 F7500 X153.786 Y188.82
G1 F2100 X195.819 Y177.557 E624.76167
G0 F7500 X195.819 Y178.449
G1 F2100 X63.549 Y46.179 E630.98324
G0 F7500 X63.549 Y46.4
G0 X61.778 Y46.4
G0 X61.778 Y46.178
G1 F2100 X39.18 Y130.515 E633.88725
G0 F7500 X39.4 Y130.515
G0 X39.4 Y126.353
G0 X39.179 Y126.353
G1 F2100 X195.819 Y84.382 E639.2809
G0 F7500 X195.819 Y85.111
G1 F2100 X156.887 Y46.179 E641.11214
G0 F7500 X156.887 Y46.4
G0 X154.952 Y46.4
G0 X154.952 Y46.179
G1 F2100 X116.732 Y188.82 E646.02376
G0 F7500 X116.732 Y188.6
G0 X121.335 Y188.6
G0 X121.335 Y188.819
G1 F2100 X39.18 Y106.663 E649.8881
G0 F7500 X39.18 Y107.332
G1 F2100 X55.566 Y46.179 E651.99381
G0 F7500 X55.063 Y46.179
G1 F2100 X195.819 Y186.934 E658.61452
G0 F7500 X195.6 Y186.934
G0 X195.6 Y183.769
G0 X195.819 Y183.769
G1 F2100 X176.968 Y188.82 E659.26362
G0 F7500 X176.968 Y188.6
G0 X178.848 Y188.6
G0 X178.848 Y188.82
G1 F2100 X195.819 Y125.486 E661.44443
G0 F7500 X195.6 Y125.486
G0 X195.6 Y127.538
G0 X195.819 Y127.538
G1 F2100 X114.46 Y46.179 E665.27131
G0 F7500 X114.46 Y46.4
G0 X117.682 Y46.4
G0 X117.682 Y46.179
G1 F2100 X79.462 Y188.82 E670.18292
G0 F7500 X78.909 Y188.819
G1 F2100 X39.18 Y149.089 E672.05168
G0 F7500 X39.4 Y149.089
G0 X39.4 Y151.2
G0 X39.18 Y151.2
G1 F2100 X195.818 Y109.229 E677.44526
G0 F7500 X195.6 Y109.229
G0 X195.6 Y103.017
G0 X195.819 Y103.017
G1 F2100 X39.179 Y144.988 E682.83891
G0 F7500 X39.4 Y144.988
G0 X39.4 Y140.604
G0 X39.18 Y140.604
G1 F2100 X87.394 Y188.819 E685.10677
G0 F7500 X87.394 Y188.6
G0 X98.097 Y188.6
G0 X98.097 Y188.82
G1 F2100 X136.317 Y46.179 E690.01838
G0 F7500 X136.317 Y46.4
G0 X129.755 Y46.4
G0 X129.755 Y46.179
G1 F2100 X39.179 Y70.449 E693.13723
G0 F7500 X39.4 Y70.449
G0 X39.4 Y72.722
G0 X39.18 Y72.722
G1 F2100 X155.277 Y188.819 E698.59807
G0 F7500 X155.277 Y188.6
