;FLAVOR:Marlin
;TIME:9928
;Filament used: 7.62784m
;Layer height: 0.2
;MINX:75.2
;MINY:75.2
;MINZ:0.2
;MAXX:159.8
;MAXY:159.8
;MAXZ:40
;Generated with Cura_SteamEngine 5.2.1
M140 S60
M105
M190 S60
M104 S200
M105
M109 S200
M82 ;absolute extrusion mode
M201 X500.00 Y500.00 Z100.00 E5000.00 ;Setup machine max acceleration
M203 X500.00 Y500.00 Z10.00 E50.00 ;Setup machine max feedrate
M204 P500.00 R1000.00 T500.00 ;Setup Print/Retract/Travel acceleration
M205 X8.00 Y8.00 Z0.40 E5.00 ;Setup Jerk
M220 S100 ;Reset Feedrate
M221 S100 ;Reset Flowrate

G28 ;Home

G92 E0 ;Reset Extruder
G1 Z2.0 F3000 ;Move Z Axis up
G1 X10.1 Y20 Z0.28 F5000.0 ;Move to start position
G1 X10.1 Y200.0 Z0.28 F1500.0 E15 ;Draw the first line
G1 X10.4 Y200.0 Z0.28 F5000.0 ;Move to side a little
G1 X10.4 Y20 Z0.28 F1500.0 E30 ;Draw the second line
G92 E0 ;Reset Extruder
G1 Z2.0 F3000 ;Move Z Axis up

G92 E0
G92 E0
G1 F1500 E-6.5
;LAYER_COUNT:200
;LAYER:0
M107
;MESH:Abilities.stl
G0 F6000 X75.6 Y159.4 Z0.2
;TYPE:WALL-INNER
G1 F1500 E0
G1 F1200 X159.4 Y159.4 E2.7872
G1 X159.4 Y75.6 E5.5744
G1 X75.6 Y75.6 E8.3616
G1 X75.6 Y159.4 E11.1488
G0 F6000 X75.2 Y159.8
;TYPE:WALL-OUTER
G1 F1200 X159.8 Y159.8 E13.9626
G1 X159.8 Y75.2 E16.77641
G1 X75.2 Y75.2 E19.59022
G1 X75.2 Y159.8 E22.40403
G0 F6000 X75.68 Y159.319
;TYPE:FILL
G1 F1200 X159.319 Y75.68 E26.33815
G0 F6000 X159.13 Y75.87
G0 X154.876 Y75.9
G0 X154.876 Y75.68
G1 F1200 X159.319 Y80.123 E26.54713
G0 F6000 X159.1 Y80.123
G0 X159.1 Y81.337
G0 X159.319 Y81.337
G1 F1200 X81.337 Y159.319 E30.21517
G0 F6000 X81.337 Y159.1
G0 X80.123 Y159.1
G0 X80.123 Y159.319
G1 F1200 X75.679 Y154.875 E30.4242
G0 F6000 X75.9 Y154.875
G0 X75.9 Y153.662
G0 X75.68 Y153.662
G1 F1200 X153.663 Y75.679 E34.09228
G0 F6000 X153.663 Y75.9
G0 X149.219 Y75.9
G0 X149.219 Y75.68
G1 F1200 X159.319 Y85.78 E34.56735
G0 F6000 X159.1 Y85.78
G0 X159.1 Y86.993
G0 X159.319 Y86.993
G1 F1200 X86.993 Y159.319 E37.96935
G0 F6000 X86.993 Y159.1
G0 X85.78 Y159.1
G0 X85.78 Y159.319
G1 F1200 X75.679 Y149.218 E38.44447
G0 F6000 X75.9 Y149.218
G0 X75.9 Y148.005
G0 X75.68 Y148.005
G1 F1200 X148.006 Y75.679 E41.84646
G0 F6000 X148.006 Y75.9
G0 X143.562 Y75.9
G0 X143.562 Y75.68
G1 F1200 X159.319 Y91.437 E42.58762
G0 F6000 X159.1 Y91.437
G0 X159.1 Y92.65
G0 X159.319 Y92.65
G1 F1200 X92.65 Y159.319 E45.72353
G0 F6000 X92.65 Y159.1
G0 X91.437 Y159.1
G0 X91.437 Y159.319
G1 F1200 X75.679 Y143.561 E46.46474
G0 F6000 X75.9 Y143.561
G0 X75.9 Y142.349
G0 X75.68 Y142.349
G1 F1200 X142.349 Y75.679 E49.60066
G0 F6000 X142.349 Y75.9
G0 X137.905 Y75.9
G0 X137.905 Y75.68
G1 F1200 X159.319 Y97.094 E50.60791
G0 F6000 X159.1 Y97.094
G0 X159.1 Y98.307
G0 X159.319 Y98.307
G1 F1200 X98.307 Y159.319 E53.47773
G0 F6000 X98.307 Y159.1
G0 X97.094 Y159.1
G0 X97.094 Y159.319
G1 F1200 X75.679 Y137.904 E54.48503
G0 F6000 X75.9 Y137.904
G0 X75.9 Y136.692
G0 X75.68 Y136.692
G1 F1200 X136.692 Y75.679 E57.35487
G0 F6000 X136.692 Y75.9
G0 X132.248 Y75.9
G0 X132.248 Y75.68
G1 F1200 X159.319 Y102.751 E58.6282
G0 F6000 X159.1 Y102.751
G0 X159.1 Y103.964
G0 X159.319 Y103.964
G1 F1200 X103.964 Y159.319 E61.23193
G0 F6000 X103.964 Y159.1
G0 X102.751 Y159.1
G0 X102.751 Y159.319
G1 F1200 X75.679 Y132.248 E62.50529
G0 F6000 X75.9 Y132.248
G0 X75.9 Y131.035
G0 X75.68 Y131.035
G1 F1200 X131.036 Y75.679 E65.10907
G0 F6000 X131.036 Y75.9
G0 X126.591 Y75.9
G0 X126.591 Y75.68
G1 F1200 X159.319 Y108.407 E66.64847
G0 F6000 X159.1 Y108.407
G0 X159.1 Y109.621
G0 X159.319 Y109.621
G1 F1200 X109.621 Y159.319 E68.98611
G0 F6000 X109.621 Y159.1
G0 X108.407 Y159.1
G0 X108.407 Y159.319
G1 F1200 X75.679 Y126.591 E70.52554
G0 F6000 X75.9 Y126.591
G0 X75.9 Y125.378
G0 X75.68 Y125.378
G1 F1200 X125.379 Y75.679 E72.86323
G0 F6000 X125.379 Y75.9
G0 X120.935 Y75.9
G0 X120.935 Y75.68
G1 F1200 X159.319 Y114.064 E74.66869
G0 F6000 X159.1 Y114.064
G0 X159.1 Y115.278
G0 X159.319 Y115.278
G1 F1200 X115.278 Y159.319 E76.74025
G0 F6000 X115.278 Y159.1
G0 X114.064 Y159.1
G0 X114.064 Y159.319
G1 F1200 X75.679 Y120.934 E78.54576
G0 F6000 X75.9 Y120.934
G0 X75.9 Y119.721
G0 X75.68 Y119.721
G1 F1200 X119.722 Y75.679 E80.61736
G0 F6000 X119.722 Y75.9
G0 X115.278 Y75.9
G0 X115.278 Y75.68
G1 F1200 X159.319 Y119.721 E82.68891
G0 F6000 X159.1 Y119.721
G0 X159.1 Y120.935
G0 X159.319 Y120.935
G1 F1200 X120.935 Y159.319 E84.49438
G0 F6000 X120.935 Y159.1
G0 X119.721 Y159.1
G0 X119.721 Y159.319
G1 F1200 X75.679 Y115.277 E86.56598
G0 F6000 X75.9 Y115.277
G0 X75.9 Y114.064
G0 X75.68 Y114.064
G1 F1200 X114.065 Y75.679 E88.37149
G0 F6000 X114.065 Y75.9
G0 X109.621 Y75.9
G0 X109.621 Y75.68
G1 F1200 X159.319 Y125.378 E90.70913
G0 F6000 X159.1 Y125.378
G0 X159.1 Y126.591
G0 X159.319 Y126.591
G1 F1200 X126.591 Y159.319 E92.24856
G0 F6000 X126.591 Y159.1
G0 X125.378 Y159.1
G0 X125.378 Y159.319
G1 F1200 X75.679 Y109.62 E94.58625
G0 F6000 X75.9 Y109.62
G0 X75.9 Y108.407
G0 X75.68 Y108.407
G1 F1200 X108.408 Y75.679 E96.12567
G0 F6000 X108.408 Y75.9
G0 X103.964 Y75.9
G0 X103.964 Y75.68
G1 F1200 X159.319 Y131.035 E98.7294
G0 F6000 X159.1 Y131.035
G0 X159.1 Y132.248
G0 X159.319 Y132.248
G1 F1200 X132.248 Y159.319 E100.00274
G0 F6000 X132.248 Y159.1
G0 X131.035 Y159.1
G0 X131.035 Y159.319
G1 F1200 X75.679 Y103.963 E102.60652
G0 F6000 X75.9 Y103.963
G0 X75.9 Y102.751
G0 X75.68 Y102.751
G1 F1200 X102.751 Y75.679 E103.87988
G0 F6000 X102.751 Y75.9
G0 X98.307 Y75.9
G0 X98.307 Y75.68
G1 F1200 X159.319 Y136.692 E106.74969
G0 F6000 X159.1 Y136.692
G0 X159.1 Y137.905
G0 X159.319 Y137.905
G1 F1200 X137.905 Y159.319 E107.75694
G0 F6000 X137.905 Y159.1
G0 X136.692 Y159.1
G0 X136.692 Y159.319
G1 F1200 X75.679 Y98.306 E110.62681
G0 F6000 X75.9 Y98.306
G0 X75.9 Y97.094
G0 X75.68 Y97.094
G1 F1200 X97.094 Y75.679 E111.63408
G0 F6000 X97.094 Y75.9
G0 X92.65 Y75.9
G0 X92.65 Y75.68
G1 F1200 X159.319 Y142.349 E114.76998
G0 F6000 X159.1 Y142.349
G0 X159.1 Y143.562
G0 X159.319 Y143.562
G1 F1200 X143.562 Y159.319 E115.51114
G0 F6000 X143.562 Y159.1
G0 X142.349 Y159.1
G0 X142.349 Y159.319
G1 F1200 X75.679 Y92.65 E118.64707
G0 F6000 X75.9 Y92.65
G0 X75.9 Y91.437
G0 X75.68 Y91.437
G1 F1200 X91.438 Y75.679 E119.38828
G0 F6000 X91.438 Y75.9
G0 X86.993 Y75.9
G0 X86.993 Y75.68
G1 F1200 X159.319 Y148.005 E122.79025
G0 F6000 X159.1 Y148.005
G0 X159.1 Y149.219
G0 X159.319 Y149.219
G1 F1200 X149.219 Y159.319 E123.26532
G0 F6000 X149.219 Y159.1
G0 X148.005 Y159.1
G0 X148.005 Y159.319
G1 F1200 X75.679 Y86.993 E126.66732
G0 F6000 X75.9 Y86.993
G0 X75.9 Y85.78
G0 X75.68 Y85.78
G1 F1200 X85.781 Y75.679 E127.14244
G0 F6000 X85.781 Y75.9
G0 X81.337 Y75.9
G0 X81.337 Y75.68
G1 F1200 X159.319 Y153.662 E130.81047
G0 F6000 X159.1 Y153.662
G0 X159.1 Y154.876
G0 X159.319 Y154.876
G1 F1200 X154.876 Y159.319 E131.01946
G0 F6000 X154.876 Y159.1
G0 X153.662 Y159.1
G0 X153.662 Y159.319
G1 F1200 X75.679 Y81.336 E134.68754
G0 F6000 X75.9 Y81.336
G0 X75.9 Y80.123
G0 X75.68 Y80.123
G1 F1200 X80.124 Y75.679 E134.89657
G0 F6000 X80.124 Y75.9
G0 X75.87 Y75.87
G0 X75.679 Y75.679
G1 F1200 X159.319 Y159.319 E138.83074
G0 F6000 X158.8 Y158.918
G1 F1500 E132.33074
;MESH:NONMESH
G0 F300 X158.8 Y158.918 Z0.4
G0 F6000 X75.87 Y159.13
G1 F1500 E138.83074
G0 F6000 X75.6 Y159.4
;TIME_ELAPSED:224.971305
;LAYER:1
M106 S85
;TYPE:WALL-INNER
;MESH:Abilities.stl
G1 F1350 X159.4 Y159.4 E141.61794
G1 X159.4 Y75.6 E144.40514
G1 X75.6 Y75.6 E147.19234
G1 X75.6 Y159.4 E149.97954
G0 F7500 X75.2 Y159.8
;TYPE:WALL-OUTER
G1 F1350 X159.8 Y159.8 E152.79334
G1 X159.8 Y75.2 E155.60715
G1 X75.2 Y75.2 E158.42096
G1 X75.2 Y159.8 E161.23477
G0 F7500 X75.68 Y159.319
;TYPE:FILL
G1 F2100 X159.319 Y75.68 E165.16889
G0 F7500 X159.13 Y75.87
G0 X154.876 Y75.9
G0 X154.876 Y75.68
G1 F2100 X159.319 Y80.123 E165.37787
G0 F7500 X159.1 Y80.123
G0 X159.1 Y81.337
G0 X159.319 Y81.337
G1 F2100 X81.337 Y159.319 E169.04591
G0 F7500 X81.337 Y159.1
G0 X80.123 Y159.1
G0 X80.123 Y159.319
G1 F2100 X75.679 Y154.875 E169.25494
G0 F7500 X75.9 Y154.875
G0 X75.9 Y153.662
G0 X75.68 Y153.662
G1 F2100 X153.663 Y75.679 E172.92302
G0 F7500 X153.663 Y75.9
G0 X149.219 Y75.9
G0 X149.219 Y75.68
G1 F2100 X159.319 Y85.78 E173.39809
G0 F7500 X159.1 Y85.78
G0 X159.1 Y86.993
G0 X159.319 Y86.993
G1 F2100 X86.993 Y159.319 E176.80009
G0 F7500 X86.993 Y159.1
G0 X85.78 Y159.1
G0 X85.78 Y159.319
G1 F2100 X75.679 Y149.218 E177.27521
G0 F7500 X75.9 Y149.218
G0 X75.9 Y148.005
G0 X75.68 Y148.005
G1 F2100 X148.006 Y75.679 E180.6772
G0 F7500 X148.006 Y75.9
G0 X143.562 Y75.9
G0 X143.562 Y75.68
G1 F2100 X159.319 Y91.437 E181.41836
G0 F7500 X159.1 Y91.437
G0 X159.1 Y92.65
G0 X159.319 Y92.65
G1 F2100 X92.65 Y159.319 E184.55427
G0 F7500 X92.65 Y159.1
G0 X91.437 Y159.1
G0 X91.437 Y159.319
G1 F2100 X75.679 Y143.561 E185.29548
G0 F7500 X75.9 Y143.561
G0 X75.9 Y142.349
G0 X75.68 Y142.349
G1 F2100 X142.349 Y75.679 E188.4314
G0 F7500 X142.349 Y75.9
G0 X137.905 Y75.9
G0 X137.905 Y75.68
G1 F2100 X159.319 Y97.094 E189.43865
G0 F7500 X159.1 Y97.094
G0 X159.1 Y98.307
G0 X159.319 Y98.307
G1 F2100 X98.307 Y159.319 E192.30847
G0 F7500 X98.307 Y159.1
G0 X97.094 Y159.1
G0 X97.094 Y159.319
G1 F2100 X75.679 Y137.904 E193.31577
G0 F7500 X75.9 Y137.904
G0 X75.9 Y136.692
G0 X75.68 Y136.692
G1 F2100 X136.692 Y75.679 E196.18561
G0 F7500 X136.692 Y75.9
G0 X132.248 Y75.9
G0 X132.248 Y75.68
G1 F2100 X159.319 Y102.751 E197.45894
G0 F7500 X159.1 Y102.751
G0 X159.1 Y103.964
G0 X159.319 Y103.964
G1 F2100 X103.964 Y159.319 E200.06267
G0 F7500 X103.964 Y159.1
G0 X102.751 Y159.1
G0 X102.751 Y159.319
G1 F2100 X75.679 Y132.248 E201.33603
G0 F7500 X75.9 Y132.248
G0 X75.9 Y131.035
G0 X75.68 Y131.035
G1 F2100 X131.036 Y75.679 E203.93981
G0 F7500 X131.036 Y75.9
G0 X126.591 Y75.9
G0 X126.591 Y75.68
G1 F2100 X159.319 Y108.407 E205.47921
G0 F7500 X159.1 Y108.407
G0 X159.1 Y109.621
G0 X159.319 Y109.621
G1 F2100 X109.621 Y159.319 E207.81685
G0 F7500 X109.621 Y159.1
G0 X108.407 Y159.1
G0 X108.407 Y159.319
G1 F2100 X75.679 Y126.591 E209.35628
G0 F7500 X75.9 Y126.591
G0 X75.9 Y125.378
G0 X75.68 Y125.378
G1 F2100 X125.379 Y75.679 E211.69397
G0 F7500 X125.379 Y75.9
G0 X120.935 Y75.9
G0 X120.935 Y75.68
G1 F2100 X159.319 Y114.064 E213.49943
G0 F7500 X159.1 Y114.064
G0 X159.1 Y115.278
G0 X159.319 Y115.278
G1 F2100 X115.278 Y159.319 E215.57099
G0 F7500 X115.278 Y159.1
G0 X114.064 Y159.1
G0 X114.064 Y159.319
G1 F2100 X75.679 Y120.934 E217.3765
G0 F7500 X75.9 Y120.934
G0 X75.9 Y119.721
G0 X75.68 Y119.721
G1 F2100 X119.722 Y75.679 E219.4481
G0 F7500 X119.722 Y75.9
G0 X115.278 Y75.9
G0 X115.278 Y75.68
G1 F2100 X159.319 Y119.721 E221.51965
G0 F7500 X159.1 Y119.721
G0 X159.1 Y120.935
G0 X159.319 Y120.935
G1 F2100 X120.935 Y159.319 E223.32512
G0 F7500 X120.935 Y159.1
G0 X119.721 Y159.1
G0 X119.721 Y159.319
G1 F2100 X75.679 Y115.277 E225.39672
G0 F7500 X75.9 Y115.277
G0 X75.9 Y114.064
G0 X75.68 Y114.064
G1 F2100 X114.065 Y75.679 E227.20223
G0 F7500 X114.065 Y75.9
G0 X109.621 Y75.9
G0 X109.621 Y75.68
G1 F2100 X159.319 Y125.378 E229.53987
G0 F7500 X159.1 Y125.378
G0 X159.1 Y126.591
G0 X159.319 Y126.591
G1 F2100 X126.591 Y159.319 E231.0793
G0 F7500 X126.591 Y159.1
G0 X125.378 Y159.1
G0 X125.378 Y159.319
G1 F2100 X75.679 Y109.62 E233.41699
G0 F7500 X75.9 Y109.62
G0 X75.9 Y108.407
G0 X75.68 Y108.407
G1 F2100 X108.408 Y75.679 E234.95641
G0 F7500 X108.408 Y75.9
G0 X103.964 Y75.9
G0 X103.964 Y75.68
G1 F2100 X159.319 Y131.035 E237.56014
G0 F7500 X159.1 Y131.035
G0 X159.1 Y132.248
G0 X159.319 Y132.248
G1 F2100 X132.248 Y159.319 E238.83348
G0 F7500 X132.248 Y159.1
G0 X131.035 Y159.1
G0 X131.035 Y159.319
G1 F2100 X75.679 Y103.963 E241.43725
G0 F7500 X75.9 Y103.963
G0 X75.9 Y102.751
G0 X75.68 Y102.751
G1 F2100 X102.751 Y75.679 E242.71062
G0 F7500 X102.751 Y75.9
G0 X98.307 Y75.9
G0 X98.307 Y75.68
G1 F2100 X159.319 Y136.692 E245.58043
G0 F7500 X159.1 Y136.692
G0 X159.1 Y137.905
G0 X159.319 Y137.905
G1 F2100 X137.905 Y159.319 E246.58768
G0 F7500 X137.905 Y159.1
G0 X136.692 Y159.1
G0 X136.692 Y159.319
G1 F2100 X75.679 Y98.306 E249.45755
G0 F7500 X75.9 Y98.306
G0 X75.9 Y97.094
G0 X75.68 Y97.094
G1 F2100 X97.094 Y75.679 E250.46482
G0 F7500 X97.094 Y75.9
G0 X92.65 Y75.9
G0 X92.65 Y75.68
G1 F2100 X159.319 Y142.349 E253.60072
G0 F7500 X159.1 Y142.349
G0 X159.1 Y143.562
G0 X159.319 Y143.562
G1 F2100 X143.562 Y159.319 E254.34188
G0 F7500 X143.562 Y159.1
G0 X142.349 Y159.1
G0 X142.349 Y159.319
G1 F2100 X75.679 Y92.65 E257.47781
G0 F7500 X75.9 Y92.65
G0 X75.9 Y91.437
G0 X75.68 Y91.437
G1 F2100 X91.438 Y75.679 E258.21902
G0 F7500 X91.438 Y75.9
G0 X86.993 Y75.9
G0 X86.993 Y75.68
G1 F2100 X159.319 Y148.005 E261.62099
G0 F7500 X159.1 Y148.005
G0 X159.1 Y149.219
G0 X159.319 Y149.219
G1 F2100 X149.219 Y159.319 E262.09606
G0 F7500 X149.219 Y159.1
G0 X148.005 Y159.1
G0 X148.005 Y159.319
G1 F2100 X75.679 Y86.993 E265.49806
G0 F7500 X75.9 Y86.993
G0 X75.9 Y85.78
G0 X75.68 Y85.78
G1 F2100 X85.781 Y75.679 E265.97318
G0 F7500 X85.781 Y75.9
G0 X81.337 Y75.9
G0 X81.337 Y75.68
G1 F2100 X159.319 Y153.662 E269.64121
G0 F7500 X159.1 Y153.662
G0 X159.1 Y154.876
G0 X159.319 Y154.876
G1 F2100 X154.876 Y159.319 E269.8502
G0 F7500 X154.876 Y159.1
G0 X153.662 Y159.1
G0 X153.662 Y159.319
G1 F2100 X75.679 Y81.336 E273.51828
G0 F7500 X75.9 Y81.336
G0 X75.9 Y80.123
G0 X75.68 Y80.123
G1 F2100 X80.124 Y75.679 E273.72731
G0 F7500 X80.124 Y75.9
G0 X75.87 Y75.87
G0 X75.679 Y75.679
G1 F2100 X159.319 Y159.319 E277.66148
G0 F7500 X158.8 Y158.918
G1 F1500 E271.16148
;MESH:NONMESH
G0 F300 X158.8 Y158.918 Z0.6
G0 F7500 X75.87 Y159.13
G1 F1500 E277.66148
G0 F7500 X75.6 Y159.4
;TIME_ELAPSED:368.159217
;LAYER:2
M106 S170
;TYPE:WALL-INNER
;MESH:Abilities.stl
G1 F1500 X159.4 Y159.4 E280.44868
G1 X159.4 Y75.6 E283.23588
G1 X75.6 Y75.6 E286.02308
G1 X75.6 Y159.4 E288.81028
G0 F9000 X75.2 Y159.8
;TYPE:WALL-OUTER
G1 F1500 X159.8 Y159.8 E291.62408
G1 X159.8 Y75.2 E294.43789
G1 X75.2 Y75.2 E297.2517
G1 X75.2 Y159.8 E300.06551
G0 F9000 X75.68 Y159.319
;TYPE:FILL
G1 F3000 X159.319 Y75.68 E303.99963
G0 F9000 X159.13 Y75.87
G0 X154.876 Y75.9
G0 X154.876 Y75.68
G1 F3000 X159.319 Y80.123 E304.20861
G0 F9000 X159.1 Y80.123
G0 X159.1 Y81.337
G0 X159.319 Y81.337
G1 F3000 X81.337 Y159.319 E307.87665
G0 F9000 X81.337 Y159.1
G0 X80.123 Y159.1
G0 X80.123 Y159.319
G1 F3000 X75.679 Y154.875 E308.08568
G0 F9000 X75.9 Y154.875
G0 X75.9 Y153.662
G0 X75.68 Y153.662
G1 F3000 X153.663 Y75.679 E311.75376
G0 F9000 X153.663 Y75.9
G0 X149.219 Y75.9
G0 X149.219 Y75.68
G1 F3000 X159.319 Y85.78 E312.22883
G0 F9000 X159.1 Y85.78
G0 X159.1 Y86.993
G0 X159.319 Y86.993
G1 F3000 X86.993 Y159.319 E315.63083
G0 F9000 X86.993 Y159.1
G0 X85.78 Y159.1
G0 X85.78 Y159.319
G1 F3000 X75.679 Y149.218 E316.10595
G0 F9000 X75.9 Y149.218
G0 X75.9 Y148.005
G0 X75.68 Y148.005
G1 F3000 X148.006 Y75.679 E319.50794
G0 F9000 X148.006 Y75.9
G0 X143.562 Y75.9
G0 X143.562 Y75.68
G1 F3000 X159.319 Y91.437 E320.2491
G0 F9000 X159.1 Y91.437
G0 X159.1 Y92.65
G0 X159.319 Y92.65
G1 F3000 X92.65 Y159.319 E323.38501
G0 F9000 X92.65 Y159.1
G0 X91.437 Y159.1
G0 X91.437 Y159.319
G1 F3000 X75.679 Y143.561 E324.12622
G0 F9000 X75.9 Y143.561
G0 X75.9 Y142.349
G0 X75.68 Y142.349
G1 F3000 X142.349 Y75.679 E327.26214
G0 F9000 X142.349 Y75.9
G0 X137.905 Y75.9
G0 X137.905 Y75.68
G1 F3000 X159.319 Y97.094 E328.26939
G0 F9000 X159.1 Y97.094
G0 X159.1 Y98.307
G0 X159.319 Y98.307
G1 F3000 X98.307 Y159.319 E331.13921
G0 F9000 X98.307 Y159.1
G0 X97.094 Y159.1
G0 X97.094 Y159.319
G1 F3000 X75.679 Y137.904 E332.14651
G0 F9000 X75.9 Y137.904
G0 X75.9 Y136.692
G0 X75.68 Y136.692
G1 F3000 X136.692 Y75.679 E335.01635
G0 F9000 X136.692 Y75.9
G0 X132.248 Y75.9
G0 X132.248 Y75.68
G1 F3000 X159.319 Y102.751 E336.28968
G0 F9000 X159.1 Y102.751
G0 X159.1 Y103.964
G0 X159.319 Y103.964
G1 F3000 X103.964 Y159.319 E338.89341
G0 F9000 X103.964 Y159.1
G0 X102.751 Y159.1
G0 X102.751 Y159.319
G1 F3000 X75.679 Y132.248 E340.16677
G0 F9000 X75.9 Y132.248
G0 X75.9 Y131.035
G0 X75.68 Y131.035
G1 F3000 X131.036 Y75.679 E342.77055
G0 F9000 X131.036 Y75.9
G0 X126.591 Y75.9
G0 X126.591 Y75.68
G1 F3000 X159.319 Y108.407 E344.30995
G0 F9000 X159.1 Y108.407
G0 X159.1 Y109.621
G0 X159.319 Y109.621
G1 F3000 X109.621 Y159.319 E346.64759
G0 F9000 X109.621 Y159.1
G0 X108.407 Y159.1
G0 X108.407 Y159.319
