;FLAVOR:Marlin
;TIME:7740
;Filament used: 6.78389m
;Layer height: 0.2
;MINX:85.2
;MINY:52.7
;MINZ:0.2
;MAXX:149.8
;MAXY:182.3
;MAXZ:20
;Generated with Cura_SteamEngine 5.2.1
M140 S60
M105
M190 S60
M104 S200
M105
M109 S200
M82 ;absolute extrusion mode
M201 X500.00 Y500.00 Z100.00 E5000.00 ;Setup machine max acceleration
M203 X500.00 Y500.00 Z10.00 E50.00 ;Setup machine max feedrate
M204 P500.00 R1000.00 T500.00 ;Setup Print/Retract/Travel acceleration
M205 X8.00 Y8.00 Z0.40 E5.00 ;Setup Jerk
M220 S100 ;Reset Feedrate
M221 S100 ;Reset Flowrate

G28 ;Home

G92 E0 ;Reset Extruder
G1 Z2.0 F3000 ;Move Z Axis up
G1 X10.1 Y20 Z0.28 F5000.0 ;Move to start position
G1 X10.1 Y200.0 Z0.28 F1500.0 E15 ;Draw the first line
G1 X10.4 Y200.0 Z0.28 F5000.0 ;Move to side a little
G1 X10.4 Y20 Z0.28 F1500.0 E30 ;Draw the second line
G92 E0 ;Reset Extruder
G1 Z2.0 F3000 ;Move Z Axis up

G92 E0
G92 E0
G1 F1500 E-6.5
;LAYER_COUNT:100
;LAYER:0
M107
;MESH:Cardbox.stl
G0 F6000 X85.6 Y181.9 Z0.2
;TYPE:WALL-INNER
G1 F1500 E0
G1 F1200 X149.4 Y181.9 E2.122
G1 X149.4 Y53.1 E6.4059
G1 X85.6 Y53.1 E8.5279
G1 X85.6 Y85 E9.5889
G1 X85.6 Y181.9 E12.8118
G0 F6000 X85.2 Y182.3
;TYPE:WALL-OUTER
G1 F1200 X149.8 Y182.3 E14.96041
G1 X149.8 Y52.7 E19.27092
G1 X85.2 Y52.7 E21.41953
G1 X85.2 Y85 E22.49383
G1 X85.2 Y182.3 E25.73004
G0 F6000 X85.47 Y182.03
G0 X86.637 Y181.6
G0 X86.637 Y181.819
;TYPE:FILL
G1 F1200 X149.318 Y165.024 E27.88836
G0 F6000 X149.1 Y165.024
G0 X149.1 Y166.091
G0 X149.32 Y166.091
G1 F1200 X85.678 Y102.449 E30.88188
G0 F6000 X85.9 Y102.449
G0 X85.9 Y101.324
G0 X85.68 Y101.324
G1 F1200 X149.319 Y84.272 E33.07319
G0 F6000 X149.1 Y84.272
G0 X149.1 Y81.238
G0 X149.32 Y81.238
G1 F1200 X121.261 Y53.18 E34.39298
G0 F6000 X122.164 Y53.179
G1 F1200 X87.695 Y181.82 E38.82253
G0 F6000 X88.68 Y181.819
G1 F1200 X85.679 Y178.818 E38.96368
G0 F6000 X85.9 Y178.818
G0 X85.9 Y175.864
G0 X85.68 Y175.864
G1 F1200 X149.318 Y158.812 E41.15496
G0 F6000 X149.1 Y158.812
G0 X149.1 Y157.606
G0 X149.32 Y157.606
G1 F1200 X85.678 Y93.964 E44.14849
G0 F6000 X85.9 Y93.964
G0 X85.9 Y95.113
G0 X85.679 Y95.113
G1 F1200 X149.319 Y78.061 E46.33983
G0 F6000 X149.1 Y78.061
G0 X149.1 Y72.753
G0 X149.32 Y72.753
G1 F1200 X129.747 Y53.18 E47.26048
G0 F6000 X129.747 Y53.4
G0 X128.376 Y53.4
G0 X128.376 Y53.179
G1 F1200 X93.907 Y181.82 E51.69003
G0 F6000 X93.907 Y181.6
G0 X97.165 Y181.6
G0 X97.165 Y181.819
G1 F1200 X85.679 Y170.332 E52.23032
G0 F6000 X85.679 Y169.653
G1 F1200 X149.319 Y152.601 E54.42166
G0 F6000 X149.1 Y152.601
G0 X149.1 Y149.121
G0 X149.32 Y149.121
G1 F1200 X85.678 Y85.479 E57.41518
G0 F6000 X85.9 Y85.479
G0 X85.9 Y82.689
G0 X85.68 Y82.689
G1 F1200 X149.319 Y65.637 E59.60649
G0 F6000 X149.1 Y65.637
G0 X149.1 Y64.268
G0 X149.32 Y64.268
G1 F1200 X138.232 Y53.18 E60.12804
G0 F6000 X138.232 Y53.4
G0 X140.799 Y53.4
G0 X140.799 Y53.179
G1 F1200 X106.33 Y181.819 E64.55755
G0 F6000 X105.65 Y181.819
G1 F1200 X85.679 Y161.847 E65.49695
G0 F6000 X85.9 Y161.847
G0 X85.9 Y163.441
G0 X85.68 Y163.441
G1 F1200 X149.319 Y146.389 E67.68826
G0 F6000 X149.1 Y146.389
G0 X149.1 Y140.635
G0 X149.32 Y140.635
G1 F1200 X85.678 Y76.994 E70.68176
G0 F6000 X85.679 Y76.478
G1 F1200 X149.319 Y59.426 E72.8731
G0 F6000 X149.1 Y59.426
G0 X149.1 Y55.782
G0 X149.32 Y55.782
G1 F1200 X146.717 Y53.18 E72.99552
G0 F6000 X147.011 Y53.179
G1 F1200 X112.542 Y181.82 E77.42506
G0 F6000 X112.542 Y181.6
G0 X114.136 Y181.6
G0 X114.136 Y181.819
G1 F1200 X85.679 Y153.362 E78.76359
G0 F6000 X85.9 Y153.362
G0 X85.9 Y151.018
G0 X85.679 Y151.018
G1 F1200 X149.318 Y133.966 E80.9549
G0 F6000 X149.1 Y133.966
G0 X149.1 Y132.15
G0 X149.32 Y132.15
G1 F1200 X85.678 Y68.508 E83.94843
G0 F6000 X85.9 Y68.508
G0 X85.9 Y70.266
G0 X85.679 Y70.266
G1 F1200 X149.318 Y53.214 E86.13974
G0 F6000 X149.13 Y53.37
G0 X149.1 Y67.746
G0 X149.319 Y67.746
G1 F1200 X118.753 Y181.82 E90.06769
G0 F6000 X118.753 Y181.6
G0 X122.621 Y181.6
G0 X122.621 Y181.819
G1 F1200 X85.679 Y144.876 E91.80536
G1 X85.68 Y144.806
G1 X149.319 Y127.754 E93.99666
G0 F6000 X149.1 Y127.754
G0 X149.1 Y123.665
G0 X149.32 Y123.665
G1 F1200 X85.678 Y60.023 E96.99019
G0 F6000 X85.9 Y60.023
G0 X85.9 Y57.843
G0 X85.679 Y57.843
G1 F1200 X103.086 Y53.179 E97.58957
G0 F6000 X103.529 Y53.179
G1 F1200 X85.679 Y119.796 E99.88342
G1 X85.68 Y119.959
G1 X149.319 Y102.907 E102.07473
G0 F6000 X149.1 Y102.907
G0 X149.1 Y106.694
G0 X149.32 Y106.694
G1 F1200 X95.805 Y53.18 E104.59189
G0 F6000 X95.805 Y53.4
G0 X97.318 Y53.4
G0 X97.318 Y53.178
G1 F1200 X85.679 Y96.614 E106.08754
G0 F6000 X85.9 Y96.614
G0 X85.9 Y88.901
G0 X85.679 Y88.901
G1 F1200 X149.318 Y71.849 E108.27885
G0 F6000 X149.1 Y71.849
G0 X149.1 Y89.724
G0 X149.32 Y89.724
G1 F1200 X112.776 Y53.18 E109.99777
G0 F6000 X112.776 Y53.4
G0 X109.741 Y53.4
G0 X109.741 Y53.179
G1 F1200 X85.679 Y142.978 E113.08986
G0 F6000 X85.9 Y142.978
G0 X85.9 Y138.594
G0 X85.68 Y138.594
G1 F1200 X149.319 Y121.542 E115.28117
G0 F6000 X149.1 Y121.542
G0 X149.1 Y115.331
G0 X149.318 Y115.331
G1 F1200 X85.679 Y132.383 E117.47248
G0 F6000 X85.9 Y132.383
G0 X85.9 Y136.391
G0 X85.679 Y136.391
G1 F1200 X131.106 Y181.819 E119.60925
G1 X131.177 Y181.819
G1 X149.319 Y114.111 E121.94066
G0 F6000 X149.1 Y114.111
G0 X149.1 Y115.179
G0 X149.32 Y115.179
G1 F1200 X87.32 Y53.18 E124.85693
G0 F6000 X87.32 Y53.4
G0 X91.106 Y53.4
G0 X91.106 Y53.179
G1 F1200 X85.679 Y73.432 E125.55431
G0 F6000 X85.9 Y73.432
G0 X85.9 Y64.054
G0 X85.68 Y64.054
G1 F1200 X126.269 Y53.179 E126.95192
G0 F6000 X126.269 Y53.4
G0 X134.588 Y53.4
G0 X134.588 Y53.179
G1 F1200 X100.118 Y181.82 E131.38148
G0 F6000 X100.118 Y181.6
G0 X109.82 Y181.6
G0 X109.82 Y181.819
G1 F1200 X149.319 Y171.236 E132.74156
G0 F6000 X149.1 Y171.236
G0 X149.1 Y174.576
G0 X149.32 Y174.576
G1 F1200 X85.678 Y110.935 E135.73506
G0 F6000 X85.9 Y110.935
G0 X85.9 Y113.748
G0 X85.679 Y113.748
G1 F1200 X149.318 Y96.696 E137.92637
G0 F6000 X149.1 Y96.696
G0 X149.1 Y98.209
G0 X149.32 Y98.209
G1 F1200 X104.291 Y53.18 E140.04439
G0 F6000 X104.291 Y53.4
G0 X115.953 Y53.4
G0 X115.953 Y53.178
G1 F1200 X85.68 Y166.16 E143.93475
G0 F6000 X85.9 Y166.16
G0 X85.9 Y157.229
G0 X85.68 Y157.229
G1 F1200 X149.318 Y140.177 E146.12602
G0 F6000 X149.1 Y140.177
G0 X149.1 Y137.293
G0 X149.319 Y137.293
G1 F1200 X137.388 Y181.82 E147.65924
G0 F6000 X137.388 Y181.6
G0 X139.592 Y181.6
G0 X139.592 Y181.819
G1 F1200 X85.679 Y127.906 E150.19514
G0 F6000 X85.9 Y127.906
G0 X85.9 Y126.171
G0 X85.68 Y126.171
G1 F1200 X149.319 Y109.119 E152.38645
G0 F6000 X149.1 Y109.119
G0 X149.1 Y90.929
G0 X149.319 Y90.929
G1 F1200 X124.965 Y181.819 E155.51611
G0 F6000 X124.965 Y181.6
G0 X133.002 Y181.6
G0 X133.002 Y181.819
G1 F1200 X149.318 Y177.447 E156.07792
G0 F6000 X149.1 Y177.447
G0 X148.077 Y181.6
G0 X148.077 Y181.819
G1 F1200 X85.679 Y119.421 E159.01293
G0 F6000 X85.9 Y119.421
G0 X85.9 Y107.536
G0 X85.679 Y107.536
G1 F1200 X149.319 Y90.484 E161.20428
G1 F1500 E154.70428
G0 F6000 X149.1 Y90.484
G0 X149.1 Y160.475
G1 F1500 E161.20428
G0 F6000 X149.319 Y160.475
G1 F1200 X143.6 Y181.819 E161.93922
G0 F6000 X143.6 Y181.3
G1 F1500 E155.43922
;MESH:NONMESH
G0 F300 X143.6 Y181.3 Z0.4
G0 F6000 X85.87 Y181.63
G1 F1500 E161.93922
G0 F6000 X85.6 Y181.9
;TIME_ELAPSED:263.092771
;LAYER:1
M106 S85
;TYPE:WALL-INNER
;MESH:Cardbox.stl
G1 F1350 X149.4 Y181.9 E164.06122
G1 X149.4 Y53.1 E168.34512
G1 X85.6 Y53.1 E170.46712
G1 X85.6 Y181.9 E174.75103
G0 F7500 X85.2 Y182.3
;TYPE:WALL-OUTER
G1 F1350 X149.8 Y182.3 E176.89963
G1 X149.8 Y52.7 E181.21014
G1 X85.2 Y52.7 E183.35875
G1 X85.2 Y182.3 E187.66926
G0 F7500 X85.47 Y182.03
G0 X87.182 Y181.6
G0 X87.182 Y181.819
;TYPE:FILL
G1 F2100 X149.319 Y165.17 E189.80885
G0 F7500 X149.32 Y165.892
G1 F2100 X85.678 Y102.25 E192.80237
G0 F7500 X85.68 Y101.47
G1 F2100 X149.319 Y84.418 E194.99368
G0 F7500 X149.1 Y84.418
G0 X149.1 Y81.039
G0 X149.32 Y81.039
G1 F2100 X121.461 Y53.18 E196.30408
G0 F7500 X122.018 Y53.178
G1 F2100 X87.549 Y181.82 E200.73366
G0 F7500 X87.549 Y181.6
G0 X88.879 Y181.6
G0 X88.879 Y181.819
G1 F2100 X85.679 Y178.618 E200.8842
G0 F7500 X85.9 Y178.618
G0 X85.9 Y176.01
G0 X85.68 Y176.01
G1 F2100 X149.318 Y158.958 E203.07548
G0 F7500 X149.319 Y159.931
G1 F2100 X143.454 Y181.82 E203.82919
G0 F7500 X143.454 Y181.6
G0 X139.791 Y181.6
G0 X139.791 Y181.819
G1 F2100 X85.679 Y127.707 E206.37446
G0 F7500 X85.9 Y127.707
G0 X85.9 Y126.317
G0 X85.679 Y126.317
G1 F2100 X149.318 Y109.265 E208.56576
G0 F7500 X149.1 Y109.265
G0 X149.1 Y106.495
G0 X149.32 Y106.495
G1 F2100 X96.005 Y53.18 E211.07354
G0 F7500 X96.005 Y53.4
G0 X97.172 Y53.4
G0 X97.172 Y53.179
G1 F2100 X85.679 Y96.069 E212.55039
G0 F7500 X85.68 Y95.259
G1 F2100 X149.319 Y78.207 E214.7417
G0 F7500 X149.1 Y78.207
G0 X149.1 Y72.554
G0 X149.32 Y72.554
G1 F2100 X129.946 Y53.18 E215.653
G0 F7500 X129.946 Y53.4
G0 X128.23 Y53.4
G0 X128.23 Y53.179
G1 F2100 X93.761 Y181.82 E220.08254
G0 F7500 X93.761 Y181.6
G0 X97.365 Y181.6
G0 X97.365 Y181.819
G1 F2100 X85.679 Y170.133 E220.63222
G0 F7500 X85.68 Y169.798
G1 F2100 X149.318 Y152.747 E222.82349
G0 F7500 X149.1 Y152.747
G0 X149.1 Y148.921
G0 X149.32 Y148.921
G1 F2100 X85.678 Y85.279 E225.81701
G0 F7500 X85.9 Y85.279
G0 X85.9 Y82.835
G0 X85.679 Y82.835
G1 F2100 X149.319 Y65.783 E228.00835
G0 F7500 X149.1 Y65.783
G0 X149.1 Y67.201
G0 X149.319 Y67.201
G1 F2100 X118.607 Y181.82 E231.95507
G0 F7500 X118.607 Y181.6
G0 X122.82 Y181.6
G0 X122.82 Y181.819
G1 F2100 X85.679 Y144.677 E233.7021
G0 F7500 X85.679 Y144.952
G1 F2100 X149.319 Y127.9 E235.89344
G0 F7500 X149.1 Y127.9
G0 X149.1 Y131.951
G0 X149.32 Y131.951
G1 F2100 X85.678 Y68.309 E238.88696
G0 F7500 X85.9 Y68.309
G0 X85.9 Y70.412
G0 X85.679 Y70.412
G1 F2100 X149.319 Y53.36 E241.0783
G0 F7500 X149.1 Y53.36
G0 X149.1 Y55.583
G0 X149.32 Y55.583
G1 F2100 X146.916 Y53.18 E241.19136
G1 X146.865 Y53.179
G1 X112.396 Y181.819 E245.62087
G0 F7500 X112.396 Y181.6
G0 X114.335 Y181.6
G0 X114.335 Y181.819
G1 F2100 X85.679 Y153.162 E246.96879
G0 F7500 X85.9 Y153.162
G0 X85.9 Y151.164
G0 X85.68 Y151.164
G1 F2100 X149.318 Y134.112 E249.16006
G0 F7500 X149.1 Y134.112
G0 X149.1 Y136.749
G0 X149.319 Y136.749
G1 F2100 X137.243 Y181.819 E250.71197
G0 F7500 X137.243 Y181.6
G0 X133.546 Y181.6
G0 X133.546 Y181.819
G1 F2100 X149.318 Y177.593 E251.25506
G0 F7500 X149.1 Y177.593
G0 X149.1 Y174.377
G0 X149.32 Y174.377
G1 F2100 X85.678 Y110.735 E254.24858
G0 F7500 X85.9 Y110.735
G0 X85.9 Y107.682
G0 X85.679 Y107.682
G1 F2100 X149.318 Y90.63 E256.43989
G0 F7500 X149.319 Y90.384
G1 F2100 X124.819 Y181.82 E259.58834
G0 F7500 X124.819 Y181.6
G0 X131.031 Y181.6
G0 X131.031 Y181.819
G1 F2100 X149.319 Y113.566 E261.93852
G0 F7500 X149.1 Y113.566
G0 X149.1 Y114.98
G0 X149.32 Y114.98
G1 F2100 X87.52 Y53.18 E264.84541
G0 F7500 X87.52 Y53.4
G0 X90.96 Y53.4
G0 X90.96 Y53.179
G1 F2100 X85.679 Y72.887 E265.52402
G0 F7500 X85.9 Y72.887
G0 X85.9 Y76.624
G0 X85.68 Y76.624
G1 F2100 X149.319 Y59.572 E267.71533
G0 F7500 X149.1 Y59.572
G0 X149.1 Y64.068
G0 X149.32 Y64.068
G1 F2100 X138.431 Y53.18 E268.22749
G0 F7500 X138.431 Y53.4
G0 X140.653 Y53.4
G0 X140.653 Y53.178
G1 F2100 X106.184 Y181.819 E272.65704
G0 F7500 X105.85 Y181.819
G1 F2100 X85.679 Y161.648 E273.60582
G0 F7500 X85.9 Y161.648
G0 X85.9 Y163.587
G0 X85.68 Y163.587
G1 F2100 X149.319 Y146.535 E275.79713
G0 F7500 X149.1 Y146.535
G0 X149.1 Y140.436
G0 X149.32 Y140.436
G1 F2100 X85.678 Y76.794 E278.79066
G0 F7500 X85.9 Y76.794
G0 X85.9 Y89.047
G0 X85.679 Y89.047
G1 F2100 X149.318 Y71.995 E280.98196
G0 F7500 X149.1 Y71.995
G0 X149.1 Y89.524
G0 X149.32 Y89.524
G1 F2100 X112.975 Y53.18 E282.6915
G0 F7500 X112.975 Y53.4
G0 X115.807 Y53.4
G0 X115.807 Y53.179
G1 F2100 X85.68 Y165.614 E286.56302
G0 F7500 X85.9 Y165.614
G0 X85.9 Y157.375
G0 X85.68 Y157.375
G1 F2100 X149.319 Y140.323 E288.75433
G0 F7500 X149.1 Y140.323
G0 X149.1 Y123.465
G0 X149.32 Y123.465
G1 F2100 X85.678 Y59.824 E291.74783
G0 F7500 X85.9 Y59.824
G0 X85.9 Y57.989
G0 X85.68 Y57.989
G1 F2100 X103.63 Y53.179 E292.36591
G0 F7500 X103.384 Y53.178
G1 F2100 X85.68 Y119.251 E294.64103
G1 X85.679 Y119.221
G1 X148.276 Y181.819 E297.58543
G0 F7500 X148.276 Y181.6
G0 X149.1 Y171.382
G0 X149.318 Y171.382
G1 F2100 X110.365 Y181.819 E298.92671
G0 F7500 X110.365 Y181.6
G0 X99.972 Y181.6
G0 X99.972 Y181.82
G1 F2100 X134.442 Y53.179 E303.35627
G0 F7500 X134.442 Y53.4
G0 X126.813 Y53.4
G0 X126.813 Y53.179
G1 F2100 X85.679 Y64.201 E304.77265
G0 F7500 X85.9 Y64.201
G0 X104.49 Y53.4
G0 X104.49 Y53.18
G1 F2100 X149.32 Y98.009 E306.88129
G0 F7500 X149.1 Y98.009
G0 X149.1 Y96.842
G0 X149.319 Y96.842
G1 F2100 X85.68 Y113.894 E309.0726
G0 F7500 X85.9 Y113.894
G0 X85.9 Y120.105
G0 X85.68 Y120.105
G1 F2100 X149.319 Y103.053 E311.26391
G0 F7500 X149.1 Y103.053
G0 X149.1 Y115.477
G0 X149.318 Y115.477
G1 F2100 X85.68 Y132.529 E313.45519
G0 F7500 X85.9 Y132.529
G0 X85.9 Y136.192
G0 X85.679 Y136.192
G1 F2100 X131.306 Y181.819 E315.60134
G1 F1500 E309.10134
G0 F7500 X131.306 Y181.6
G0 X149.1 Y157.406
G1 F1500 E315.60134
G0 F7500 X149.32 Y157.406
G1 F2100 X85.678 Y93.765 E318.59484
G1 F1500 E312.09484
G0 F7500 X85.9 Y93.765
G0 X85.9 Y138.74
G1 F1500 E318.59484
G0 F7500 X85.68 Y138.74
G1 F2100 X149.319 Y121.688 E320.78615
G1 F1500 E314.28615
G0 F7500 X149.1 Y121.688
G0 X85.9 Y142.432
G1 F1500 E320.78615
G0 F7500 X85.68 Y142.432
G1 F2100 X109.595 Y53.179 E323.85944
G0 F7500 X109.595 Y53.7
G1 F1500 E317.35944
;MESH:NONMESH
G0 F300 X109.595 Y53.7 Z0.6
G0 F7500 X85.87 Y181.63
G1 F1500 E323.85944
G0 F7500 X85.6 Y181.9
;TIME_ELAPSED:433.408699
;LAYER:2
M106 S170
;TYPE:WALL-INNER
;MESH:Cardbox.stl
G1 F1500 X149.4 Y181.9 E325.98143
G1 X149.4 Y53.1 E330.26534
G1 X85.6 Y53.1 E332.38733
G1 X85.6 Y181.9 E336.67124
G0 F9000 X85.2 Y182.3
;TYPE:WALL-OUTER
G1 F1500 X149.8 Y182.3 E338.81984
G1 X149.8 Y52.7 E343.13036
G1 X85.2 Y52.7 E345.27896
G1 X85.2 Y182.3 E349.58948
G0 F9000 X85.47 Y182.03
G0 X87.402 Y181.6
G0 X87.402 Y181.82
;TYPE:FILL
G1 F3000 X121.871 Y53.178 E354.01906
G0 F9000 X121.661 Y53.18
G1 F3000 X149.32 Y80.838 E355.32003
G0 F9000 X149.1 Y80.838
G0 X149.1 Y78.354
G0 X149.319 Y78.354
G1 F3000 X85.68 Y95.406 E357.51134
G1 X85.679 Y95.521
G1 X97.025 Y53.179 E358.96932
G0 F9000 X96.206 Y53.18
G1 F3000 X149.32 Y106.294 E361.46764
G0 F9000 X149.1 Y106.294
G0 X149.1 Y103.2
G0 X149.319 Y103.2
G1 F3000 X85.68 Y120.252 E363.65895
G0 F9000 X85.9 Y120.252
G0 X85.9 Y119.02
G0 X85.679 Y119.02
G1 F3000 X148.477 Y181.819 E366.6128
G0 F9000 X148.477 Y181.6
G0 X149.1 Y177.74
G0 X149.318 Y177.74
G1 F3000 X134.095 Y181.819 E367.13698
G0 F9000 X134.095 Y181.6
G0 X131.507 Y181.6
G0 X131.507 Y181.819
G1 F3000 X85.679 Y135.991 E369.29259
G0 F9000 X85.9 Y135.991
G0 X85.9 Y138.887
G0 X85.68 Y138.887
G1 F3000 X149.319 Y121.835 E371.48389
G0 F9000 X149.1 Y121.835
G0 X149.1 Y123.264
G0 X149.32 Y123.264
G1 F3000 X85.678 Y59.623 E374.4774
G0 F9000 X85.9 Y59.623
G0 X85.9 Y58.136
G0 X85.68 Y58.136
G1 F3000 X104.179 Y53.179 E375.11438
G0 F9000 X104.691 Y53.18
G1 F3000 X149.32 Y97.809 E377.21359
G0 F9000 X149.319 Y96.989
G1 F3000 X85.68 Y114.041 E379.4049
G0 F9000 X85.9 Y114.041
G0 X85.9 Y110.534
G0 X85.678 Y110.534
G1 F3000 X149.32 Y174.176 E382.39843
G0 F9000 X149.1 Y174.176
G0 X149.1 Y171.529
G0 X149.318 Y171.529
G1 F3000 X110.913 Y181.819 E383.72084
G0 F9000 X110.913 Y181.6
G0 X112.249 Y181.6
G0 X112.249 Y181.819
G1 F3000 X146.718 Y53.179 E388.15035
G0 F9000 X147.117 Y53.18
G1 F3000 X149.32 Y55.382 E388.25395
G0 F9000 X149.1 Y55.382
G0 X149.1 Y53.507
G0 X149.319 Y53.507
G1 F3000 X85.679 Y70.559 E390.44529
G0 F9000 X85.9 Y70.559
G0 X85.9 Y72.338
G0 X85.679 Y72.338
G1 F3000 X90.813 Y53.179 E391.10501
G0 F9000 X90.813 Y53.4
G0 X87.72 Y53.4
G0 X87.72 Y53.18
G1 F3000 X149.32 Y114.779 E394.00246
G0 F9000 X149.318 Y115.624
G1 F3000 X85.68 Y132.676 E396.19373
G0 F9000 X85.9 Y132.676
G0 X85.9 Y127.506
G0 X85.679 Y127.506
G1 F3000 X139.992 Y181.819 E398.74845
G0 F9000 X139.992 Y181.6
G0 X137.096 Y181.6
G0 X137.096 Y181.819
G1 F3000 X149.319 Y136.2 E400.31926
G0 F9000 X149.1 Y136.2
G0 X149.1 Y134.259
G0 X149.318 Y134.259
G1 F3000 X85.68 Y151.311 E402.51054
G0 F9000 X85.9 Y151.311
G0 X85.9 Y152.962
G0 X85.679 Y152.962
G1 F3000 X114.536 Y181.819 E403.86788
G0 F9000 X114.536 Y181.6
G0 X118.46 Y181.6
