;FLAVOR:Marlin
;TIME:20259
;Filament used: 15.6589m
;Layer height: 0.2
;MINX:17.701
;MINY:80.2
;MINZ:0.2
;MAXX:217.3
;MAXY:155.665
;MAXZ:40
;Generated with Cura_SteamEngine 5.2.1
M140 S60
M105
M190 S60
M104 S200
M105
M109 S200
M82 ;absolute extrusion mode
M201 X500.00 Y500.00 Z100.00 E5000.00 ;Setup machine max acceleration
M203 X500.00 Y500.00 Z10.00 E50.00 ;Setup machine max feedrate
M204 P500.00 R1000.00 T500.00 ;Setup Print/Retract/Travel acceleration
M205 X8.00 Y8.00 Z0.40 E5.00 ;Setup Jerk
M220 S100 ;Reset Feedrate
M221 S100 ;Reset Flowrate

G28 ;Home

G92 E0 ;Reset Extruder
G1 Z2.0 F3000 ;Move Z Axis up
G1 X10.1 Y20 Z0.28 F5000.0 ;Move to start position
G1 X10.1 Y200.0 Z0.28 F1500.0 E15 ;Draw the first line
G1 X10.4 Y200.0 Z0.28 F5000.0 ;Move to side a little
G1 X10.4 Y20 Z0.28 F1500.0 E30 ;Draw the second line
G92 E0 ;Reset Extruder
G1 Z2.0 F3000 ;Move Z Axis up

G92 E0
G92 E0
G1 F1500 E-6.5
;LAYER_COUNT:200
;LAYER:0
M107
;MESH:Machines.stl
G0 F6000 X59.105 Y154.4 Z0.2
;TYPE:WALL-INNER
G1 F1500 E0
G1 F1200 X185.9 Y154.4 E4.21722
G1 X185.9 Y153.999 E4.23056
G1 X185.946 Y153.767 E4.23842
G1 X185.981 Y153.742 E4.23985
G1 X186.109 Y152.904 E4.26805
G1 X186.346 Y151.953 E4.30065
G1 X186.718 Y150.918 E4.33723
G1 X187.137 Y150.03 E4.36988
G1 X187.686 Y149.11 E4.40552
G1 X188.306 Y148.272 E4.44019
G1 X189.012 Y147.495 E4.47511
G1 X189.766 Y146.812 E4.50894
G1 X190.636 Y146.169 E4.54493
G1 X191.511 Y145.645 E4.57885
G1 X192.429 Y145.211 E4.61262
G1 X193.409 Y144.857 E4.64728
G1 X194.421 Y144.603 E4.68198
G1 X195.453 Y144.449 E4.71668
G1 X196.472 Y144.398 E4.75062
G1 X197.54 Y144.448 E4.78618
G1 X198.571 Y144.601 E4.82085
G1 X199.579 Y144.852 E4.8554
G1 X200.535 Y145.195 E4.88918
G1 X201.526 Y145.663 E4.92563
G1 X202.368 Y146.169 E4.9583
G1 X203.206 Y146.786 E4.99291
G1 X204.02 Y147.524 E5.02946
G1 X204.717 Y148.297 E5.06408
G1 X205.301 Y149.086 E5.09673
G1 X205.866 Y150.028 E5.13326
G1 X206.307 Y150.969 E5.16782
G1 X206.658 Y151.953 E5.20257
G1 X206.895 Y152.904 E5.23517
G1 X207.022 Y153.74 E5.26329
G1 X207.059 Y153.765 E5.26478
G1 X207.105 Y153.998 E5.27268
G1 X207.105 Y154.4 E5.28605
G1 X216.9 Y154.4 E5.61183
G1 X216.9 Y80.6 E8.06643
G1 X207.105 Y80.6 E8.39221
G1 X207.105 Y81.003 E8.40562
G1 X207.058 Y81.237 E8.41356
G1 X207.022 Y81.261 E8.41499
G1 X206.895 Y82.096 E8.44309
G1 X206.658 Y83.047 E8.47568
G1 X206.3 Y84.049 E8.51107
G1 X205.839 Y85.022 E8.54688
G1 X205.302 Y85.912 E8.58146
G1 X204.717 Y86.703 E8.61418
G1 X203.979 Y87.517 E8.65072
G1 X203.206 Y88.214 E8.68534
G1 X202.368 Y88.831 E8.71995
G1 X201.528 Y89.336 E8.75255
G1 X200.535 Y89.805 E8.78908
G1 X199.579 Y90.148 E8.82286
G1 X198.6 Y90.393 E8.85643
G1 X197.54 Y90.552 E8.89208
G1 X196.472 Y90.603 E8.92764
G1 X195.453 Y90.551 E8.96157
G1 X194.421 Y90.397 E8.99628
G1 X193.438 Y90.152 E9.02997
G1 X192.429 Y89.789 E9.06564
G1 X191.511 Y89.355 E9.09941
G1 X190.588 Y88.799 E9.13525
G1 X189.766 Y88.188 E9.16932
G1 X188.998 Y87.491 E9.20381
G1 X188.306 Y86.728 E9.23807
G1 X187.686 Y85.89 E9.27274
G1 X187.137 Y84.97 E9.30838
G1 X186.718 Y84.082 E9.34103
G1 X186.346 Y83.047 E9.37761
G1 X186.109 Y82.096 E9.41021
G1 X185.982 Y81.259 E9.43837
G1 X185.946 Y81.235 E9.43981
G1 X185.9 Y81.003 E9.44767
G1 X185.9 Y80.6 E9.46108
G1 X59.105 Y80.6 E13.6783
G1 X59.105 Y81.002 E13.69167
G1 X59.058 Y81.235 E13.69957
G1 X59.021 Y81.26 E13.70106
G1 X58.895 Y82.096 E13.72918
G1 X58.658 Y83.047 E13.76178
G1 X58.286 Y84.082 E13.79836
G1 X57.867 Y84.97 E13.83101
G1 X57.318 Y85.89 E13.86665
G1 X56.698 Y86.728 E13.90132
G1 X55.993 Y87.505 E13.93621
G1 X55.239 Y88.188 E13.97005
G1 X54.385 Y88.82 E14.00539
G1 X53.511 Y89.345 E14.0393
G1 X52.575 Y89.789 E14.07375
G1 X51.595 Y90.143 E14.10841
G1 X50.557 Y90.402 E14.14399
G1 X49.541 Y90.552 E14.17815
G1 X48.502 Y90.604 E14.21275
G1 X47.471 Y90.552 E14.24709
G1 X46.443 Y90.401 E14.28165
G1 X45.434 Y90.151 E14.31622
G1 X44.443 Y89.795 E14.35124
G1 X43.503 Y89.351 E14.38582
G1 X42.612 Y88.816 E14.42039
G1 X41.774 Y88.196 E14.45506
G1 X41.003 Y87.497 E14.48967
G1 X40.306 Y86.727 E14.52422
G1 X39.684 Y85.886 E14.55901
G1 X39.137 Y84.97 E14.59449
G1 X38.718 Y84.082 E14.62715
G1 X38.346 Y83.047 E14.66373
G1 X38.109 Y82.096 E14.69633
G1 X37.982 Y81.259 E14.72448
G1 X37.946 Y81.234 E14.72594
G1 X37.9 Y81.002 E14.73381
G1 X37.9 Y80.6 E14.74718
G1 X18.101 Y80.601 E15.4057
G1 X18.101 Y154.399 E17.86023
G1 X37.9 Y154.4 E18.51875
G1 X37.9 Y153.999 E18.53208
G1 X37.946 Y153.767 E18.53995
G1 X37.981 Y153.742 E18.54138
G1 X38.109 Y152.904 E18.56958
G1 X38.346 Y151.953 E18.60217
G1 X38.718 Y150.918 E18.63875
G1 X39.137 Y150.03 E18.67141
G1 X39.684 Y149.114 E18.7069
G1 X40.287 Y148.297 E18.74067
G1 X41.003 Y147.503 E18.77623
G1 X41.774 Y146.804 E18.81084
G1 X42.612 Y146.184 E18.84551
G1 X43.476 Y145.664 E18.87905
G1 X44.443 Y145.205 E18.91466
G1 X45.434 Y144.849 E18.94968
G1 X46.443 Y144.599 E18.98425
G1 X47.493 Y144.446 E19.01955
G1 X48.472 Y144.398 E19.05215
G1 X49.541 Y144.448 E19.08774
G1 X50.6 Y144.607 E19.12336
G1 X51.566 Y144.848 E19.15647
G1 X52.575 Y145.211 E19.19214
G1 X53.491 Y145.644 E19.22584
G1 X54.368 Y146.169 E19.25983
G1 X55.239 Y146.812 E19.29584
G1 X56.006 Y147.508 E19.33029
G1 X56.698 Y148.272 E19.36457
G1 X57.317 Y149.108 E19.39917
G1 X57.866 Y150.028 E19.4348
G1 X58.307 Y150.969 E19.46937
G1 X58.658 Y151.953 E19.50412
G1 X58.895 Y152.904 E19.53671
G1 X59.022 Y153.741 E19.56487
G1 X59.059 Y153.766 E19.56636
G1 X59.105 Y153.999 E19.57426
G1 X59.105 Y154.4 E19.58759
G0 F6000 X58.705 Y154.8
;TYPE:WALL-OUTER
G1 F1200 X186.3 Y154.8 E23.83142
G1 X186.3 Y153.931 E23.86032
G1 X186.364 Y153.887 E23.86291
G1 X186.497 Y153.001 E23.8927
G1 X186.734 Y152.05 E23.9253
G1 X187.072 Y151.107 E23.95862
G1 X187.508 Y150.184 E23.99257
G1 X188.018 Y149.333 E24.02557
G1 X188.621 Y148.519 E24.05926
G1 X189.293 Y147.779 E24.09251
G1 X190.036 Y147.108 E24.12581
G1 X190.842 Y146.512 E24.15915
G1 X191.7 Y145.998 E24.19242
G1 X192.605 Y145.571 E24.2257
G1 X193.55 Y145.232 E24.25909
G1 X194.52 Y144.992 E24.29233
G1 X195.506 Y144.846 E24.32548
G1 X196.512 Y144.798 E24.35898
G1 X197.501 Y144.846 E24.39191
G1 X198.503 Y144.995 E24.4256
G1 X199.473 Y145.238 E24.45886
G1 X200.399 Y145.571 E24.49159
G1 X201.32 Y146.006 E24.52547
G1 X202.162 Y146.512 E24.55814
G1 X202.984 Y147.12 E24.59215
G1 X203.724 Y147.792 E24.62539
G1 X204.383 Y148.519 E24.65803
G1 X204.99 Y149.34 E24.69199
G1 X205.495 Y150.182 E24.72464
G1 X205.931 Y151.105 E24.7586
G1 X206.27 Y152.05 E24.79199
G1 X206.507 Y153.001 E24.82459
G1 X206.639 Y153.886 E24.85435
G1 X206.705 Y153.93 E24.85698
G1 X206.705 Y154.8 E24.88592
G1 X217.3 Y154.8 E25.23831
G1 X217.3 Y80.2 E27.71952
G1 X206.705 Y80.2 E28.07191
G1 X206.705 Y81.071 E28.10088
G1 X206.639 Y81.115 E28.10352
G1 X206.507 Y81.999 E28.13325
G1 X206.27 Y82.95 E28.16584
G1 X205.924 Y83.911 E28.19981
G1 X205.496 Y84.816 E28.23311
G1 X204.991 Y85.658 E28.26577
G1 X204.383 Y86.481 E28.2998
G1 X203.711 Y87.221 E28.33305
G1 X202.984 Y87.88 E28.36568
G1 X202.162 Y88.488 E28.39969
G1 X201.322 Y88.993 E28.43229
G1 X200.399 Y89.429 E28.46624
G1 X199.454 Y89.768 E28.49963
G1 X198.493 Y90.007 E28.53257
G1 X197.501 Y90.154 E28.56592
G1 X196.492 Y90.203 E28.59952
G1 X195.493 Y90.152 E28.63279
G1 X194.501 Y90.005 E28.66615
G1 X193.531 Y89.762 E28.6994
G1 X192.587 Y89.421 E28.73279
G1 X191.682 Y88.993 E28.76608
G1 X190.826 Y88.477 E28.79933
G1 X190.021 Y87.88 E28.83266
G1 X189.279 Y87.207 E28.86598
G1 X188.615 Y86.474 E28.89888
G1 X188.018 Y85.667 E28.93226
G1 X187.508 Y84.816 E28.96526
G1 X187.072 Y83.893 E28.99921
G1 X186.734 Y82.95 E29.03253
G1 X186.497 Y81.999 E29.06513
G1 X186.365 Y81.114 E29.09489
G1 X186.3 Y81.071 E29.09748
G1 X186.3 Y80.2 E29.12645
G1 X58.705 Y80.2 E33.37028
G1 X58.705 Y81.07 E33.39921
G1 X58.639 Y81.115 E33.40187
G1 X58.507 Y81.999 E33.4316
G1 X58.27 Y82.95 E33.4642
G1 X57.932 Y83.893 E33.49752
G1 X57.496 Y84.816 E33.53147
G1 X56.986 Y85.667 E33.56447
G1 X56.383 Y86.481 E33.59816
G1 X55.711 Y87.221 E33.6314
G1 X54.968 Y87.892 E33.6647
G1 X54.157 Y88.491 E33.69824
G1 X53.302 Y89.003 E33.73138
G1 X52.399 Y89.429 E33.76459
G1 X51.454 Y89.768 E33.79798
G1 X50.489 Y90.008 E33.83106
G1 X49.501 Y90.154 E33.86427
G1 X48.502 Y90.204 E33.89754
G1 X47.505 Y90.154 E33.93075
G1 X46.501 Y90.005 E33.9645
G1 X45.531 Y89.762 E33.99776
G1 X44.605 Y89.429 E34.03049
G1 X43.682 Y88.993 E34.06445
G1 X42.834 Y88.483 E34.09736
G1 X42.02 Y87.88 E34.13105
G1 X41.279 Y87.207 E34.16434
G1 X40.621 Y86.481 E34.19693
G1 X40.013 Y85.658 E34.23097
G1 X39.508 Y84.816 E34.26362
G1 X39.072 Y83.893 E34.29757
G1 X38.734 Y82.95 E34.33089
G1 X38.497 Y81.999 E34.36349
G1 X38.365 Y81.113 E34.39328
G1 X38.3 Y81.07 E34.39588
G1 X38.3 Y80.2 E34.42481
G1 X17.701 Y80.201 E35.10994
G1 X17.701 Y154.799 E37.59108
G1 X38.3 Y154.8 E38.2762
G1 X38.3 Y153.931 E38.30511
G1 X38.364 Y153.887 E38.30769
G1 X38.497 Y153.001 E38.33749
G1 X38.734 Y152.05 E38.37008
G1 X39.072 Y151.107 E38.4034
G1 X39.508 Y150.184 E38.43735
G1 X40.018 Y149.334 E38.47032
G1 X40.621 Y148.519 E38.50404
G1 X41.293 Y147.779 E38.53729
G1 X42.02 Y147.12 E38.56993
G1 X42.842 Y146.512 E38.60393
G1 X43.691 Y146.002 E38.63687
G1 X44.605 Y145.571 E38.67048
G1 X45.55 Y145.232 E38.70388
G1 X46.52 Y144.992 E38.73711
G1 X47.505 Y144.846 E38.77023
G1 X48.512 Y144.798 E38.80376
G1 X49.501 Y144.846 E38.83669
G1 X50.503 Y144.995 E38.87039
G1 X51.473 Y145.238 E38.90365
G1 X52.417 Y145.579 E38.93703
G1 X53.317 Y146.004 E38.97013
G1 X54.177 Y146.523 E39.00354
G1 X54.984 Y147.12 E39.03693
G1 X55.724 Y147.792 E39.07018
G1 X56.389 Y148.526 E39.10312
G1 X56.985 Y149.331 E39.13643
G1 X57.495 Y150.182 E39.16943
G1 X57.931 Y151.105 E39.20338
G1 X58.27 Y152.05 E39.23677
G1 X58.507 Y153.001 E39.26937
G1 X58.639 Y153.887 E39.29917
G1 X58.705 Y153.931 E39.3018
G1 X58.705 Y154.8 E39.33071
G0 F6000 X58.975 Y154.53
G0 X61.18 Y154.1
G0 X61.18 Y154.318
;TYPE:FILL
G1 F1200 X58.699 Y151.838 E39.44738
G1 X58.756 Y152.02
G1 X216.819 Y109.667 E44.89003
G0 F6000 X216.6 Y109.667
G0 X216.6 Y106.311
G0 X216.819 Y106.311
G1 F1200 X200.431 Y89.923 E45.66088
G0 F6000 X200.505 Y90.134
G0 X199.226 Y90.545
G0 X199.173 Y90.331
G1 F1200 X182.027 Y154.319 E47.86421
G0 F6000 X182.027 Y154.1
G0 X179.974 Y154.1
G0 X179.974 Y154.319
G1 F1200 X106.334 Y80.679 E51.32801
G0 F6000 X106.334 Y80.9
G0 X108.584 Y80.9
G0 X108.584 Y80.678
G1 F1200 X88.852 Y154.32 E53.86375
G0 F6000 X88.852 Y154.1
G0 X86.636 Y154.1
G0 X86.636 Y154.318
G1 F1200 X18.18 Y85.863 E57.08369
G0 F6000 X18.4 Y85.863
G0 X18.4 Y88.352
G0 X18.181 Y88.352
G1 F1200 X38.245 Y82.976 E57.77456
G0 F6000 X38.033 Y83.028
G0 X38.898 Y85.156
G0 X39.086 Y85.044
G1 F1200 X20.524 Y154.319 E60.15993
G0 F6000 X20.524 Y154.1
G0 X18.753 Y154.1
G0 X18.753 Y154.318
G1 F1200 X18.18 Y153.745 E60.18688
G0 F6000 X18.4 Y153.745
G0 X18.4 Y150.469
G0 X18.181 Y150.469
G1 F1200 X216.818 Y97.244 E67.02664
G0 F6000 X216.819 Y97.826
G1 F1200 X205.19 Y86.197 E67.57363
G0 F6000 X205.366 Y86.328
G0 X204.397 Y87.411
G0 X203.006 Y88.733
G0 X202.877 Y88.557
G1 F1200 X216.819 Y84.821 E68.0537
G0 F6000 X216.6 Y84.821
G0 X216.6 Y80.855
G0 X216.819 Y80.855
G1 F1200 X216.644 Y80.68 E68.06194
G0 F6000 X216.644 Y80.9
G0 X214.182 Y80.9
G0 X214.182 Y80.678
G1 F1200 X197.122 Y144.348 E70.25431
G0 F6000 X197.132 Y144.129
G0 X195.469 Y144.148
G0 X195.478 Y144.367
G1 F1200 X131.79 Y80.679 E73.25
G0 F6000 X131.79 Y80.9
G0 X133.431 Y80.9
G0 X133.431 Y80.678
G1 F1200 X113.699 Y154.319 E75.78571
G0 F6000 X113.699 Y154.1
G0 X112.091 Y154.1
G0 X112.091 Y154.318
G1 F1200 X48.454 Y90.681 E78.779
G0 F6000 X48.442 Y90.9
G0 X50.063 Y90.777
G0 X50.032 Y90.558
G1 F1200 X32.947 Y154.319 E80.97451
G0 F6000 X32.947 Y154.1
G0 X35.723 Y154.1
G0 X35.723 Y154.318
G1 F1200 X18.18 Y136.774 E81.7997
G0 F6000 X18.4 Y136.774
G0 X18.4 Y138.046
G0 X18.181 Y138.046
G1 F1200 X195.25 Y90.6 E87.8968
G0 F6000 X195.218 Y90.817
G0 X192.952 Y90.296
G0 X193.026 Y90.09
G1 F1200 X175.815 Y154.319 E90.10843
G0 F6000 X175.815 Y154.1
G0 X171.489 Y154.1
G0 X171.489 Y154.319
G1 F1200 X97.849 Y80.679 E93.57223
G0 F6000 X97.849 Y80.9
G0 X96.161 Y80.9
G0 X96.161 Y80.678
G1 F1200 X76.429 Y154.319 E96.10794
G0 F6000 X76.429 Y154.1
G0 X78.15 Y154.1
G0 X78.15 Y154.318
G1 F1200 X18.18 Y94.348 E98.92875
G0 F6000 X18.181 Y94.564
G1 F1200 X41.723 Y88.256 E99.73938
G0 F6000 X41.575 Y88.418
G0 X43.957 Y89.896
G0 X44.051 Y89.697
G1 F1200 X26.736 Y154.32 E101.96456
G0 F6000 X26.995 Y154.319
G1 F1200 X38.521 Y151.231 E102.36144
G0 F6000 X38.312 Y151.156
G0 X39.184 Y149.367
G0 X39.37 Y149.479
G1 F1200 X18.18 Y128.289 E103.35815
G0 F6000 X18.4 Y128.289
G0 X18.4 Y125.622
G0 X18.182 Y125.622
G1 F1200 X185.818 Y80.704 E109.13044
G0 F6000 X185.63 Y80.87
G0 X183.124 Y80.9
G0 X183.124 Y80.679
G1 F1200 X163.392 Y154.319 E111.66612
G0 F6000 X163.004 Y154.319
G1 F1200 X89.364 Y80.679 E115.12991
G0 F6000 X89.949 Y80.678
G1 F1200 X70.217 Y154.319 E117.66563
G0 F6000 X69.665 Y154.318
G1 F1200 X18.18 Y102.833 E120.08732
G0 F6000 X18.4 Y102.833
G0 X18.4 Y100.776
G0 X18.181 Y100.776
G1 F1200 X93.181 Y80.679 E122.66984
G0 F6000 X93.181 Y80.9
G0 X102.372 Y80.9
G0 X102.372 Y80.679
G1 F1200 X82.641 Y154.319 E125.20551
G0 F6000 X82.641 Y154.1
G0 X73.359 Y154.1
G0 X73.359 Y154.319
G1 F1200 X216.818 Y115.879 E130.14529
G0 F6000 X216.6 Y115.879
G0 X216.6 Y114.796
G0 X216.819 Y114.796
G1 F1200 X191.413 Y89.39 E131.34032
G0 F6000 X191.3 Y89.577
G0 X189.624 Y88.38
G0 X189.177 Y87.977
G0 X187.751 Y86.48
G0 X187.927 Y86.351
G1 F1200 X18.181 Y131.834 E137.18525
G0 F6000 X18.4 Y131.834
G0 X18.4 Y139.883
G0 X18.18 Y139.883
G1 F1200 X34.044 Y80.68 E139.22382
G0 F6000 X34.044 Y80.9
G0 X29.967 Y80.9
G0 X29.967 Y80.68
G1 F1200 X103.606 Y154.318 E142.68755
G0 F6000 X103.606 Y154.1
G0 X101.276 Y154.1
G0 X101.276 Y154.319
G1 F1200 X121.007 Y80.679 E145.22322
G0 F6000 X121.007 Y80.9
G0 X123.305 Y80.9
G0 X123.305 Y80.679
G1 F1200 X189.537 Y146.911 E148.33857
G0 F6000 X189.391 Y146.749
G0 X190.272 Y146.063
G0 X190.403 Y146.241
G1 F1200 X207.971 Y80.678 E150.59613
G1 X208.158 Y80.68
G1 X216.819 Y89.34 E151.00349
G0 F6000 X216.6 Y89.34
G0 X216.6 Y91.032
G0 X216.818 Y91.032
G1 F1200 X18.181 Y144.257 E157.84325
G0 F6000 X18.4 Y144.257
G0 X18.4 Y145.26
G0 X18.18 Y145.26
G1 F1200 X27.238 Y154.318 E158.26931
G0 F6000 X27.238 Y154.1
G0 X40.875 Y147.216
G0 X41.019 Y147.376
G1 F1200 X57.563 Y85.635 E160.39527
G0 F6000 X57.751 Y85.749
G0 X58.693 Y83.84
G0 X58.483 Y83.765
G1 F1200 X69.999 Y80.679 E160.79181
G0 F6000 X69.999 Y80.9
G0 X71.314 Y80.9
G0 X71.314 Y80.678
G1 F1200 X53.871 Y145.778 E163.03342
G0 F6000 X53.984 Y145.591
G0 X55.407 Y146.565
G0 X55.276 Y146.741
G1 F1200 X216.819 Y103.456 E168.59589
G0 F6000 X216.6 Y103.456
G0 X216.6 Y94.021
G0 X216.819 Y94.021
G1 F1200 X202.79 Y146.378 E170.39872
G0 F6000 X202.92 Y146.203
G0 X200.57 Y144.89
G0 X200.495 Y145.1
G1 F1200 X216.819 Y140.726 E170.96081
G0 F6000 X216.819 Y140.386
G1 F1200 X213.085 Y154.319 E171.44058
G0 F6000 X212.452 Y154.319
G1 F1200 X216.818 Y153.149 E171.59092
G0 F6000 X216.6 Y153.149
G0 X213.916 Y154.1
G0 X213.916 Y154.319
G1 F1200 X140.275 Y80.679 E175.05474
G0 F6000 X139.642 Y80.679
G1 F1200 X119.911 Y154.319 E177.59041
G1 X119.723 Y154.319
G1 X216.819 Y128.302 E180.93376
G0 F6000 X216.6 Y128.302
G0 X216.6 Y131.767
G0 X216.819 Y131.767
G1 F1200 X165.731 Y80.679 E183.33679
G0 F6000 X165.731 Y80.9
G0 X164.489 Y80.9
G0 X164.489 Y80.679
G1 F1200 X144.757 Y154.319 E185.87247
G0 F6000 X144.757 Y154.1
G0 X146.033 Y154.1
G0 X146.033 Y154.319
G1 F1200 X72.393 Y80.679 E189.33626
G0 F6000 X72.393 Y80.9
G0 X77.526 Y80.9
G0 X77.526 Y80.678
G1 F1200 X58.562 Y151.453 E191.77329
G0 F6000 X58.773 Y151.379
G0 X64.005 Y154.1
G0 X64.005 Y154.32
G1 F1200 X83.738 Y80.679 E194.30901
G0 F6000 X83.738 Y80.9
G0 X80.878 Y80.9
G0 X80.878 Y80.679
G1 F1200 X154.519 Y154.319 E197.77283
G0 F6000 X154.519 Y154.1
G0 X157.18 Y154.1
G0 X157.18 Y154.319
G1 F1200 X176.912 Y80.679 E200.30851
G0 F6000 X176.912 Y80.9
G0 X174.216 Y80.9
G0 X174.216 Y80.679
G1 F1200 X216.819 Y123.281 E202.3124
G0 F6000 X216.6 Y123.281
G0 X216.6 Y122.091
G0 X216.819 Y122.091
G1 F1200 X96.541 Y154.319 E206.45398
G0 F6000 X96.541 Y154.1
G0 X95.121 Y154.1
