;FLAVOR:Marlin
;TIME:7006
;Filament used: 5.5005m
;Layer height: 0.2
;MINX:90.2
;MINY:52.7
;MINZ:0.2
;MAXX:144.8
;MAXY:182.3
;MAXZ:20
;Generated with Cura_SteamEngine 5.2.1
M140 S60
M105
M190 S60
M104 S200
M105
M109 S200
M82 ;absolute extrusion mode
M201 X500.00 Y500.00 Z100.00 E5000.00 ;Setup machine max acceleration
M203 X500.00 Y500.00 Z10.00 E50.00 ;Setup machine max feedrate
M204 P500.00 R1000.00 T500.00 ;Setup Print/Retract/Travel acceleration
M205 X8.00 Y8.00 Z0.40 E5.00 ;Setup Jerk
M220 S100 ;Reset Feedrate
M221 S100 ;Reset Flowrate

G28 ;Home

G92 E0 ;Reset Extruder
G1 Z2.0 F3000 ;Move Z Axis up
G1 X10.1 Y20 Z0.28 F5000.0 ;Move to start position
G1 X10.1 Y200.0 Z0.28 F1500.0 E15 ;Draw the first line
G1 X10.4 Y200.0 Z0.28 F5000.0 ;Move to side a little
G1 X10.4 Y20 Z0.28 F1500.0 E30 ;Draw the second line
G92 E0 ;Reset Extruder
G1 Z2.0 F3000 ;Move Z Axis up

G92 E0
G92 E0
G1 F1500 E-6.5
;LAYER_COUNT:100
;LAYER:0
M107
;MESH:Player_Box_X_4.stl
G0 F6000 X90.6 Y181.9 Z0.2
;TYPE:WALL-INNER
G1 F1500 E0
G1 F1200 X144.4 Y181.9 E1.7894
G1 X144.4 Y53.1 E6.0733
G1 X90.6 Y53.1 E7.8627
G1 X90.6 Y80 E8.75739
G1 X90.6 Y181.9 E12.1466
G0 F6000 X90.2 Y182.3
;TYPE:WALL-OUTER
G1 F1200 X144.8 Y182.3 E13.9626
G1 X144.8 Y52.7 E18.27312
G1 X90.2 Y52.7 E20.08912
G1 X90.2 Y80 E20.99712
G1 X90.2 Y182.3 E24.39964
G0 F6000 X90.47 Y182.03
G0 X90.9 Y180.736
G0 X90.679 Y180.736
;TYPE:FILL
G1 F1200 X144.318 Y166.364 E26.24661
G0 F6000 X144.1 Y166.364
G0 X144.1 Y169.576
G0 X144.319 Y169.576
G1 F1200 X90.679 Y115.935 E28.76969
G0 F6000 X90.9 Y115.935
G0 X90.9 Y118.62
G0 X90.68 Y118.62
G1 F1200 X144.318 Y104.247 E30.61664
G0 F6000 X144.1 Y104.247
G0 X144.1 Y101.693
G0 X144.319 Y101.693
G1 F1200 X95.805 Y53.18 E32.89856
G0 F6000 X95.805 Y53.4
G0 X97.318 Y53.4
G0 X97.318 Y53.178
G1 F1200 X90.679 Y77.953 E33.75166
G0 F6000 X90.9 Y77.953
G0 X90.9 Y75.138
G0 X90.68 Y75.138
G1 F1200 X144.318 Y60.766 E35.59859
G0 F6000 X144.1 Y60.766
G0 X144.1 Y59.267
G0 X144.319 Y59.267
G1 F1200 X138.232 Y53.18 E35.88491
G0 F6000 X138.232 Y53.4
G0 X140.799 Y53.4
G0 X140.799 Y53.179
G1 F1200 X106.33 Y181.819 E40.31442
G0 F6000 X105.65 Y181.819
G1 F1200 X90.679 Y166.847 E41.01864
G0 F6000 X90.9 Y166.847
G0 X90.9 Y168.313
G0 X90.679 Y168.313
G1 F1200 X144.318 Y153.941 E42.86561
G0 F6000 X144.1 Y153.941
G0 X144.1 Y152.605
G0 X144.319 Y152.605
G1 F1200 X90.679 Y98.965 E45.38867
G0 F6000 X90.9 Y98.965
G0 X90.9 Y99.985
G0 X90.679 Y99.985
G1 F1200 X144.318 Y85.612 E47.23565
G0 F6000 X144.319 Y86.407
G1 F1200 X118.754 Y181.819 E50.521
G0 F6000 X118.754 Y181.6
G0 X122.621 Y181.6
G0 X122.621 Y181.819
G1 F1200 X90.679 Y149.876 E52.02348
G1 X90.679 Y149.678
G1 X144.318 Y135.306 E53.87045
G0 F6000 X144.319 Y135.635
G1 F1200 X90.679 Y81.994 E56.39354
G0 F6000 X90.679 Y81.35
G1 F1200 X144.318 Y66.977 E58.24051
G0 F6000 X144.319 Y67.752
G1 F1200 X129.747 Y53.18 E58.92594
G0 F6000 X129.747 Y53.4
G0 X128.376 Y53.4
G0 X128.376 Y53.179
G1 F1200 X93.907 Y181.819 E63.35545
G0 F6000 X93.907 Y181.6
G0 X97.165 Y181.6
G0 X97.165 Y181.819
G1 F1200 X90.679 Y175.332 E63.66056
G0 F6000 X90.679 Y174.525
G1 F1200 X144.318 Y160.152 E65.50754
G0 F6000 X144.319 Y161.09
G1 F1200 X90.679 Y107.45 E68.0306
G0 F6000 X90.9 Y107.45
G0 X90.9 Y106.196
G0 X90.679 Y106.196
G1 F1200 X144.318 Y91.824 E69.87757
G0 F6000 X144.1 Y91.824
G0 X144.1 Y93.208
G0 X144.319 Y93.208
G1 F1200 X104.291 Y53.18 E71.76036
G0 F6000 X103.529 Y53.179
G1 F1200 X90.679 Y101.135 E73.41165
G0 F6000 X90.9 Y101.135
G0 X90.9 Y93.773
G0 X90.68 Y93.773
G1 F1200 X144.319 Y79.401 E75.25862
G0 F6000 X144.1 Y79.401
G0 X144.1 Y76.238
G0 X144.319 Y76.238
G1 F1200 X121.261 Y53.18 E76.3432
G0 F6000 X122.164 Y53.179
G1 F1200 X90.679 Y170.683 E80.38926
G0 F6000 X90.9 Y170.683
G0 X90.9 Y162.101
G0 X90.679 Y162.101
G1 F1200 X144.318 Y147.729 E82.23623
G0 F6000 X144.1 Y147.729
G0 X144.1 Y144.12
G0 X144.319 Y144.12
G1 F1200 X90.679 Y90.479 E84.75932
G0 F6000 X90.9 Y90.479
G0 X90.9 Y87.561
G0 X90.68 Y87.561
G1 F1200 X144.319 Y73.189 E86.60629
G0 F6000 X144.1 Y73.189
G0 X144.1 Y63.226
G0 X144.319 Y63.226
G1 F1200 X112.542 Y181.819 E90.68985
G0 F6000 X112.542 Y181.6
G0 X114.136 Y181.6
G0 X114.136 Y181.819
G1 F1200 X90.679 Y158.362 E91.7932
G0 F6000 X90.9 Y158.362
G0 X90.9 Y155.89
G0 X90.68 Y155.89
G1 F1200 X144.318 Y141.517 E93.64015
G0 F6000 X144.1 Y141.517
G0 X144.1 Y132.772
G0 X144.319 Y132.772
G1 F1200 X131.177 Y181.819 E95.329
G1 X131.106 Y181.819
G1 X90.679 Y141.391 E97.23059
G0 F6000 X90.9 Y141.391
G0 X90.9 Y143.466
G0 X90.679 Y143.466
G1 F1200 X144.318 Y129.094 E99.07756
G0 F6000 X144.1 Y129.094
G0 X144.1 Y127.149
G0 X144.319 Y127.149
G1 F1200 X90.679 Y73.509 E101.60062
G0 F6000 X90.9 Y73.509
G0 X90.9 Y68.926
G0 X90.68 Y68.926
G1 F1200 X144.319 Y54.554 E103.44759
G0 F6000 X144.1 Y54.554
G0 X134.588 Y53.4
G0 X134.588 Y53.179
G1 F1200 X100.119 Y181.819 E107.8771
G0 F6000 X100.119 Y181.6
G0 X109.819 Y181.6
G0 X109.819 Y181.819
G1 F1200 X144.318 Y172.576 E109.06501
G0 F6000 X144.1 Y172.576
G0 X144.1 Y178.061
G0 X144.319 Y178.061
G1 F1200 X90.679 Y124.421 E111.58807
G1 X90.679 Y124.318
G1 X109.741 Y53.179 E114.03764
G0 F6000 X109.741 Y53.4
G0 X112.776 Y53.4
G0 X112.776 Y53.18
G1 F1200 X144.319 Y84.723 E115.52132
G0 F6000 X144.1 Y84.723
G0 X144.1 Y98.035
G0 X144.319 Y98.035
G1 F1200 X90.68 Y112.408 E117.3683
G0 F6000 X90.9 Y112.408
G0 X90.9 Y124.831
G0 X90.679 Y124.831
G1 F1200 X144.318 Y110.459 E119.21527
G0 F6000 X144.319 Y110.179
G1 F1200 X90.679 Y56.538 E121.73836
G1 X90.68 Y56.503
G1 X103.086 Y53.179 E122.16554
G0 F6000 X103.086 Y53.4
G0 X91.106 Y53.4
G0 X91.106 Y53.179
G1 F1200 X90.68 Y54.771 E122.22035
G0 F6000 X90.9 Y54.771
G0 X90.9 Y62.715
G0 X90.679 Y62.715
G1 F1200 X126.268 Y53.179 E123.4458
G0 F6000 X126.268 Y53.4
G0 X115.953 Y53.4
G0 X115.953 Y53.178
G1 F1200 X90.679 Y147.5 E126.69363
G0 F6000 X90.9 Y147.5
G0 X90.9 Y137.255
G0 X90.68 Y137.255
G1 F1200 X144.318 Y122.882 E128.54058
G0 F6000 X144.1 Y122.882
G0 X144.1 Y118.664
G0 X144.319 Y118.664
G1 F1200 X90.679 Y65.024 E131.06364
G1 F1500 E124.56364
G0 F6000 X90.9 Y65.024
G0 X90.9 Y131.043
G1 F1500 E131.06364
G0 F6000 X90.68 Y131.043
G1 F1200 X144.318 Y116.671 E132.91058
G0 F6000 X144.1 Y116.671
G0 X144.1 Y109.59
G0 X144.319 Y109.59
G1 F1200 X124.965 Y181.819 E135.39767
G0 F6000 X124.965 Y181.6
G0 X133.001 Y181.6
G0 X133.001 Y181.82
G1 F1200 X144.318 Y178.787 E135.78736
G0 F6000 X144.319 Y179.137
G1 F1200 X143.6 Y181.818 E135.87968
G0 F6000 X143.6 Y181.6
G0 X139.592 Y181.6
G0 X139.592 Y181.819
G1 F1200 X90.679 Y132.906 E138.1804
G1 F1500 E131.6804
G0 F6000 X90.9 Y132.906
G0 X144.1 Y155.955
G1 F1500 E138.1804
G0 F6000 X144.319 Y155.955
G1 F1200 X137.389 Y181.819 E139.07099
G0 F6000 X137.389 Y181.3
G1 F1500 E132.57099
;MESH:NONMESH
G0 F300 X137.389 Y181.3 Z0.4
G0 F6000 X90.87 Y181.63
G1 F1500 E139.07099
G0 F6000 X90.6 Y181.9
;TIME_ELAPSED:228.796127
;LAYER:1
M106 S85
;TYPE:WALL-INNER
;MESH:Player_Box_X_4.stl
G1 F1350 X144.4 Y181.9 E140.86038
G1 X144.4 Y53.1 E145.14429
G1 X90.6 Y53.1 E146.93368
G1 X90.6 Y181.9 E151.21759
G0 F7500 X90.2 Y182.3
;TYPE:WALL-OUTER
G1 F1350 X144.8 Y182.3 E153.03359
G1 X144.8 Y52.7 E157.3441
G1 X90.2 Y52.7 E159.16011
G1 X90.2 Y182.3 E163.47062
G0 F7500 X90.47 Y182.03
G0 X90.9 Y180.882
G0 X90.679 Y180.882
;TYPE:FILL
G1 F2100 X144.318 Y166.51 E165.31759
G0 F7500 X144.1 Y166.51
G0 X144.1 Y169.376
G0 X144.319 Y169.376
G1 F2100 X90.679 Y115.736 E167.84065
G0 F7500 X90.9 Y115.736
G0 X90.9 Y118.766
G0 X90.679 Y118.766
G1 F2100 X144.318 Y104.393 E169.68763
G0 F7500 X144.1 Y104.393
G0 X144.1 Y101.494
G0 X144.319 Y101.494
G1 F2100 X96.005 Y53.18 E171.96017
G0 F7500 X96.005 Y53.4
G0 X97.172 Y53.4
G0 X97.172 Y53.179
G1 F2100 X90.68 Y77.408 E172.79446
G0 F7500 X90.9 Y77.408
G0 X90.9 Y75.284
G0 X90.679 Y75.284
G1 F2100 X144.318 Y60.912 E174.64143
G0 F7500 X144.1 Y60.912
G0 X144.1 Y62.681
G0 X144.319 Y62.681
G1 F2100 X112.396 Y181.819 E178.74376
G0 F7500 X112.396 Y181.6
G0 X114.335 Y181.6
G0 X114.335 Y181.819
G1 F2100 X90.679 Y158.162 E179.85649
G0 F7500 X90.9 Y158.162
G0 X90.9 Y156.036
G0 X90.679 Y156.036
G1 F2100 X144.318 Y141.663 E181.70347
G0 F7500 X144.1 Y141.663
G0 X144.1 Y143.92
G0 X144.319 Y143.92
G1 F2100 X90.679 Y90.28 E184.22653
G0 F7500 X90.9 Y90.28
G0 X90.9 Y87.707
G0 X90.68 Y87.707
G1 F2100 X144.319 Y73.335 E186.0735
G0 F7500 X144.1 Y73.335
G0 X144.1 Y76.038
G0 X144.319 Y76.038
G1 F2100 X121.461 Y53.18 E187.14867
G0 F7500 X122.018 Y53.178
G1 F2100 X90.679 Y170.137 E191.17597
G0 F7500 X90.9 Y170.137
G0 X90.9 Y168.459
G0 X90.679 Y168.459
G1 F2100 X144.318 Y154.087 E193.02294
G0 F7500 X144.1 Y154.087
G0 X144.1 Y155.411
G0 X144.319 Y155.411
G1 F2100 X137.243 Y181.819 E193.93225
G0 F7500 X137.243 Y181.6
G0 X139.791 Y181.6
G0 X139.791 Y181.819
G1 F2100 X90.679 Y132.706 E196.24236
G0 F7500 X90.9 Y132.706
G0 X90.9 Y131.189
G0 X90.68 Y131.189
G1 F2100 X144.318 Y116.816 E198.0893
G0 F7500 X144.1 Y116.816
G0 X144.1 Y118.465
G0 X144.319 Y118.465
G1 F2100 X90.679 Y64.824 E200.61239
G0 F7500 X90.9 Y64.824
G0 X90.9 Y62.861
G0 X90.68 Y62.861
G1 F2100 X126.813 Y53.179 E201.85657
G0 F7500 X126.813 Y53.4
G0 X128.23 Y53.4
G0 X128.23 Y53.179
G1 F2100 X93.761 Y181.819 E206.28609
G0 F7500 X93.761 Y181.6
G0 X97.365 Y181.6
G0 X97.365 Y181.819
G1 F2100 X90.679 Y175.133 E206.60058
G0 F7500 X90.68 Y174.671
G1 F2100 X144.318 Y160.298 E208.44752
G0 F7500 X144.319 Y160.891
G1 F2100 X90.679 Y107.251 E210.97058
G0 F7500 X90.68 Y106.342
G1 F2100 X144.319 Y91.97 E212.81755
G0 F7500 X144.1 Y91.97
G0 X144.1 Y93.009
G0 X144.319 Y93.009
G1 F2100 X104.49 Y53.18 E214.69099
G0 F7500 X103.63 Y53.179
G1 F2100 X90.679 Y56.649 E215.13693
G0 F7500 X90.679 Y56.339
G1 F2100 X144.319 Y109.979 E217.65999
G0 F7500 X144.318 Y110.605
G1 F2100 X90.679 Y124.977 E219.50696
G0 F7500 X90.679 Y124.221
G1 F2100 X144.319 Y177.862 E222.03005
G0 F7500 X144.319 Y178.592
G1 F2100 X143.454 Y181.819 E222.14117
G0 F7500 X143.454 Y181.6
G0 X144.1 Y178.933
G0 X144.318 Y178.933
G1 F2100 X133.546 Y181.819 E222.51208
G0 F7500 X133.546 Y181.6
G0 X131.306 Y181.6
G0 X131.306 Y181.819
G1 F2100 X90.679 Y141.192 E224.42305
G0 F7500 X90.9 Y141.192
G0 X90.9 Y143.612
G0 X90.679 Y143.612
G1 F2100 X144.318 Y129.24 E226.27002
G0 F7500 X144.1 Y129.24
G0 X144.1 Y126.95
G0 X144.319 Y126.95
G1 F2100 X90.679 Y73.31 E228.79308
G0 F7500 X90.9 Y73.31
G0 X90.9 Y69.072
G0 X90.68 Y69.072
G1 F2100 X144.319 Y54.7 E230.64005
G0 F7500 X144.1 Y54.7
G0 X140.653 Y53.4
G0 X140.653 Y53.178
G1 F2100 X106.184 Y181.819 E235.0696
G0 F7500 X105.85 Y181.819
G1 F2100 X90.679 Y166.648 E235.7832
G0 F7500 X90.9 Y166.648
G0 X90.9 Y162.247
G0 X90.679 Y162.247
G1 F2100 X144.318 Y147.875 E237.63017
G0 F7500 X144.1 Y147.875
G0 X144.1 Y152.406
G0 X144.319 Y152.406
G1 F2100 X90.679 Y98.765 E240.15325
G0 F7500 X90.9 Y98.765
G0 X90.9 Y100.131
G0 X90.679 Y100.131
G1 F2100 X144.318 Y85.758 E242.00023
G1 X144.319 Y85.863
G1 X118.608 Y181.819 E245.30432
G0 F7500 X118.608 Y181.6
G0 X122.82 Y181.6
G0 X122.82 Y181.819
G1 F2100 X90.679 Y149.677 E246.81616
G1 X90.68 Y149.824
G1 X144.319 Y135.451 E248.66314
G1 X144.319 Y135.435
G1 X90.679 Y81.795 E251.1862
G0 F7500 X90.679 Y81.496
G1 F2100 X144.318 Y67.123 E253.03318
G0 F7500 X144.319 Y67.553
G1 F2100 X129.946 Y53.18 E253.70924
G0 F7500 X129.946 Y53.4
G0 X134.442 Y53.4
G0 X134.442 Y53.179
G1 F2100 X99.973 Y181.819 E258.13876
G0 F7500 X99.973 Y181.6
G0 X110.364 Y181.6
G0 X110.364 Y181.82
G1 F2100 X144.318 Y172.722 E259.30791
G0 F7500 X144.1 Y172.722
G0 X131.031 Y181.6
G0 X131.031 Y181.819
G1 F2100 X144.319 Y132.228 E261.0155
G0 F7500 X144.1 Y132.228
G0 X144.1 Y123.028
G0 X144.318 Y123.028
G1 F2100 X90.679 Y137.401 E262.86248
G0 F7500 X90.9 Y137.401
G0 X90.9 Y146.956
G0 X90.679 Y146.956
G1 F2100 X115.807 Y53.179 E266.09155
G0 F7500 X115.807 Y53.4
G0 X112.975 Y53.4
G0 X112.975 Y53.18
G1 F2100 X144.319 Y84.524 E267.56587
G0 F7500 X144.1 Y84.524
G0 X144.1 Y79.547
G0 X144.318 Y79.547
G1 F2100 X90.68 Y93.919 E269.41281
G0 F7500 X90.9 Y93.919
G0 X90.9 Y100.591
G0 X90.679 Y100.591
G1 F2100 X103.384 Y53.178 E271.04541
G0 F7500 X103.384 Y53.4
G0 X109.595 Y53.4
G0 X109.595 Y53.179
G1 F2100 X90.679 Y123.773 E273.4762
G0 F7500 X90.9 Y123.773
G0 X90.9 Y112.554
G0 X90.68 Y112.554
G1 F2100 X144.318 Y98.181 E275.32315
G0 F7500 X144.1 Y98.181
G0 X144.1 Y109.046
G0 X144.319 Y109.046
G1 F2100 X124.819 Y181.819 E277.82898
G1 F1500 E271.32898
G0 F7500 X124.819 Y181.6
G0 X144.1 Y59.068
G1 F1500 E277.82898
G0 F7500 X144.319 Y59.068
G1 F2100 X138.431 Y53.18 E278.10593
G1 F1500 E271.60593
G0 F7500 X138.431 Y53.4
G0 X90.96 Y53.4
G1 F1500 E278.10593
G0 F7500 X90.96 Y53.179
G1 F2100 X90.68 Y54.226 E278.14198
G0 F7500 X91.2 Y54.226
G1 F1500 E271.64198
;MESH:NONMESH
G0 F300 X91.2 Y54.226 Z0.6
G0 F7500 X90.87 Y181.63
G1 F1500 E278.14198
G0 F7500 X90.6 Y181.9
;TIME_ELAPSED:376.673128
;LAYER:2
M106 S170
;TYPE:WALL-INNER
;MESH:Player_Box_X_4.stl
G1 F1500 X144.4 Y181.9 E279.93137
G1 X144.4 Y53.1 E284.21528
G1 X90.6 Y53.1 E286.00467
G1 X90.6 Y181.9 E290.28858
G0 F9000 X90.2 Y182.3
;TYPE:WALL-OUTER
G1 F1500 X144.8 Y182.3 E292.10458
G1 X144.8 Y52.7 E296.4151
G1 X90.2 Y52.7 E298.2311
G1 X90.2 Y182.3 E302.54161
G0 F9000 X90.47 Y182.03
G0 X90.9 Y181.029
G0 X90.679 Y181.029
;TYPE:FILL
G1 F3000 X144.318 Y166.657 E304.38858
G0 F9000 X144.1 Y166.657
G0 X144.1 Y169.176
G0 X144.319 Y169.176
G1 F3000 X90.679 Y115.535 E306.91167
G0 F9000 X90.9 Y115.535
G0 X90.9 Y112.701
G0 X90.68 Y112.701
G1 F3000 X144.318 Y98.328 E308.75861
G0 F9000 X144.1 Y98.328
G0 X144.1 Y101.293
G0 X144.319 Y101.293
G1 F3000 X96.206 Y53.18 E311.0217
G0 F9000 X97.025 Y53.179
G1 F3000 X90.68 Y76.859 E311.83709
G0 F9000 X90.9 Y76.859
G0 X90.9 Y75.431
G0 X90.679 Y75.431
G1 F3000 X144.318 Y61.059 E313.68406
G0 F9000 X144.1 Y61.059
G0 X144.1 Y62.132
G0 X144.319 Y62.132
G1 F3000 X112.249 Y181.819 E317.80529
G0 F9000 X112.249 Y181.6
G0 X110.912 Y181.6
G0 X110.912 Y181.82
G1 F3000 X144.318 Y172.869 E318.95557
G0 F9000 X144.1 Y172.869
G0 X144.1 Y177.661
G0 X144.319 Y177.661
G1 F3000 X90.679 Y124.02 E321.47866
G0 F9000 X90.68 Y123.224
G1 F3000 X109.448 Y53.179 E323.89054
G0 F9000 X109.448 Y53.4
G0 X113.176 Y53.4
G0 X113.176 Y53.18
G1 F3000 X144.319 Y84.323 E325.35541
G0 F9000 X144.319 Y85.314
G1 F3000 X118.461 Y181.819 E328.67841
G0 F9000 X118.461 Y181.6
G0 X114.536 Y181.6
G0 X114.536 Y181.819
G1 F3000 X90.679 Y157.961 E329.80059
G0 F9000 X90.9 Y157.961
G0 X90.9 Y156.183
G0 X90.68 Y156.183
G1 F3000 X144.318 Y141.81 E331.64754
G0 F9000 X144.1 Y141.81
G0 X144.1 Y143.72
G0 X144.319 Y143.72
G1 F3000 X90.679 Y90.079 E334.17062
G0 F9000 X90.9 Y90.079
G0 X90.9 Y87.854
G0 X90.68 Y87.854
G1 F3000 X144.319 Y73.482 E336.01759
G0 F9000 X144.1 Y73.482
G0 X144.1 Y75.837
G0 X144.319 Y75.837
G1 F3000 X121.661 Y53.18 E337.08333
G0 F9000 X121.871 Y53.178
G1 F3000 X90.679 Y169.589 E341.09176
G0 F9000 X90.679 Y168.606
G1 F3000 X144.318 Y154.234 E342.93873
G0 F9000 X144.319 Y154.862
G1 F3000 X137.096 Y181.819 E343.86695
G0 F9000 X137.096 Y181.6
G0 X139.992 Y181.6
G0 X139.992 Y181.819
G1 F3000 X90.679 Y132.506 E346.18648
G0 F9000 X90.9 Y132.506
G0 X90.9 Y131.336
G0 X90.68 Y131.336
G1 F3000 X144.319 Y116.963 E348.03346
G0 F9000 X144.1 Y116.963
G0 X144.1 Y118.264
G0 X144.319 Y118.264
G1 F3000 X90.679 Y64.623 E350.55654
G0 F9000 X90.9 Y64.623
G0 X90.9 Y63.008
G0 X90.68 Y63.008
G1 F3000 X127.362 Y53.179 E351.81963
G0 F9000 X128.083 Y53.179
G1 F3000 X93.614 Y181.819 E356.24915
G0 F9000 X93.614 Y181.6
G0 X97.565 Y181.6
G0 X97.565 Y181.819
G1 F3000 X90.679 Y174.932 E356.57307
G1 X90.68 Y174.818
G1 X144.318 Y160.445 E358.42001
G0 F9000 X144.319 Y160.69
G1 F3000 X90.679 Y107.05 E360.94308
G0 F9000 X90.68 Y106.489
G1 F3000 X144.319 Y92.117 E362.79005
G0 F9000 X144.319 Y92.808
G1 F3000 X104.691 Y53.18 E364.65402
G0 F9000 X104.179 Y53.179
G1 F3000 X90.679 Y56.796 E365.11887
G0 F9000 X90.679 Y56.138
G1 F3000 X144.319 Y109.779 E367.64196
G0 F9000 X144.318 Y110.752
G1 F3000 X90.679 Y125.124 E369.48893
G0 F9000 X90.9 Y125.124
G0 X90.9 Y118.913
G0 X90.679 Y118.913
G1 F3000 X144.318 Y104.54 E371.33591
G0 F9000 X144.1 Y104.54
G0 X144.1 Y108.497
G0 X144.319 Y108.497
G1 F3000 X124.672 Y181.819 E373.86064
G0 F9000 X124.672 Y181.6
G0 X123.021 Y181.6
