;FLAVOR:Marlin
;TIME:24116
;Filament used: 19.0691m
;Layer height: 0.2
;MINX:75.2
;MINY:40.2
;MINZ:0.2
;MAXX:159.8
;MAXY:194.8
;MAXZ:40
;Generated with Cura_SteamEngine 5.2.1
M140 S60
M105
M190 S60
M104 S200
M105
M109 S200
M82 ;absolute extrusion mode
M201 X500.00 Y500.00 Z100.00 E5000.00 ;Setup machine max acceleration
M203 X500.00 Y500.00 Z10.00 E50.00 ;Setup machine max feedrate
M204 P500.00 R1000.00 T500.00 ;Setup Print/Retract/Travel acceleration
M205 X8.00 Y8.00 Z0.40 E5.00 ;Setup Jerk
M220 S100 ;Reset Feedrate
M221 S100 ;Reset Flowrate

G28 ;Home

G92 E0 ;Reset Extruder
G1 Z2.0 F3000 ;Move Z Axis up
G1 X10.1 Y20 Z0.28 F5000.0 ;Move to start position
G1 X10.1 Y200.0 Z0.28 F1500.0 E15 ;Draw the first line
G1 X10.4 Y200.0 Z0.28 F5000.0 ;Move to side a little
G1 X10.4 Y20 Z0.28 F1500.0 E30 ;Draw the second line
G92 E0 ;Reset Extruder
G1 Z2.0 F3000 ;Move Z Axis up

G92 E0
G92 E0
G1 F1500 E-6.5
;LAYER_COUNT:200
;LAYER:0
M107
;MESH:Resources.stl
G0 F6000 X75.6 Y194.4 Z0.2
;TYPE:WALL-INNER
G1 F1500 E0
G1 F1200 X159.4 Y194.4 E2.7872
G1 X159.4 Y40.6 E7.90261
G1 X75.6 Y40.6 E10.68981
G1 X75.6 Y194.4 E15.80522
G0 F6000 X75.2 Y194.8
;TYPE:WALL-OUTER
G1 F1200 X159.8 Y194.8 E18.61902
G1 X159.8 Y40.2 E23.76104
G1 X75.2 Y40.2 E26.57485
G1 X75.2 Y194.8 E31.71686
G0 F6000 X75.47 Y194.53
G0 X78.134 Y194.1
G0 X78.134 Y194.32
;TYPE:FILL
G1 F1200 X119.302 Y40.679 E37.00725
G0 F6000 X119.302 Y40.9
G0 X117.246 Y40.9
G0 X117.246 Y40.679
G1 F1200 X159.32 Y82.753 E38.98628
G0 F6000 X159.1 Y82.753
G0 X159.1 Y81.593
G0 X159.318 Y81.593
G1 F1200 X75.68 Y104.004 E41.86623
G0 F6000 X75.9 Y104.004
G0 X75.9 Y100.935
G0 X75.678 Y100.935
G1 F1200 X159.32 Y184.576 E45.80047
G0 F6000 X159.1 Y184.576
G0 X159.1 Y187.191
G0 X159.318 Y187.191
G1 F1200 X132.716 Y194.319 E46.71647
G0 F6000 X132.716 Y194.1
G0 X134.039 Y194.1
G0 X134.039 Y194.32
G1 F1200 X159.319 Y99.972 E49.96519
G0 F6000 X159.32 Y99.723
G1 F1200 X100.276 Y40.679 E52.74244
G0 F6000 X100.667 Y40.678
G1 F1200 X75.679 Y133.936 E55.95362
G0 F6000 X75.678 Y134.876
G1 F1200 X135.121 Y194.319 E58.74964
G0 F6000 X135.121 Y194.1
G0 X140.251 Y194.1
G0 X140.251 Y194.319
G1 F1200 X159.319 Y123.154 E61.20009
G0 F6000 X159.1 Y123.154
G0 X159.1 Y125.075
G0 X159.318 Y125.075
G1 F1200 X75.679 Y147.486 E64.08007
G0 F6000 X75.9 Y147.486
G0 X75.9 Y143.361
G0 X75.678 Y143.361
G1 F1200 X126.636 Y194.319 E66.47698
G0 F6000 X126.636 Y194.1
G0 X127.828 Y194.1
G0 X127.828 Y194.319
G1 F1200 X159.319 Y76.79 E70.52389
G0 F6000 X159.1 Y76.79
G0 X159.1 Y75.381
G0 X159.318 Y75.381
G1 F1200 X75.68 Y97.792 E73.40384
G0 F6000 X75.9 Y97.792
G0 X75.9 Y92.449
G0 X75.678 Y92.449
G1 F1200 X159.32 Y176.091 E77.3381
G0 F6000 X159.1 Y176.091
G0 X159.1 Y174.768
G0 X159.319 Y174.768
G1 F1200 X86.351 Y194.319 E79.85064
G0 F6000 X86.351 Y194.1
G0 X84.346 Y194.1
G0 X84.346 Y194.319
G1 F1200 X125.514 Y40.679 E85.14099
G0 F6000 X125.732 Y40.679
G1 F1200 X159.32 Y74.268 E86.72089
G0 F6000 X159.1 Y74.268
G0 X159.1 Y69.17
G0 X159.319 Y69.17
G1 F1200 X75.679 Y91.581 E89.6009
G0 F6000 X75.9 Y91.581
G0 X75.9 Y87.57
G0 X75.679 Y87.57
G1 F1200 X88.244 Y40.679 E91.21552
G0 F6000 X88.244 Y40.9
G0 X91.79 Y40.9
G0 X91.79 Y40.679
G1 F1200 X159.32 Y108.209 E94.39193
G0 F6000 X159.1 Y108.209
G0 X159.1 Y106.44
G0 X159.318 Y106.44
G1 F1200 X75.679 Y128.851 E97.2719
G0 F6000 X75.9 Y128.851
G0 X75.9 Y126.391
G0 X75.678 Y126.391
G1 F1200 X143.607 Y194.319 E100.46705
G0 F6000 X143.607 Y194.1
G0 X146.462 Y194.1
G0 X146.462 Y194.319
G1 F1200 X159.32 Y146.336 E102.11928
G0 F6000 X159.1 Y146.336
G0 X159.1 Y143.71
G0 X159.318 Y143.71
G1 F1200 X75.68 Y166.121 E104.99922
G0 F6000 X75.9 Y166.121
G0 X75.9 Y168.817
G0 X75.678 Y168.817
G1 F1200 X101.18 Y194.319 E106.19876
G0 F6000 X101.18 Y194.1
G0 X102.981 Y194.1
G0 X102.981 Y194.319
G1 F1200 X144.149 Y40.679 E111.48911
G0 F6000 X144.149 Y40.9
G0 X142.702 Y40.9
G0 X142.702 Y40.679
G1 F1200 X159.32 Y57.297 E112.27077
G0 F6000 X159.318 Y56.746
G1 F1200 X75.68 Y79.157 E115.15072
G0 F6000 X75.9 Y79.157
G0 X75.9 Y75.479
G0 X75.678 Y75.479
G1 F1200 X159.32 Y159.12 E119.08496
G0 F6000 X159.1 Y159.12
G0 X159.1 Y156.133
G0 X159.318 Y156.133
G1 F1200 X75.68 Y178.544 E121.9649
G0 F6000 X75.9 Y178.544
G0 X75.9 Y177.302
G0 X75.678 Y177.302
G1 F1200 X92.695 Y194.319 E122.76533
G0 F6000 X92.695 Y194.1
G0 X90.557 Y194.1
G0 X90.557 Y194.32
G1 F1200 X131.725 Y40.679 E128.05572
G0 F6000 X131.725 Y40.9
G0 X134.217 Y40.9
G0 X134.217 Y40.679
G1 F1200 X159.32 Y65.782 E129.23649
G0 F6000 X159.1 Y65.782
G0 X159.1 Y62.958
G0 X159.318 Y62.958
G1 F1200 X75.679 Y85.369 E132.11646
G0 F6000 X75.9 Y85.369
G0 X75.9 Y83.964
G0 X75.678 Y83.964
G1 F1200 X159.32 Y167.606 E136.05073
G0 F6000 X159.318 Y168.556
G1 F1200 X75.679 Y190.967 E138.9307
G0 F6000 X75.9 Y190.967
G0 X75.9 Y185.788
G0 X75.678 Y185.788
G1 F1200 X84.21 Y194.319 E139.332
G0 F6000 X84.21 Y194.1
G0 X96.769 Y194.1
G0 X96.769 Y194.32
G1 F1200 X137.937 Y40.679 E144.62238
G0 F6000 X137.937 Y40.9
G0 X126.554 Y40.9
G0 X126.554 Y40.679
G1 F1200 X75.679 Y54.311 E146.37419
G0 F6000 X75.9 Y54.311
G0 X75.9 Y58.508
G0 X75.678 Y58.508
G1 F1200 X159.32 Y142.15 E150.30845
G0 F6000 X159.1 Y142.15
G0 X159.1 Y137.498
G0 X159.318 Y137.498
G1 F1200 X75.68 Y159.909 E153.18839
G0 F6000 X75.678 Y160.332
G1 F1200 X109.665 Y194.319 E154.78704
G1 X109.533 Y194.319
G1 X159.318 Y180.98 E156.5013
G0 F6000 X159.1 Y180.98
G0 X159.1 Y169.519
G0 X159.319 Y169.519
G1 F1200 X152.674 Y194.319 E157.35525
G0 F6000 X152.092 Y194.319
G1 F1200 X75.678 Y117.905 E160.94953
G0 F6000 X75.9 Y117.905
G0 X75.9 Y116.427
G0 X75.679 Y116.427
G1 F1200 X159.318 Y94.016 E163.8295
G0 F6000 X159.1 Y94.016
G0 X159.1 Y91.238
G0 X159.32 Y91.238
G1 F1200 X108.761 Y40.679 E166.20765
G0 F6000 X108.761 Y40.9
G0 X106.879 Y40.9
G0 X106.879 Y40.679
G1 F1200 X75.679 Y157.117 E170.21701
G0 F6000 X75.9 Y157.117
G0 X75.9 Y153.697
G0 X75.679 Y153.697
G1 F1200 X159.319 Y131.286 E173.09702
G0 F6000 X159.1 Y131.286
G0 X159.1 Y133.665
G0 X159.32 Y133.665
G1 F1200 X75.678 Y50.023 E177.03128
G0 F6000 X75.9 Y50.023
G0 X75.9 Y48.099
G0 X75.679 Y48.099
G1 F1200 X103.371 Y40.679 E177.98481
G0 F6000 X103.371 Y40.9
G0 X94.455 Y40.9
G0 X94.455 Y40.679
G1 F1200 X75.679 Y110.753 E180.3977
G0 F6000 X75.679 Y110.216
G1 F1200 X159.318 Y87.805 E183.27767
G0 F6000 X159.1 Y87.805
G0 X159.1 Y100.228
G0 X159.318 Y100.228
G1 F1200 X75.68 Y122.639 E186.15762
G0 F6000 X75.9 Y122.639
G0 X75.9 Y135.062
G0 X75.679 Y135.062
G1 F1200 X159.319 Y112.651 E189.03763
G0 F6000 X159.1 Y112.651
G0 X159.1 Y116.694
G0 X159.32 Y116.694
G1 F1200 X83.305 Y40.679 E192.61314
G0 F6000 X83.305 Y40.9
G0 X82.032 Y40.9
G0 X82.032 Y40.678
G1 F1200 X75.68 Y64.387 E193.42952
G0 F6000 X75.9 Y64.387
G0 X75.9 Y66.734
G0 X75.679 Y66.734
G1 F1200 X159.318 Y44.323 E196.30949
G0 F6000 X159.1 Y44.323
G0 X159.1 Y48.812
G0 X159.32 Y48.812
G1 F1200 X151.187 Y40.679 E196.69205
G0 F6000 X150.36 Y40.679
G1 F1200 X109.193 Y194.319 E201.98239
G0 F6000 X109.193 Y194.1
G0 X115.404 Y194.1
G0 X115.404 Y194.32
G1 F1200 X156.572 Y40.68 E207.27274
G0 F6000 X156.572 Y40.9
G0 X149.737 Y40.9
G0 X149.737 Y40.679
G1 F1200 X75.68 Y60.522 E209.82278
G0 F6000 X75.9 Y60.522
G0 X75.9 Y66.994
G0 X75.678 Y66.994
G1 F1200 X159.32 Y150.635 E213.75702
G0 F6000 X159.319 Y149.921
G1 F1200 X75.679 Y172.332 E216.63703
G0 F6000 X75.9 Y172.332
G0 X75.9 Y180.3
G0 X75.679 Y180.3
G1 F1200 X113.09 Y40.679 E221.44465
G1 F1500 E214.94465
G0 F6000 X113.09 Y40.9
G0 X80.189 Y40.9
G1 F1500 E221.44465
G0 F6000 X80.189 Y40.679
G1 F1200 X75.68 Y41.887 E221.59991
G0 F6000 X75.678 Y41.538
G1 F1200 X159.32 Y125.179 E225.53415
G0 F6000 X159.1 Y125.179
G0 X159.1 Y118.863
G0 X159.318 Y118.863
G1 F1200 X75.68 Y141.274 E228.4141
G0 F6000 X75.9 Y141.274
G0 X75.9 Y151.846
G0 X75.678 Y151.846
G1 F1200 X118.151 Y194.319 E230.4119
G0 F6000 X118.151 Y194.1
G0 X121.616 Y194.1
G0 X121.616 Y194.319
G1 F1200 X159.319 Y53.608 E235.25705
G0 F6000 X159.1 Y53.608
G0 X159.1 Y50.535
G0 X159.319 Y50.535
G1 F1200 X75.679 Y72.946 E238.13706
G1 F1500 E231.63706
G0 F6000 X75.9 Y72.946
G0 X75.9 Y41.204
G1 F1500 E238.13706
G0 F6000 X75.68 Y41.204
G1 F1200 X75.821 Y40.679 E238.15514
G1 F1500 E231.65514
G0 F6000 X75.821 Y40.9
G0 X75.9 Y109.42
G1 F1500 E238.15514
G0 F6000 X75.678 Y109.42
G1 F1200 X159.32 Y193.062 E242.08941
G0 F6000 X159.319 Y193.403
G1 F1200 X155.899 Y194.319 E242.20717
G0 F6000 X155.899 Y194.1
G0 X158.886 Y194.1
G0 X158.886 Y194.32
G1 F1200 X159.319 Y192.701 E242.26291
G1 F1500 E235.76291
G0 F6000 X159.1 Y192.701
G0 X159.1 Y162.345
G1 F1500 E242.26291
G0 F6000 X159.318 Y162.345
G1 F1200 X75.68 Y184.755 E245.14284
G0 F6000 X76.2 Y184.755
;MESH:NONMESH
G0 F300 X76.2 Y184.755 Z0.4
G0 F6000 X75.87 Y194.13
G0 X75.6 Y194.4
;TIME_ELAPSED:392.534400
;LAYER:1
M106 S85
;TYPE:WALL-INNER
;MESH:Resources.stl
G1 F1350 X159.4 Y194.4 E247.93004
G1 X159.4 Y40.6 E253.04545
G1 X75.6 Y40.6 E255.83265
G1 X75.6 Y194.4 E260.94806
G0 F7500 X75.2 Y194.8
;TYPE:WALL-OUTER
G1 F1350 X159.8 Y194.8 E263.76187
G1 X159.8 Y40.2 E268.90388
G1 X75.2 Y40.2 E271.71769
G1 X75.2 Y194.8 E276.85971
G0 F7500 X75.924 Y194.319
;TYPE:FILL
G1 F2100 X75.678 Y194.073 E276.87128
G0 F7500 X75.9 Y194.073
G0 X77.988 Y194.1
G0 X77.988 Y194.32
G1 F2100 X119.156 Y40.679 E282.16166
G0 F7500 X119.156 Y40.9
G0 X117.446 Y40.9
G0 X117.446 Y40.679
G1 F2100 X159.32 Y82.554 E284.13131
G0 F7500 X159.318 Y81.739
G1 F2100 X75.679 Y104.15 E287.01129
G0 F7500 X75.9 Y104.15
G0 X75.9 Y100.735
G0 X75.678 Y100.735
G1 F2100 X159.32 Y184.377 E290.94555
G0 F7500 X159.1 Y184.377
G0 X159.1 Y187.337
G0 X159.319 Y187.337
G1 F2100 X133.261 Y194.319 E291.84282
G0 F7500 X133.893 Y194.319
G1 F2100 X159.319 Y99.427 E295.11027
G1 X159.32 Y99.524
G1 X100.475 Y40.679 E297.87816
G1 X100.521 Y40.679
G1 X75.679 Y133.39 E301.07052
G0 F7500 X75.9 Y133.39
G0 X75.9 Y134.676
G0 X75.678 Y134.676
G1 F2100 X135.321 Y194.319 E303.87594
G0 F7500 X135.321 Y194.1
G0 X140.105 Y194.1
G0 X140.105 Y194.32
G1 F2100 X159.319 Y122.609 E306.34519
G0 F7500 X159.1 Y122.609
G0 X159.1 Y124.98
G0 X159.32 Y124.98
G1 F2100 X75.678 Y41.338 E310.27945
G0 F7500 X75.679 Y42.033
G1 F2100 X80.733 Y40.679 E310.45348
G0 F7500 X80.733 Y40.9
G0 X81.886 Y40.9
G0 X81.886 Y40.678
G1 F2100 X75.679 Y63.842 E311.2511
G0 F7500 X75.9 Y63.842
G0 X75.9 Y66.794
G0 X75.678 Y66.794
G1 F2100 X159.32 Y150.436 E315.18536
G0 F7500 X159.319 Y150.067
G1 F2100 X75.679 Y172.478 E318.06537
G0 F7500 X75.9 Y172.478
G0 X75.9 Y168.618
G0 X75.678 Y168.618
G1 F2100 X101.38 Y194.319 E319.27429
G0 F7500 X101.38 Y194.1
G0 X102.835 Y194.1
G0 X102.835 Y194.32
G1 F2100 X144.003 Y40.679 E324.56467
G0 F7500 X144.003 Y40.9
G0 X142.902 Y40.9
G0 X142.902 Y40.679
G1 F2100 X159.32 Y57.098 E325.33695
G0 F7500 X159.318 Y56.892
G1 F2100 X75.68 Y79.303 E328.2169
G0 F7500 X75.9 Y79.303
G0 X75.9 Y75.28
G0 X75.678 Y75.28
G1 F2100 X159.32 Y158.921 E332.15114
G0 F7500 X159.1 Y158.921
G0 X159.1 Y156.279
G0 X159.318 Y156.279
G1 F2100 X75.68 Y178.69 E335.03108
G0 F7500 X75.9 Y178.69
G0 X75.9 Y179.756
G0 X75.679 Y179.756
G1 F2100 X112.944 Y40.679 E339.81997
G0 F7500 X112.944 Y40.9
G0 X108.96 Y40.9
G0 X108.96 Y40.679
G1 F2100 X159.32 Y91.039 E342.18875
G0 F7500 X159.1 Y91.039
G0 X159.1 Y87.951
G0 X159.319 Y87.951
G1 F2100 X75.679 Y110.362 E345.06876
G1 X75.679 Y110.207
G1 X94.309 Y40.679 E347.46285
G0 F7500 X94.309 Y40.9
G0 X91.99 Y40.9
G0 X91.99 Y40.679
G1 F2100 X159.32 Y108.009 E350.62985
G0 F7500 X159.1 Y108.009
G0 X159.1 Y106.585
G0 X159.319 Y106.585
G1 F2100 X75.679 Y128.997 E353.50987
G0 F7500 X75.9 Y128.997
G0 X75.9 Y126.191
G0 X75.678 Y126.191
G1 F2100 X143.806 Y194.319 E356.7144
G0 F7500 X143.806 Y194.1
G0 X146.316 Y194.1
G0 X146.316 Y194.319
G1 F2100 X159.32 Y145.791 E358.38539
G0 F7500 X159.1 Y145.791
G0 X159.1 Y143.856
G0 X159.318 Y143.856
G1 F2100 X75.679 Y166.267 E361.26537
G0 F7500 X75.9 Y166.267
G0 X75.9 Y160.132
G0 X75.678 Y160.132
G1 F2100 X109.865 Y194.319 E362.87342
G0 F7500 X110.078 Y194.319
G1 F2100 X159.318 Y181.126 E364.56891
G0 F7500 X159.1 Y181.126
G0 X159.1 Y175.892
G0 X159.32 Y175.892
G1 F2100 X75.678 Y92.25 E368.50318
G0 F7500 X75.679 Y91.727
G1 F2100 X159.318 Y69.316 E371.38316
G0 F7500 X159.1 Y69.316
G0 X159.1 Y65.583
G0 X159.32 Y65.583
G1 F2100 X134.416 Y40.679 E372.55456
G0 F7500 X134.416 Y40.9
G0 X131.579 Y40.9
G0 X131.579 Y40.679
G1 F2100 X90.412 Y194.319 E377.84491
G0 F7500 X90.412 Y194.1
G0 X92.894 Y194.1
G0 X92.894 Y194.319
G1 F2100 X75.678 Y177.103 E378.6547
G0 F7500 X75.9 Y177.103
G0 X75.9 Y184.901
G0 X75.679 Y184.901
G1 F2100 X159.318 Y162.491 E381.53466
G0 F7500 X159.1 Y162.491
G0 X159.1 Y167.406
G0 X159.32 Y167.406
G1 F2100 X75.678 Y83.765 E385.4689
G0 F7500 X75.9 Y83.765
G0 X75.9 Y85.515
G0 X75.679 Y85.515
G1 F2100 X159.318 Y63.104 E388.34888
G0 F7500 X159.1 Y63.104
G0 X159.1 Y53.064
G0 X159.319 Y53.064
G1 F2100 X121.47 Y194.32 E393.21281
G0 F7500 X121.47 Y194.1
G0 X118.35 Y194.1
G0 X118.35 Y194.319
G1 F2100 X75.678 Y151.647 E395.21997
G0 F7500 X75.9 Y151.647
G0 X75.9 Y153.843
G0 X75.68 Y153.843
G1 F2100 X159.318 Y131.432 E398.09991
G0 F7500 X159.1 Y131.432
G0 X159.1 Y133.465
G0 X159.32 Y133.465
G1 F2100 X75.678 Y49.824 E402.03415
G0 F7500 X75.9 Y49.824
G0 X75.9 Y48.245
G0 X75.679 Y48.245
G1 F2100 X103.916 Y40.679 E403.00645
G0 F7500 X103.916 Y40.9
G0 X106.733 Y40.9
G0 X106.733 Y40.679
G1 F2100 X75.679 Y156.573 E406.99708
G0 F7500 X75.9 Y156.573
G0 X75.9 Y160.055
G0 X75.68 Y160.055
G1 F2100 X159.318 Y137.644 E409.87702
G0 F7500 X159.1 Y137.644
G0 X159.1 Y141.95
G0 X159.32 Y141.95
G1 F2100 X75.678 Y58.309 E413.81126
G0 F7500 X75.9 Y58.309
G0 X75.9 Y60.668
G0 X75.679 Y60.668
G1 F2100 X150.282 Y40.679 E416.38009
G1 X150.214 Y40.679
G1 X109.047 Y194.319 E421.67044
G0 F7500 X109.047 Y194.1
G0 X115.258 Y194.1
G0 X115.258 Y194.319
G1 F2100 X156.426 Y40.679 E426.96079
G0 F7500 X156.426 Y40.9
G0 X159.1 Y44.469
G0 X159.319 Y44.469
G1 F2100 X75.679 Y66.88 E429.8408
G0 F7500 X75.9 Y66.88
G0 X75.9 Y73.092
G0 X75.68 Y73.092
G1 F2100 X159.318 Y50.681 E432.72075
G0 F7500 X159.1 Y50.681
G0 X159.1 Y48.612
G0 X159.32 Y48.612
G1 F2100 X151.387 Y40.679 E433.09389
G0 F7500 X151.387 Y40.9
G0 X137.791 Y40.9
G0 X137.791 Y40.679
G1 F2100 X96.623 Y194.32 E438.38428
G0 F7500 X96.623 Y194.1
G0 X86.895 Y194.1
G0 X86.895 Y194.32
G1 F2100 X159.318 Y174.914 E440.87805
G0 F7500 X159.1 Y174.914
G0 X159.1 Y168.973
G0 X159.32 Y168.973
G1 F2100 X152.528 Y194.319 E441.7508
G0 F7500 X152.291 Y194.319
G1 F2100 X75.678 Y117.706 E445.35445
G0 F7500 X75.9 Y117.706
G0 X75.9 Y116.573
G0 X75.68 Y116.573
G1 F2100 X159.318 Y94.162 E448.23439
G0 F7500 X159.1 Y94.162
G0 X159.1 Y100.374
G0 X159.318 Y100.374
G1 F2100 X75.679 Y122.785 E451.11437
G0 F7500 X75.9 Y122.785
G0 X75.9 Y135.208
G0 X75.68 Y135.208
G1 F2100 X159.318 Y112.797 E453.99431
G0 F7500 X159.1 Y112.797
G0 X159.1 Y116.495
G0 X159.32 Y116.495
G1 F2100 X83.505 Y40.679 E457.56044
G0 F7500 X83.505 Y40.9
G0 X88.098 Y40.9
G0 X88.098 Y40.679
G1 F2100 X75.679 Y87.025 E459.1563
G0 F7500 X75.9 Y87.025
G0 X75.9 Y97.938
G0 X75.68 Y97.938
G1 F2100 X159.318 Y75.527 E462.03624
G0 F7500 X159.319 Y76.246
G1 F2100 X127.681 Y194.319 E466.10191
G0 F7500 X126.835 Y194.319
G1 F2100 X75.678 Y143.162 E468.50817
G0 F7500 X75.9 Y143.162
G0 X75.9 Y141.42
G0 X75.68 Y141.42
G1 F2100 X159.318 Y119.009 E471.38812
G0 F7500 X159.1 Y119.009
G0 X159.1 Y125.22
G0 X159.319 Y125.22
G1 F2100 X75.679 Y147.632 E474.26814
G1 F1500 E467.76814
G0 F7500 X75.9 Y147.632
G0 X75.9 Y185.588
G1 F1500 E474.26814
G0 F7500 X75.678 Y185.588
G1 F2100 X84.409 Y194.319 E474.67882
G0 F7500 X84.2 Y194.319
G1 F2100 X125.368 Y40.679 E479.96917
G0 F7500 X125.931 Y40.679
G1 F2100 X159.32 Y74.068 E481.53969
G1 F1500 E475.03969
G0 F7500 X159.1 Y74.068
G0 X127.099 Y40.9
G1 F1500 E481.53969
G0 F7500 X127.099 Y40.679
G1 F2100 X75.68 Y54.457 E483.31022
G1 F1500 E476.81022
G0 F7500 X75.9 Y54.457
G0 X75.9 Y109.221
G1 F1500 E483.31022
G0 F7500 X75.678 Y109.221
G1 F2100 X159.32 Y192.862 E487.24446
G0 F7500 X159.318 Y193.549
G1 F2100 X156.444 Y194.319 E487.34342
G0 F7500 X156.444 Y194.1
G0 X158.74 Y194.1
G0 X158.74 Y194.32
G1 F2100 X159.319 Y192.156 E487.41793
G0 F7500 X159.1 Y192.156
G0 X159.1 Y168.702
G0 X159.319 Y168.702
