;FLAVOR:Marlin
;TIME:15694
;Filament used: 11.8577m
;Layer height: 0.2
;MINX:52.7
;MINY:82.7
;MINZ:0.2
;MAXX:182.3
;MAXY:152.3
;MAXZ:40
;Generated with Cura_SteamEngine 5.2.1
M140 S60
M105
M190 S60
M104 S200
M105
M109 S200
M82 ;absolute extrusion mode
M201 X500.00 Y500.00 Z100.00 E5000.00 ;Setup machine max acceleration
M203 X500.00 Y500.00 Z10.00 E50.00 ;Setup machine max feedrate
M204 P500.00 R1000.00 T500.00 ;Setup Print/Retract/Travel acceleration
M205 X8.00 Y8.00 Z0.40 E5.00 ;Setup Jerk
M220 S100 ;Reset Feedrate
M221 S100 ;Reset Flowrate

G28 ;Home

G92 E0 ;Reset Extruder
G1 Z2.0 F3000 ;Move Z Axis up
G1 X10.1 Y20 Z0.28 F5000.0 ;Move to start position
G1 X10.1 Y200.0 Z0.28 F1500.0 E15 ;Draw the first line
G1 X10.4 Y200.0 Z0.28 F5000.0 ;Move to side a little
G1 X10.4 Y20 Z0.28 F1500.0 E30 ;Draw the second line
G92 E0 ;Reset Extruder
G1 Z2.0 F3000 ;Move Z Axis up

G92 E0
G92 E0
G1 F1500 E-6.5
;LAYER_COUNT:200
;LAYER:0
M107
;MESH:Scaffolds.stl
G0 F6000 X53.1 Y151.9 Z0.2
;TYPE:WALL-INNER
G1 F1500 E0
G1 F1200 X181.9 Y151.9 E4.28391
G1 X181.9 Y83.1 E6.5722
G1 X53.1 Y83.1 E10.85611
G1 X53.1 Y151.9 E13.14441
G0 F6000 X52.7 Y152.3
;TYPE:WALL-OUTER
G1 F1200 X182.3 Y152.3 E17.45492
G1 X182.3 Y82.7 E19.76982
G1 X52.7 Y82.7 E24.08034
G1 X52.7 Y152.3 E26.39524
G0 F6000 X52.97 Y152.03
G0 X53.4 Y148.36
G0 X53.179 Y148.36
;TYPE:FILL
G1 F1200 X70.644 Y83.178 E28.63968
G0 F6000 X70.644 Y83.4
G0 X66.408 Y83.4
G0 X66.408 Y83.179
G1 F1200 X135.048 Y151.819 E31.86829
G0 F6000 X135.048 Y151.6
G0 X133.004 Y151.6
G0 X133.004 Y151.82
G1 F1200 X151.396 Y83.179 E34.23184
G1 X151.261 Y83.179
G1 X181.819 Y113.738 E35.66921
G0 F6000 X181.819 Y112.834
G1 F1200 X53.179 Y147.303 E40.09873
G0 F6000 X53.179 Y146.318
G1 F1200 X58.68 Y151.819 E40.35748
G0 F6000 X58.464 Y151.819
G1 F1200 X76.856 Y83.179 E42.72099
G0 F6000 X76.856 Y83.4
G0 X74.893 Y83.4
G0 X74.893 Y83.179
G1 F1200 X143.533 Y151.819 E45.94961
G0 F6000 X143.533 Y151.6
G0 X145.427 Y151.6
G0 X145.427 Y151.819
G1 F1200 X163.819 Y83.178 E48.31315
G0 F6000 X163.819 Y83.4
G0 X159.746 Y83.4
G0 X159.746 Y83.179
G1 F1200 X181.819 Y105.252 E49.35139
G0 F6000 X181.6 Y105.252
G0 X181.6 Y106.622
G0 X181.819 Y106.622
G1 F1200 X53.18 Y141.091 E53.78088
G0 F6000 X53.4 Y141.091
G0 X53.4 Y137.832
G0 X53.179 Y137.832
G1 F1200 X67.165 Y151.819 E54.43876
G0 F6000 X67.165 Y151.6
G0 X64.676 Y151.6
G0 X64.676 Y151.819
G1 F1200 X83.068 Y83.178 E56.8023
G0 F6000 X83.379 Y83.179
G1 F1200 X152.018 Y151.819 E60.03089
G0 F6000 X152.235 Y151.819
G1 F1200 X181.818 Y143.892 E61.04954
G0 F6000 X181.6 Y143.892
G0 X181.6 Y147.679
G0 X181.819 Y147.679
G1 F1200 X117.32 Y83.179 E64.0834
G0 F6000 X117.32 Y83.4
G0 X120.338 Y83.4
G0 X120.338 Y83.179
G1 F1200 X101.945 Y151.819 E66.44692
G0 F6000 X101.107 Y151.819
G1 F1200 X53.179 Y103.891 E68.7013
G1 X53.18 Y103.821
G1 X130.217 Y83.179 E71.35395
G0 F6000 X130.217 Y83.4
G0 X132.761 Y83.4
G0 X132.761 Y83.179
G1 F1200 X114.369 Y151.82 E73.71749
G0 F6000 X114.369 Y151.6
G0 X118.077 Y151.6
G0 X118.077 Y151.819
G1 F1200 X53.179 Y86.921 E76.7701
G0 F6000 X53.4 Y86.921
G0 X53.4 Y85.186
G0 X53.179 Y85.186
G1 F1200 X60.671 Y83.179 E77.02807
G0 F6000 X60.671 Y83.4
G0 X58.221 Y83.4
G0 X58.221 Y83.179
G1 F1200 X53.179 Y101.995 E77.67597
G0 F6000 X53.4 Y101.995
G0 X53.4 Y97.609
G0 X53.18 Y97.609
G1 F1200 X107.035 Y83.179 E79.53038
G0 F6000 X107.914 Y83.178
G1 F1200 X89.522 Y151.819 E81.89392
G0 F6000 X89.522 Y151.6
G0 X92.621 Y151.6
G0 X92.621 Y151.819
G1 F1200 X53.179 Y112.376 E83.74917
G0 F6000 X53.4 Y112.376
G0 X53.4 Y110.033
G0 X53.179 Y110.033
G1 F1200 X153.399 Y83.179 E87.20009
G0 F6000 X153.399 Y83.4
G0 X157.607 Y83.4
G0 X157.607 Y83.179
G1 F1200 X139.215 Y151.819 E89.5636
G0 F6000 X139.215 Y151.6
G0 X129.053 Y151.6
G0 X129.053 Y151.819
G1 F1200 X181.818 Y137.681 E91.38048
G0 F6000 X181.6 Y137.681
G0 X181.6 Y139.193
G0 X181.819 Y139.193
G1 F1200 X125.805 Y83.179 E94.01521
G0 F6000 X126.549 Y83.178
G1 F1200 X108.157 Y151.819 E96.37875
G0 F6000 X108.157 Y151.6
G0 X109.592 Y151.6
G0 X109.592 Y151.819
G1 F1200 X53.179 Y95.406 E99.03224
G0 F6000 X53.4 Y95.406
G0 X53.4 Y91.398
G0 X53.179 Y91.398
G1 F1200 X83.853 Y83.179 E100.08845
G0 F6000 X83.853 Y83.4
G0 X89.279 Y83.4
G0 X89.279 Y83.178
G1 F1200 X70.887 Y151.819 E102.452
G0 F6000 X70.887 Y151.6
G0 X75.651 Y151.6
G0 X75.651 Y151.819
G1 F1200 X53.179 Y129.347 E103.50901
G0 F6000 X53.179 Y128.668
G1 F1200 X181.818 Y94.199 E107.93849
G0 F6000 X181.6 Y94.199
G0 X181.6 Y96.767
G0 X181.819 Y96.767
G1 F1200 X168.232 Y83.179 E108.57761
G0 F6000 X168.232 Y83.4
G0 X170.031 Y83.4
G0 X170.031 Y83.179
G1 F1200 X151.639 Y151.82 E110.94115
G0 F6000 X151.639 Y151.6
G0 X157.85 Y151.6
G0 X157.85 Y151.819
G1 F1200 X176.242 Y83.179 E113.30466
G0 F6000 X176.581 Y83.179
G1 F1200 X53.18 Y116.244 E117.55378
G0 F6000 X53.4 Y116.244
G0 X53.4 Y120.862
G0 X53.179 Y120.862
G1 F1200 X84.136 Y151.819 E119.0099
G0 F6000 X83.31 Y151.819
G1 F1200 X101.703 Y83.178 E121.37345
G0 F6000 X101.703 Y83.4
G0 X100.349 Y83.4
G0 X100.349 Y83.179
G1 F1200 X168.989 Y151.819 E124.60207
G0 F6000 X168.989 Y151.6
G0 X170.273 Y151.6
G0 X170.273 Y151.82
G1 F1200 X181.819 Y108.731 E126.08577
G0 F6000 X181.6 Y108.731
G0 X181.6 Y100.411
G0 X181.819 Y100.411
G1 F1200 X53.18 Y134.879 E130.51525
G0 F6000 X53.4 Y134.879
G0 X53.4 Y125.178
G0 X53.179 Y125.178
G1 F1200 X64.433 Y83.178 E131.96145
G0 F6000 X64.433 Y83.4
G0 X57.923 Y83.4
G0 X57.923 Y83.179
G1 F1200 X126.562 Y151.819 E135.19004
G0 F6000 X126.792 Y151.819
G1 F1200 X145.184 Y83.178 E137.55359
G0 F6000 X145.184 Y83.4
G0 X142.776 Y83.4
G0 X142.776 Y83.179
G1 F1200 X181.819 Y122.223 E139.39007
G0 F6000 X181.6 Y122.223
G0 X181.6 Y125.257
G0 X181.819 Y125.257
G1 F1200 X82.689 Y151.819 E142.80346
G0 F6000 X82.689 Y151.6
G0 X77.099 Y151.6
G0 X77.099 Y151.819
G1 F1200 X95.491 Y83.179 E145.16697
G0 F6000 X95.491 Y83.4
G0 X91.864 Y83.4
G0 X91.864 Y83.179
G1 F1200 X160.504 Y151.819 E148.39558
G0 F6000 X160.504 Y151.6
G0 X164.062 Y151.6
G0 X164.062 Y151.819
G1 F1200 X181.819 Y85.548 E150.67752
G0 F6000 X181.6 Y85.548
G0 X181.6 Y87.987
G0 X181.819 Y87.987
G1 F1200 X53.18 Y122.456 E155.107
G1 F1500 E148.607
G0 F6000 X53.4 Y122.456
G0 X59.507 Y151.6
G1 F1500 E155.107
G0 F6000 X59.507 Y151.819
G1 F1200 X181.818 Y119.046 E159.31859
G0 F6000 X181.6 Y119.046
G0 X181.6 Y130.708
G0 X181.819 Y130.708
G1 F1200 X134.29 Y83.179 E161.55421
G0 F6000 X134.29 Y83.4
G0 X138.973 Y83.4
G0 X138.973 Y83.179
G1 F1200 X120.58 Y151.819 E163.91773
G0 F6000 X120.58 Y151.6
G0 X105.871 Y151.6
G0 X105.871 Y151.819
G1 F1200 X181.819 Y131.469 E166.53287
G0 F6000 X181.819 Y131.914
G1 F1200 X176.485 Y151.82 E167.21831
G0 F6000 X177.474 Y151.819
G1 F1200 X108.835 Y83.179 E170.4469
G0 F6000 X108.835 Y83.4
G0 X114.126 Y83.4
G0 X114.126 Y83.179
G1 F1200 X95.734 Y151.819 E172.81041
G1 F1500 E166.31041
G0 F6000 X95.734 Y151.6
G0 X175.417 Y151.6
G1 F1500 E172.81041
G0 F6000 X175.417 Y151.819
G1 F1200 X181.819 Y150.104 E173.03085
G1 F1500 E166.53085
G0 F6000 X181.6 Y150.104
G0 X181.6 Y88.282
G1 F1500 E173.03085
G0 F6000 X181.819 Y88.282
G1 F1200 X176.717 Y83.179 E173.27085
G0 F6000 X176.717 Y83.7
G1 F1500 E166.77085
;MESH:NONMESH
G0 F300 X176.717 Y83.7 Z0.4
G0 F6000 X53.37 Y151.63
G1 F1500 E173.27085
G0 F6000 X53.1 Y151.9
;TIME_ELAPSED:282.524139
;LAYER:1
M106 S85
;TYPE:WALL-INNER
;MESH:Scaffolds.stl
G1 F1350 X181.9 Y151.9 E177.55476
G1 X181.9 Y83.1 E179.84306
G1 X53.1 Y83.1 E184.12696
G1 X53.1 Y151.9 E186.41526
G0 F7500 X52.7 Y152.3
;TYPE:WALL-OUTER
G1 F1350 X182.3 Y152.3 E190.72577
G1 X182.3 Y82.7 E193.04068
G1 X52.7 Y82.7 E197.35119
G1 X52.7 Y152.3 E199.6661
G0 F7500 X52.97 Y152.03
G0 X53.4 Y147.815
G0 X53.179 Y147.815
;TYPE:FILL
G1 F2100 X70.498 Y83.178 E201.89177
G0 F7500 X70.498 Y83.4
G0 X66.608 Y83.4
G0 X66.608 Y83.179
G1 F2100 X135.247 Y151.819 E205.12036
G0 F7500 X135.247 Y151.6
G0 X132.858 Y151.6
G0 X132.858 Y151.819
G1 F2100 X151.25 Y83.178 E207.4839
G0 F7500 X151.46 Y83.179
G1 F2100 X181.819 Y113.538 E208.9119
G0 F7500 X181.818 Y112.98
G1 F2100 X53.179 Y147.449 E213.34138
G0 F7500 X53.4 Y147.449
G0 X53.4 Y146.118
G0 X53.179 Y146.118
G1 F2100 X58.88 Y151.819 E213.60954
G0 F7500 X58.318 Y151.819
G1 F2100 X76.71 Y83.178 E215.97308
G0 F7500 X76.71 Y83.4
G0 X75.093 Y83.4
G0 X75.093 Y83.179
G1 F2100 X143.732 Y151.819 E219.20167
G0 F7500 X143.732 Y151.6
G0 X145.281 Y151.6
G0 X145.281 Y151.819
G1 F2100 X163.673 Y83.179 E221.56518
G0 F7500 X163.673 Y83.4
G0 X159.946 Y83.4
G0 X159.946 Y83.179
G1 F2100 X181.819 Y105.053 E222.59404
G0 F7500 X181.6 Y105.053
G0 X181.6 Y106.768
G0 X181.819 Y106.768
G1 F2100 X53.18 Y141.237 E227.02353
G0 F7500 X53.4 Y141.237
G0 X53.4 Y137.633
G0 X53.179 Y137.633
G1 F2100 X67.365 Y151.819 E227.69079
G0 F7500 X67.365 Y151.6
G0 X64.529 Y151.6
G0 X64.529 Y151.819
G1 F2100 X82.922 Y83.179 E230.05431
G0 F7500 X83.578 Y83.179
G1 F2100 X152.218 Y151.819 E233.28293
G0 F7500 X152.779 Y151.819
G1 F2100 X181.818 Y144.038 E234.28284
G0 F7500 X181.6 Y144.038
G0 X181.6 Y147.479
G0 X181.819 Y147.479
G1 F2100 X117.519 Y83.179 E237.30731
G0 F7500 X117.519 Y83.4
G0 X120.192 Y83.4
G0 X120.192 Y83.179
G1 F2100 X101.799 Y151.819 E239.67083
G0 F7500 X101.306 Y151.819
G1 F2100 X53.179 Y103.692 E241.93458
G0 F7500 X53.179 Y103.967
G1 F2100 X130.762 Y83.179 E244.60603
G0 F7500 X130.762 Y83.4
G0 X132.615 Y83.4
G0 X132.615 Y83.178
G1 F2100 X114.223 Y151.819 E246.96957
G0 F7500 X114.223 Y151.6
G0 X118.277 Y151.6
G0 X118.277 Y151.819
G1 F2100 X53.179 Y86.721 E250.03158
G0 F7500 X53.4 Y86.721
G0 X53.4 Y85.332
G0 X53.179 Y85.332
G1 F2100 X61.216 Y83.179 E250.30831
G0 F7500 X61.216 Y83.4
G0 X64.287 Y83.4
G0 X64.287 Y83.179
G1 F2100 X53.179 Y124.632 E251.73569
G0 F7500 X53.4 Y124.632
G0 X53.4 Y122.602
G0 X53.179 Y122.602
G1 F2100 X181.819 Y88.133 E256.16521
G1 X181.819 Y88.082
G1 X176.916 Y83.179 E256.39583
G0 F7500 X177.125 Y83.179
G1 F2100 X53.18 Y116.39 E260.66368
G0 F7500 X53.4 Y116.39
G0 X53.4 Y112.177
G0 X53.179 Y112.177
G1 F2100 X92.821 Y151.819 E262.52832
G0 F7500 X92.821 Y151.6
G0 X95.588 Y151.6
G0 X95.588 Y151.819
G1 F2100 X113.98 Y83.178 E264.89186
G0 F7500 X113.98 Y83.4
G0 X109.034 Y83.4
G0 X109.034 Y83.179
G1 F2100 X177.674 Y151.819 E268.12047
G0 F7500 X177.674 Y151.6
G0 X176.339 Y151.6
G0 X176.339 Y151.82
G1 F2100 X181.819 Y131.368 E268.82471
G0 F7500 X181.818 Y131.615
G1 F2100 X106.415 Y151.819 E271.42109
G0 F7500 X106.415 Y151.6
G0 X108.011 Y151.6
G0 X108.011 Y151.819
G1 F2100 X126.403 Y83.178 E273.78463
G0 F7500 X126.005 Y83.179
G1 F2100 X181.819 Y138.994 E276.40997
G0 F7500 X181.6 Y138.994
G0 X181.6 Y137.827
G0 X181.818 Y137.827
G1 F2100 X129.597 Y151.819 E278.20812
G0 F7500 X129.597 Y151.6
G0 X126.762 Y151.6
G0 X126.762 Y151.819
G1 F2100 X58.122 Y83.179 E281.43673
G1 X58.075 Y83.178
G1 X53.179 Y101.45 E282.0659
G0 F7500 X53.4 Y101.45
G0 X53.4 Y97.755
G0 X53.18 Y97.755
G1 F2100 X107.58 Y83.179 E283.93907
G1 X107.768 Y83.178
G1 X89.376 Y151.819 E286.30262
G0 F7500 X89.376 Y151.6
G0 X84.335 Y151.6
G0 X84.335 Y151.819
G1 F2100 X53.179 Y120.662 E287.76812
G0 F7500 X53.4 Y120.662
G0 X53.4 Y128.814
G0 X53.179 Y128.814
G1 F2100 X181.819 Y94.345 E292.19764
G0 F7500 X181.6 Y94.345
G0 X181.6 Y96.568
G0 X181.819 Y96.568
G1 F2100 X168.431 Y83.179 E292.82739
G0 F7500 X168.431 Y83.4
G0 X169.885 Y83.4
G0 X169.885 Y83.178
G1 F2100 X151.493 Y151.819 E295.19093
G0 F7500 X151.493 Y151.6
G0 X157.704 Y151.6
G0 X157.704 Y151.82
G1 F2100 X176.096 Y83.179 E297.55448
G0 F7500 X176.096 Y83.4
G0 X181.6 Y85.003
G0 X181.819 Y85.003
G1 F2100 X163.916 Y151.819 E299.85518
G0 F7500 X163.916 Y151.6
G0 X160.703 Y151.6
G0 X160.703 Y151.819
G1 F2100 X92.063 Y83.179 E303.08379
G0 F7500 X92.063 Y83.4
G0 X89.133 Y83.4
G0 X89.133 Y83.178
G1 F2100 X70.741 Y151.819 E305.44734
G0 F7500 X70.741 Y151.6
G0 X75.85 Y151.6
G0 X75.85 Y151.819
G1 F2100 X53.179 Y129.148 E306.51371
G0 F7500 X53.4 Y129.148
G0 X53.4 Y135.025
G0 X53.18 Y135.025
G1 F2100 X181.819 Y100.557 E310.94318
G0 F7500 X181.6 Y100.557
G0 X181.6 Y108.186
G0 X181.819 Y108.186
G1 F2100 X170.128 Y151.819 E312.44561
G0 F7500 X169.188 Y151.819
G1 F2100 X100.549 Y83.179 E315.67421
G0 F7500 X100.549 Y83.4
G0 X101.557 Y83.4
G0 X101.557 Y83.179
G1 F2100 X83.164 Y151.819 E318.03772
G1 X83.234 Y151.819
G1 X181.819 Y125.403 E321.43235
G0 F7500 X181.6 Y125.403
G0 X181.6 Y122.024
G0 X181.819 Y122.024
G1 F2100 X142.975 Y83.179 E323.25947
G0 F7500 X142.975 Y83.4
G0 X145.038 Y83.4
G0 X145.038 Y83.179
G1 F2100 X126.646 Y151.819 E325.62298
G0 F7500 X126.646 Y151.6
G0 X120.434 Y151.6
G0 X120.434 Y151.819
G1 F2100 X138.827 Y83.179 E327.9865
G0 F7500 X138.827 Y83.4
G0 X134.49 Y83.4
G0 X134.49 Y83.179
G1 F2100 X181.819 Y130.509 E330.21274
G0 F7500 X181.6 Y130.509
G0 X181.6 Y119.192
G0 X181.819 Y119.192
G1 F2100 X60.052 Y151.819 E334.40559
G0 F7500 X60.052 Y151.6
G0 X76.953 Y151.6
G0 X76.953 Y151.819
G1 F2100 X95.345 Y83.178 E336.76913
G0 F7500 X95.345 Y83.4
G0 X84.398 Y83.4
G0 X84.398 Y83.179
G1 F2100 X53.18 Y91.544 E337.84407
G0 F7500 X53.4 Y91.544
G0 X53.4 Y95.206
G0 X53.179 Y95.206
G1 F2100 X109.791 Y151.819 E340.50695
G0 F7500 X109.791 Y151.6
G0 X139.069 Y151.6
G0 X139.069 Y151.82
G1 F2100 X157.461 Y83.179 E342.87049
G0 F7500 X157.461 Y83.4
G0 X153.943 Y83.4
G0 X153.943 Y83.179
G1 F2100 X53.18 Y110.179 E346.34011
G1 F1500 E339.84011
G0 F7500 X53.4 Y110.179
G0 X175.961 Y151.6
G1 F1500 E346.34011
G0 F7500 X175.961 Y151.819
G1 F2100 X181.819 Y150.25 E346.54182
G0 F7500 X181.3 Y150.25
G1 F1500 E340.04182
;MESH:NONMESH
G0 F300 X181.3 Y150.25 Z0.6
G0 F7500 X53.37 Y151.63
G1 F1500 E346.54182
G0 F7500 X53.1 Y151.9
;TIME_ELAPSED:461.090168
;LAYER:2
M106 S170
;TYPE:WALL-INNER
;MESH:Scaffolds.stl
G1 F1500 X181.9 Y151.9 E350.82573
G1 X181.9 Y83.1 E353.11402
G1 X53.1 Y83.1 E357.39793
G1 X53.1 Y151.9 E359.68623
G0 F9000 X52.7 Y152.3
;TYPE:WALL-OUTER
G1 F1500 X182.3 Y152.3 E363.99674
G1 X182.3 Y82.7 E366.31164
G1 X52.7 Y82.7 E370.62216
G1 X52.7 Y152.3 E372.93706
G0 F9000 X52.97 Y152.03
G0 X53.4 Y147.596
G0 X53.179 Y147.596
;TYPE:FILL
G1 F3000 X181.818 Y113.127 E377.36655
G0 F9000 X181.819 Y113.337
G1 F3000 X151.661 Y83.179 E378.78509
G0 F9000 X151.103 Y83.178
G1 F3000 X132.711 Y151.819 E381.14863
G0 F9000 X132.711 Y151.6
G0 X130.146 Y151.6
G0 X130.146 Y151.819
G1 F3000 X181.818 Y137.974 E382.92787
G0 F9000 X181.819 Y138.793
G1 F3000 X126.205 Y83.179 E385.54378
G1 X126.256 Y83.178
G1 X107.864 Y151.819 E387.90732
G0 F9000 X106.964 Y151.819
G1 F3000 X181.818 Y131.762 E390.4848
G0 F9000 X181.819 Y130.819
G1 F3000 X176.192 Y151.82 E391.20794
G0 F9000 X176.51 Y151.819
G1 F3000 X181.819 Y150.397 E391.39074
G0 F9000 X181.6 Y150.397
G0 X181.6 Y147.279
G0 X181.819 Y147.279
G1 F3000 X117.72 Y83.179 E394.40578
G0 F9000 X117.72 Y83.4
G0 X120.045 Y83.4
G0 X120.045 Y83.179
G1 F3000 X101.652 Y151.819 E396.7693
G1 X101.507 Y151.819
G1 X53.179 Y103.491 E399.0425
G0 F9000 X53.179 Y104.114
G1 F3000 X131.31 Y83.179 E401.73282
G0 F9000 X131.31 Y83.4
G0 X132.468 Y83.4
G0 X132.468 Y83.178
G1 F3000 X114.076 Y151.819 E404.09636
G0 F9000 X114.076 Y151.6
G0 X109.992 Y151.6
G0 X109.992 Y151.819
G1 F3000 X53.179 Y95.006 E406.76867
G0 F9000 X53.4 Y95.006
G0 X53.4 Y97.902
G0 X53.18 Y97.902
G1 F3000 X108.128 Y83.179 E408.66072
G0 F9000 X107.621 Y83.178
G1 F3000 X89.229 Y151.819 E411.02426
G0 F9000 X89.229 Y151.6
G0 X93.022 Y151.6
G0 X93.022 Y151.819
G1 F3000 X53.179 Y111.976 E412.89835
G0 F9000 X53.4 Y111.976
G0 X53.4 Y110.326
G0 X53.179 Y110.326
G1 F3000 X154.492 Y83.179 E416.38691
G0 F9000 X154.492 Y83.4
G0 X157.314 Y83.4
G0 X157.314 Y83.179
G1 F3000 X138.922 Y151.82 E418.75045
G0 F9000 X138.922 Y151.6
G0 X135.448 Y151.6
G0 X135.448 Y151.819
G1 F3000 X66.808 Y83.179 E421.97907
G0 F9000 X66.808 Y83.4
G0 X64.14 Y83.4
G0 X64.14 Y83.178
G1 F3000 X53.179 Y124.083 E423.38757
G0 F9000 X53.4 Y124.083
G0 X53.4 Y122.749
G0 X53.179 Y122.749
G1 F3000 X181.819 Y88.28 E427.81708
G0 F9000 X181.819 Y87.882
G1 F3000 X177.117 Y83.179 E428.03828
G0 F9000 X177.674 Y83.179
G1 F3000 X53.18 Y116.537 E432.32503
G0 F9000 X53.4 Y116.537
G0 X53.4 Y120.462
G0 X53.179 Y120.462
G1 F3000 X84.536 Y151.819 E433.79997
G0 F9000 X83.782 Y151.819
G1 F3000 X181.819 Y125.55 E437.17572
G0 F9000 X181.6 Y125.55
G0 X181.6 Y121.823
