;FLAVOR:Marlin
;TIME:20454
;Filament used: 15.9675m
;Layer height: 0.2
;MINX:52.7
;MINY:70.2
;MINZ:0.2
;MAXX:183.165
;MAXY:165.665
;MAXZ:40
;Generated with Cura_SteamEngine 5.2.1
M140 S60
M105
M190 S60
M104 S200
M105
M109 S200
M82 ;absolute extrusion mode
M201 X500.00 Y500.00 Z100.00 E5000.00 ;Setup machine max acceleration
M203 X500.00 Y500.00 Z10.00 E50.00 ;Setup machine max feedrate
M204 P500.00 R1000.00 T500.00 ;Setup Print/Retract/Travel acceleration
M205 X8.00 Y8.00 Z0.40 E5.00 ;Setup Jerk
M220 S100 ;Reset Feedrate
M221 S100 ;Reset Flowrate

G28 ;Home

G92 E0 ;Reset Extruder
G1 Z2.0 F3000 ;Move Z Axis up
G1 X10.1 Y20 Z0.28 F5000.0 ;Move to start position
G1 X10.1 Y200.0 Z0.28 F1500.0 E15 ;Draw the first line
G1 X10.4 Y200.0 Z0.28 F5000.0 ;Move to side a little
G1 X10.4 Y20 Z0.28 F1500.0 E30 ;Draw the second line
G92 E0 ;Reset Extruder
G1 Z2.0 F3000 ;Move Z Axis up

G92 E0
G92 E0
G1 F1500 E-6.5
;LAYER_COUNT:200
;LAYER:0
M107
;MESH:Stars.stl
G0 F6000 X53.1 Y164.4 Z0.2
;TYPE:WALL-INNER
G1 F1500 E0
G1 F1200 X181.9 Y164.4 E4.28391
G1 X181.9 Y70.6 E7.40371
G1 X53.1 Y70.6 E11.68761
G1 X53.1 Y164.4 E14.80741
G0 F6000 X52.7 Y164.8
;TYPE:WALL-OUTER
G1 F1200 X182.3 Y164.8 E19.11793
G1 X182.3 Y70.2 E22.26433
G1 X52.7 Y70.2 E26.57485
G1 X52.7 Y164.8 E29.72126
G0 F6000 X52.97 Y164.53
G0 X54.209 Y164.1
G0 X54.209 Y164.318
;TYPE:FILL
G1 F1200 X53.18 Y163.289 E29.76966
G0 F6000 X53.4 Y163.289
G0 X55.114 Y164.1
G0 X55.114 Y164.319
G1 F1200 X80.205 Y70.679 E32.99401
G0 F6000 X79.364 Y70.68
G1 F1200 X173.003 Y164.318 E37.39847
G1 X173.136 Y164.32
G1 X181.819 Y131.915 E38.51429
G0 F6000 X181.819 Y131.469
G1 F1200 X59.22 Y164.319 E42.73579
G0 F6000 X59.22 Y164.1
G0 X61.326 Y164.1
G0 X61.326 Y164.319
G1 F1200 X86.417 Y70.678 E45.96017
G0 F6000 X86.417 Y70.9
G0 X87.85 Y70.9
G0 X87.85 Y70.68
G1 F1200 X181.488 Y164.318 E50.36462
G0 F6000 X181.488 Y164.1
G0 X181.6 Y162.527
G0 X181.818 Y162.527
G1 F1200 X175.13 Y164.319 E50.59491
G0 F6000 X175.13 Y164.1
G0 X179.348 Y164.1
G0 X179.348 Y164.319
G1 F1200 X181.819 Y155.097 E50.91245
G0 F6000 X181.6 Y155.097
G0 X181.6 Y156.163
G0 X181.819 Y156.163
G1 F1200 X96.335 Y70.68 E54.93333
G0 F6000 X96.335 Y70.9
G0 X98.84 Y70.9
G0 X98.84 Y70.679
G1 F1200 X73.749 Y164.319 E58.15768
G0 F6000 X73.749 Y164.1
G0 X71.18 Y164.1
G0 X71.18 Y164.318
G1 F1200 X53.18 Y146.318 E59.00434
G0 F6000 X53.179 Y147.303
G1 F1200 X181.819 Y112.834 E63.43386
G0 F6000 X181.819 Y113.737
G1 F1200 X138.761 Y70.68 E65.45915
G0 F6000 X138.761 Y70.9
G0 X136.11 Y70.9
G0 X136.11 Y70.679
G1 F1200 X111.019 Y164.32 E68.68353
G0 F6000 X111.019 Y164.1
G0 X113.606 Y164.1
G0 X113.606 Y164.318
G1 F1200 X53.18 Y103.892 E71.52579
G1 X53.18 Y103.821
G1 X176.866 Y70.679 E75.78472
G0 F6000 X176.866 Y70.9
G0 X179.592 Y70.9
G0 X179.592 Y70.679
G1 F1200 X154.501 Y164.319 E79.00907
G0 F6000 X154.501 Y164.1
G0 X156.033 Y164.1
G0 X156.033 Y164.318
G1 F1200 X62.394 Y70.68 E83.41354
G0 F6000 X61.57 Y70.679
G1 F1200 X53.18 Y101.993 E84.49178
G0 F6000 X53.4 Y101.993
G0 X53.4 Y97.61
G0 X53.179 Y97.61
G1 F1200 X153.684 Y70.679 E87.95252
G0 F6000 X153.684 Y70.9
G0 X154.745 Y70.9
G0 X154.745 Y70.679
G1 F1200 X129.654 Y164.32 E91.1769
G0 F6000 X128.766 Y164.319
G1 F1200 X181.819 Y150.104 E93.00369
G0 F6000 X181.6 Y150.104
G0 X181.6 Y147.678
G0 X181.819 Y147.678
G1 F1200 X104.82 Y70.68 E96.62547
G0 F6000 X105.052 Y70.678
G1 F1200 X79.961 Y164.319 E99.84985
G0 F6000 X79.665 Y164.318
G1 F1200 X53.18 Y137.833 E101.09562
G0 F6000 X53.4 Y137.833
G0 X53.4 Y134.88
G0 X53.179 Y134.88
G1 F1200 X181.818 Y100.411 E105.5251
G0 F6000 X181.6 Y100.411
G0 X181.6 Y96.766
G0 X181.819 Y96.766
G1 F1200 X155.732 Y70.68 E106.75213
G0 F6000 X155.732 Y70.9
G0 X160.957 Y70.9
G0 X160.957 Y70.679
G1 F1200 X135.866 Y164.319 E109.97648
G0 F6000 X135.866 Y164.1
G0 X139.062 Y164.1
G0 X139.062 Y164.318
G1 F1200 X53.18 Y78.436 E114.01611
G0 F6000 X53.18 Y78.811
G1 F1200 X55.359 Y70.678 E114.29615
G0 F6000 X55.359 Y70.9
G0 X53.909 Y70.9
G0 X53.909 Y70.68
G1 F1200 X147.547 Y164.318 E118.7006
G0 F6000 X148.289 Y164.319
G1 F1200 X173.38 Y70.679 E121.92494
G0 F6000 X172.703 Y70.68
G1 F1200 X181.819 Y79.796 E122.35373
G0 F6000 X181.6 Y79.796
G0 X181.6 Y81.776
G0 X181.819 Y81.776
G1 F1200 X53.179 Y116.245 E126.78325
G0 F6000 X53.4 Y116.245
G0 X53.4 Y112.377
G0 X53.18 Y112.377
G1 F1200 X105.121 Y164.318 E129.2264
G0 F6000 X104.808 Y164.319
G1 F1200 X129.899 Y70.678 E132.45078
G0 F6000 X130.276 Y70.68
G1 F1200 X181.819 Y122.222 E134.87518
G0 F6000 X181.6 Y122.222
G0 X181.6 Y125.257
G0 X181.819 Y125.257
G1 F1200 X53.179 Y159.726 E139.30469
G0 F6000 X53.4 Y159.726
G0 X53.4 Y154.804
G0 X53.18 Y154.804
G1 F1200 X62.694 Y164.318 E139.7522
G0 F6000 X62.694 Y164.1
G0 X67.538 Y164.1
G0 X67.538 Y164.319
G1 F1200 X92.629 Y70.678 E142.97658
G0 F6000 X92.629 Y70.9
G0 X84.139 Y70.9
G0 X84.139 Y70.679
G1 F1200 X53.179 Y78.975 E144.04264
G0 F6000 X53.4 Y78.975
G0 X53.4 Y85.186
G0 X53.179 Y85.186
G1 F1200 X107.321 Y70.679 E145.90694
G0 F6000 X107.321 Y70.9
G0 X111.264 Y70.9
G0 X111.264 Y70.678
G1 F1200 X86.173 Y164.319 E149.13132
G0 F6000 X86.173 Y164.1
G0 X88.15 Y164.1
G0 X88.15 Y164.318
G1 F1200 X53.18 Y129.348 E150.7762
G0 F6000 X53.179 Y128.668
G1 F1200 X181.818 Y94.199 E155.20568
G0 F6000 X181.6 Y94.199
G0 X181.6 Y88.281
G0 X181.819 Y88.281
G1 F1200 X164.217 Y70.68 E156.0336
G0 F6000 X164.217 Y70.9
G0 X167.169 Y70.9
G0 X167.169 Y70.678
G1 F1200 X142.078 Y164.319 E159.25798
G0 F6000 X142.078 Y164.1
G0 X151.948 Y164.1
G0 X151.948 Y164.319
G1 F1200 X181.818 Y156.316 E160.2865
G0 F6000 X181.6 Y156.316
G0 X181.6 Y143.892
G0 X181.818 Y143.892
G1 F1200 X105.584 Y164.319 E162.9115
G0 F6000 X105.584 Y164.1
G0 X98.596 Y164.1
G0 X98.596 Y164.319
G1 F1200 X123.687 Y70.679 E166.13585
G0 F6000 X123.687 Y70.9
G0 X121.791 Y70.9
G0 X121.791 Y70.68
G1 F1200 X181.819 Y130.707 E168.95936
G0 F6000 X181.6 Y130.707
G0 X181.6 Y137.681
G0 X181.818 Y137.681
G1 F1200 X82.402 Y164.319 E172.38259
G0 F6000 X82.402 Y164.1
G0 X92.384 Y164.1
G0 X92.384 Y164.32
G1 F1200 X117.475 Y70.679 E175.60697
G0 F6000 X117.475 Y70.9
G0 X113.306 Y70.9
G0 X113.306 Y70.68
G1 F1200 X181.819 Y139.193 E178.82961
G0 F6000 X181.6 Y139.193
G0 X181.6 Y119.046
G0 X181.818 Y119.046
G1 F1200 X53.179 Y153.514 E183.25909
G0 F6000 X53.4 Y153.514
G0 X53.4 Y148.358
G0 X53.18 Y148.358
G1 F1200 X73.994 Y70.678 E185.93387
G0 F6000 X73.994 Y70.9
G0 X70.879 Y70.9
G0 X70.879 Y70.68
G1 F1200 X164.518 Y164.318 E190.33834
G0 F6000 X164.518 Y164.1
G0 X166.924 Y164.1
G0 X166.924 Y164.319
G1 F1200 X181.819 Y108.733 E192.25236
G0 F6000 X181.6 Y108.733
G0 X181.6 Y106.622
G0 X181.819 Y106.622
G1 F1200 X53.179 Y141.091 E196.68188
G0 F6000 X53.4 Y141.091
G0 X53.4 Y125.176
G0 X53.18 Y125.176
G1 F1200 X67.782 Y70.678 E198.55843
G0 F6000 X67.782 Y70.9
G0 X60.957 Y70.9
G0 X60.957 Y70.679
G1 F1200 X53.179 Y72.763 E198.82625
G0 F6000 X53.4 Y72.763
G0 X53.4 Y86.921
G0 X53.18 Y86.921
G1 F1200 X130.577 Y164.318 E202.46677
G0 F6000 X130.577 Y164.1
G0 X123.443 Y164.1
G0 X123.443 Y164.319
G1 F1200 X148.534 Y70.678 E205.69115
G0 F6000 X148.534 Y70.9
G0 X147.247 Y70.9
G0 X147.247 Y70.68
G1 F1200 X181.819 Y105.252 E207.31731
G0 F6000 X181.6 Y105.252
G0 X181.6 Y87.987
G0 X181.819 Y87.987
G1 F1200 X53.179 Y122.456 E211.74682
G0 F6000 X53.4 Y122.456
G0 X53.4 Y120.862
G0 X53.18 Y120.862
G1 F1200 X96.636 Y164.318 E213.79086
G0 F6000 X96.636 Y164.1
G0 X117.231 Y164.1
G0 X117.231 Y164.319
G1 F1200 X142.322 Y70.679 E217.01521
G0 F6000 X142.322 Y70.9
G0 X130.503 Y70.9
G0 X130.503 Y70.679
G1 F1200 X53.179 Y91.398 E219.67774
G0 F6000 X53.4 Y91.398
G0 X53.4 Y95.407
G0 X53.18 Y95.407
G1 F1200 X122.091 Y164.318 E222.9191
G1 F1500 E216.4191
G0 F6000 X122.091 Y164.1
G0 X160.713 Y164.1
G1 F1500 E222.9191
G0 F6000 X160.713 Y164.319
G1 F1200 X181.819 Y85.551 E225.63135
G0 F6000 X181.6 Y85.551
G0 X181.6 Y75.564
G0 X181.818 Y75.564
G1 F1200 X53.179 Y110.033 E230.06084
G1 F1500 E223.56084
G0 F6000 X53.4 Y110.033
G0 X181.188 Y70.9
G1 F1500 E230.06084
G0 F6000 X181.188 Y70.68
G1 F1200 X181.819 Y71.311 E230.09052
G0 F6000 X181.3 Y71.311
G1 F1500 E223.59052
;MESH:NONMESH
G0 F300 X181.3 Y71.311 Z0.4
G0 F6000 X53.37 Y164.13
G1 F1500 E230.09052
G0 F6000 X53.1 Y164.4
;TIME_ELAPSED:370.622614
;LAYER:1
M106 S85
;TYPE:WALL-INNER
;MESH:Stars.stl
G1 F1350 X181.9 Y164.4 E234.37442
G1 X181.9 Y70.6 E237.49422
G1 X53.1 Y70.6 E241.77813
G1 X53.1 Y164.4 E244.89793
G0 F7500 X52.7 Y164.8
;TYPE:WALL-OUTER
G1 F1350 X182.3 Y164.8 E249.20844
G1 X182.3 Y70.2 E252.35485
G1 X52.7 Y70.2 E256.66537
G1 X52.7 Y164.8 E259.81178
G0 F7500 X52.97 Y164.53
G0 X54.409 Y164.1
G0 X54.409 Y164.318
;TYPE:FILL
G1 F2100 X53.18 Y163.089 E259.86958
G0 F7500 X53.4 Y163.089
G0 X54.969 Y164.1
G0 X54.969 Y164.319
G1 F2100 X80.059 Y70.679 E263.09392
G0 F7500 X79.564 Y70.68
G1 F2100 X173.202 Y164.318 E267.49837
G0 F7500 X172.99 Y164.32
G1 F2100 X181.819 Y131.37 E268.63295
G0 F7500 X181.818 Y131.615
G1 F2100 X59.766 Y164.319 E272.83562
G0 F7500 X59.766 Y164.1
G0 X61.18 Y164.1
G0 X61.18 Y164.319
G1 F2100 X86.271 Y70.679 E276.05997
G0 F7500 X86.271 Y70.9
G0 X84.683 Y70.9
G0 X84.683 Y70.679
G1 F2100 X53.18 Y79.12 E277.14472
G0 F7500 X53.18 Y78.266
G1 F2100 X55.213 Y70.678 E277.406
G0 F7500 X55.213 Y70.9
G0 X54.108 Y70.9
G0 X54.108 Y70.68
G1 F2100 X147.747 Y164.318 E281.81047
G0 F7500 X148.143 Y164.319
G1 F2100 X173.234 Y70.678 E285.03485
G0 F7500 X172.902 Y70.68
G1 F2100 X181.819 Y79.596 E285.45425
G0 F7500 X181.6 Y79.596
G0 X181.6 Y81.922
G0 X181.819 Y81.922
G1 F2100 X53.179 Y116.391 E289.88377
G0 F7500 X53.4 Y116.391
G0 X53.4 Y112.178
G0 X53.18 Y112.178
G1 F2100 X105.32 Y164.318 E292.33628
G0 F7500 X104.662 Y164.319
G1 F2100 X129.753 Y70.678 E295.56066
G0 F7500 X130.476 Y70.68
G1 F2100 X181.819 Y122.023 E297.97567
G0 F7500 X181.6 Y122.023
G0 X181.6 Y119.192
G0 X181.819 Y119.192
G1 F2100 X53.179 Y153.661 E302.40519
G0 F7500 X53.18 Y154.604
G1 F2100 X62.894 Y164.318 E302.86211
G0 F7500 X62.894 Y164.1
G0 X67.392 Y164.1
G0 X67.392 Y164.319
G1 F2100 X92.483 Y70.678 E306.08649
G0 F7500 X92.483 Y70.9
G0 X96.534 Y70.9
G0 X96.534 Y70.68
G1 F2100 X181.819 Y155.964 E310.09801
G0 F7500 X181.818 Y156.462
G1 F2100 X152.494 Y164.319 E311.10773
G0 F7500 X152.494 Y164.1
G0 X154.355 Y164.1
G0 X154.355 Y164.32
G1 F2100 X179.446 Y70.679 E314.33211
G0 F7500 X179.446 Y70.9
G0 X181.387 Y70.9
G0 X181.387 Y70.68
G1 F2100 X181.819 Y71.111 E314.35241
G0 F7500 X181.6 Y71.111
G0 X177.411 Y70.9
G0 X177.411 Y70.679
G1 F2100 X53.179 Y103.967 E318.63014
G0 F7500 X53.18 Y103.692
G1 F2100 X113.806 Y164.318 E321.4818
G0 F7500 X113.806 Y164.1
G0 X110.873 Y164.1
G0 X110.873 Y164.319
G1 F2100 X135.964 Y70.678 E324.70618
G0 F7500 X135.964 Y70.9
G0 X138.961 Y70.9
G0 X138.961 Y70.68
G1 F2100 X181.819 Y113.538 E326.72209
G0 F7500 X181.818 Y112.98
G1 F2100 X53.179 Y147.449 E331.15158
G0 F7500 X53.18 Y147.812
G1 F2100 X73.848 Y70.678 E333.80756
G0 F7500 X73.848 Y70.9
G0 X71.079 Y70.9
G0 X71.079 Y70.68
G1 F2100 X164.717 Y164.318 E338.21201
G0 F7500 X164.717 Y164.1
G0 X166.778 Y164.1
G0 X166.778 Y164.319
G1 F2100 X181.819 Y108.188 E340.1448
G0 F7500 X181.6 Y108.188
G0 X181.6 Y106.768
G0 X181.819 Y106.768
G1 F2100 X53.179 Y141.237 E344.57431
G0 F7500 X53.4 Y141.237
G0 X53.4 Y137.634
G0 X53.18 Y137.634
G1 F2100 X79.864 Y164.318 E345.82945
G1 X79.815 Y164.319
G1 X104.906 Y70.679 E349.0538
G1 X105.02 Y70.68
G1 X181.819 Y147.479 E352.66618
G0 F7500 X181.6 Y147.479
G0 X181.6 Y150.25
G0 X181.819 Y150.25
G1 F2100 X129.312 Y164.319 E354.47418
G1 X129.508 Y164.319
G1 X154.599 Y70.678 E357.69856
G0 F7500 X154.229 Y70.679
G1 F2100 X53.179 Y97.756 E361.17806
G0 F7500 X53.4 Y97.756
G0 X53.4 Y95.207
G0 X53.18 Y95.207
G1 F2100 X122.291 Y164.318 E364.42883
G0 F7500 X122.291 Y164.1
G0 X123.297 Y164.1
G0 X123.297 Y164.319
G1 F2100 X148.388 Y70.679 E367.65318
G0 F7500 X147.446 Y70.68
G1 F2100 X181.819 Y105.052 E369.26996
G0 F7500 X181.6 Y105.052
G0 X181.6 Y100.557
G0 X181.819 Y100.557
G1 F2100 X53.179 Y135.026 E373.69947
G0 F7500 X53.4 Y135.026
G0 X53.4 Y129.148
G0 X53.18 Y129.148
G1 F2100 X88.35 Y164.318 E375.35376
G0 F7500 X88.35 Y164.1
G0 X86.027 Y164.1
G0 X86.027 Y164.319
G1 F2100 X111.118 Y70.678 E378.57814
G0 F7500 X111.118 Y70.9
G0 X113.505 Y70.9
G0 X113.505 Y70.68
G1 F2100 X181.819 Y138.993 E381.7914
G0 F7500 X181.6 Y138.993
G0 X181.6 Y137.827
G0 X181.818 Y137.827
G1 F2100 X82.948 Y164.319 E385.19583
G0 F7500 X82.948 Y164.1
G0 X92.239 Y164.1
G0 X92.239 Y164.319
G1 F2100 X117.329 Y70.678 E388.4202
G0 F7500 X117.329 Y70.9
G0 X121.99 Y70.9
G0 X121.99 Y70.68
G1 F2100 X181.819 Y130.508 E391.23435
G0 F7500 X181.6 Y130.508
G0 X181.6 Y125.403
G0 X181.819 Y125.403
G1 F2100 X53.179 Y159.872 E395.66387
G0 F7500 X53.4 Y159.872
G0 X53.4 Y146.119
G0 X53.18 Y146.119
G1 F2100 X71.379 Y164.318 E396.51989
G0 F7500 X71.379 Y164.1
G0 X73.604 Y164.1
G0 X73.604 Y164.319
G1 F2100 X98.695 Y70.678 E399.74427
G0 F7500 X98.695 Y70.9
G0 X107.865 Y70.9
G0 X107.865 Y70.679
G1 F2100 X53.179 Y85.332 E401.6273
G0 F7500 X53.4 Y85.332
G0 X53.4 Y86.722
G0 X53.18 Y86.722
G1 F2100 X130.776 Y164.318 E405.27718
G0 F7500 X130.776 Y164.1
G0 X135.72 Y164.1
G0 X135.72 Y164.32
G1 F2100 X160.811 Y70.679 E408.50156
G0 F7500 X160.811 Y70.9
G0 X164.417 Y70.9
G0 X164.417 Y70.68
G1 F2100 X181.819 Y88.082 E409.32009
G1 X181.819 Y88.133
G1 X53.179 Y122.602 E413.74961
G0 F7500 X53.4 Y122.602
G0 X53.4 Y120.663
G0 X53.18 Y120.663
G1 F2100 X96.835 Y164.318 E415.80301
G0 F7500 X96.835 Y164.1
G0 X98.45 Y164.1
G0 X98.45 Y164.319
G1 F2100 X123.541 Y70.679 E419.02736
G0 F7500 X123.541 Y70.9
G0 X131.047 Y70.9
G0 X131.047 Y70.679
G1 F2100 X53.179 Y91.544 E421.70862
G0 F7500 X53.4 Y91.544
G0 X53.4 Y101.448
G0 X53.18 Y101.448
G1 F2100 X61.424 Y70.679 E422.7681
G1 X61.501 Y70.679
G1 X53.179 Y72.909 E423.05465
G0 F7500 X53.4 Y72.909
G0 X53.4 Y78.237
G0 X53.18 Y78.237
G1 F2100 X139.261 Y164.318 E427.10364
G0 F7500 X139.261 Y164.1
G0 X141.932 Y164.1
G0 X141.932 Y164.319
G1 F2100 X167.023 Y70.679 E430.32799
G0 F7500 X167.023 Y70.9
G0 X155.931 Y70.9
G0 X155.931 Y70.68
G1 F2100 X181.819 Y96.567 E431.54566
G0 F7500 X181.6 Y96.567
G0 X181.6 Y94.345
G0 X181.818 Y94.345
G1 F2100 X53.179 Y128.814 E435.97514
G0 F7500 X53.4 Y128.814
G0 X53.4 Y124.63
G0 X53.18 Y124.63
G1 F2100 X67.636 Y70.678 E437.83289
G0 F7500 X67.636 Y70.9
G0 X62.593 Y70.9
G0 X62.593 Y70.68
G1 F2100 X156.232 Y164.318 E442.23736
G0 F7500 X156.232 Y164.1
G0 X160.567 Y164.1
G0 X160.567 Y164.319
G1 F2100 X181.818 Y85.006 E444.96837
G0 F7500 X181.6 Y85.006
G0 X181.6 Y75.71
G0 X181.819 Y75.71
G1 F2100 X53.179 Y110.179 E449.39788
G1 F1500 E442.89788
G0 F7500 X53.4 Y110.179
G0 X88.049 Y70.9
G1 F1500 E449.39788
G0 F7500 X88.049 Y70.68
G1 F2100 X181.688 Y164.318 E453.80235
G0 F7500 X181.688 Y164.1
G0 X181.6 Y162.673
G0 X181.819 Y162.673
G1 F2100 X175.676 Y164.319 E454.01388
G0 F7500 X175.676 Y164.1
G0 X179.202 Y164.1
G0 X179.202 Y164.319
G1 F2100 X181.819 Y154.552 E454.35019
G0 F7500 X181.6 Y154.552
G0 X181.6 Y144.038
G0 X181.819 Y144.038
G1 F2100 X106.13 Y164.319 E456.95642
G0 F7500 X106.13 Y164.1
G0 X117.085 Y164.1
G0 X117.085 Y164.32
G1 F2100 X142.176 Y70.679 E460.1808
G0 F7500 X142.176 Y71.2
G1 F1500 E453.6808
;MESH:NONMESH
G0 F300 X142.176 Y71.2 Z0.6
G0 F7500 X53.37 Y164.13
G1 F1500 E460.1808
G0 F7500 X53.1 Y164.4
;TIME_ELAPSED:600.459464
;LAYER:2
M106 S170
;TYPE:WALL-INNER
;MESH:Stars.stl
G1 F1500 X181.9 Y164.4 E464.46471
G1 X181.9 Y70.6 E467.58451
G1 X53.1 Y70.6 E471.86841
G1 X53.1 Y164.4 E474.98821
G0 F9000 X52.7 Y164.8
;TYPE:WALL-OUTER
G1 F1500 X182.3 Y164.8 E479.29873
G1 X182.3 Y70.2 E482.44514
G1 X52.7 Y70.2 E486.75565
G1 X52.7 Y164.8 E489.90206
G0 F9000 X52.97 Y164.53
G0 X54.609 Y164.1
G0 X54.609 Y164.318
;TYPE:FILL
G1 F3000 X53.18 Y162.889 E489.96927
G0 F9000 X53.4 Y162.889
G0 X54.821 Y164.1
G0 X54.821 Y164.32
G1 F3000 X79.912 Y70.679 E493.19365
G1 X79.765 Y70.68
G1 X173.403 Y164.318 E497.5981
G0 F9000 X172.843 Y164.32
G1 F3000 X181.819 Y130.821 E498.75158
G0 F9000 X181.819 Y130.307
G1 F3000 X122.191 Y70.68 E501.55628
G0 F9000 X122.191 Y70.9
G0 X123.394 Y70.9
G0 X123.394 Y70.679
G1 F3000 X98.303 Y164.319 E504.78063
G0 F9000 X98.303 Y164.1
G0 X97.036 Y164.1
G0 X97.036 Y164.318
G1 F3000 X53.18 Y120.462 E506.84348
