;FLAVOR:Marlin
;TIME:17028
;Filament used: 13.115m
;Layer height: 0.2
;MINX:82.7
;MINY:35.2
;MINZ:0.2
;MAXX:152.3
;MAXY:199.8
;MAXZ:40
;Generated with Cura_SteamEngine 5.2.1
M140 S60
M105
M190 S60
M104 S200
M105
M109 S200
M82 ;absolute extrusion mode
M201 X500.00 Y500.00 Z100.00 E5000.00 ;Setup machine max acceleration
M203 X500.00 Y500.00 Z10.00 E50.00 ;Setup machine max feedrate
M204 P500.00 R1000.00 T500.00 ;Setup Print/Retract/Travel acceleration
M205 X8.00 Y8.00 Z0.40 E5.00 ;Setup Jerk
M220 S100 ;Reset Feedrate
M221 S100 ;Reset Flowrate

G28 ;Home

G92 E0 ;Reset Extruder
G1 Z2.0 F3000 ;Move Z Axis up
G1 X10.1 Y20 Z0.28 F5000.0 ;Move to start position
G1 X10.1 Y200.0 Z0.28 F1500.0 E15 ;Draw the first line
G1 X10.4 Y200.0 Z0.28 F5000.0 ;Move to side a little
G1 X10.4 Y20 Z0.28 F1500.0 E30 ;Draw the second line
G92 E0 ;Reset Extruder
G1 Z2.0 F3000 ;Move Z Axis up

G92 E0
G92 E0
G1 F1500 E-6.5
;LAYER_COUNT:200
;LAYER:0
M107
;MESH:Upgrades_and_Awards.stl
G0 F6000 X83.1 Y199.4 Z0.2
;TYPE:WALL-INNER
G1 F1500 E0
G1 F1200 X151.9 Y199.4 E2.2883
G1 X151.9 Y35.6 E7.73631
G1 X83.1 Y35.6 E10.0246
G1 X83.1 Y199.4 E15.47261
G0 F6000 X82.7 Y199.8
;TYPE:WALL-OUTER
G1 F1200 X152.3 Y199.8 E17.78752
G1 X152.3 Y35.2 E23.26214
G1 X82.7 Y35.2 E25.57704
G1 X82.7 Y199.8 E31.05166
G0 F6000 X82.97 Y199.53
G0 X83.4 Y198.673
G0 X83.179 Y198.673
;TYPE:FILL
G1 F1200 X126.853 Y35.679 E36.6641
G0 F6000 X126.853 Y35.9
G0 X129.217 Y35.9
G0 X129.217 Y35.679
G1 F1200 X151.82 Y58.282 E37.72728
G1 X151.819 Y58.419
G1 X114.064 Y199.319 E42.57896
G1 X114.056 Y199.319
G1 X151.818 Y189.201 E43.87923
G0 F6000 X151.6 Y189.201
G0 X151.6 Y185.561
G0 X151.82 Y185.561
G1 F1200 X83.179 Y116.92 E47.10789
G0 F6000 X83.4 Y116.92
G0 X83.4 Y114.418
G0 X83.179 Y114.418
G1 F1200 X151.819 Y96.026 E49.4714
G0 F6000 X151.6 Y96.026
G0 X151.6 Y92.223
G0 X151.82 Y92.223
G1 F1200 X95.276 Y35.679 E52.13106
G0 F6000 X95.795 Y35.679
G1 F1200 X83.18 Y82.761 E53.75225
G0 F6000 X83.179 Y82.979
G1 F1200 X151.82 Y151.62 E56.98091
G0 F6000 X151.819 Y151.931
G1 F1200 X83.179 Y170.323 E59.34442
G0 F6000 X83.4 Y170.323
G0 X83.4 Y167.832
G0 X83.179 Y167.832
G1 F1200 X114.665 Y199.319 E60.82545
G0 F6000 X114.665 Y199.1
G0 X120.276 Y199.1
G0 X120.276 Y199.319
G1 F1200 X151.819 Y81.601 E64.87889
G0 F6000 X151.6 Y81.601
G0 X151.6 Y83.603
G0 X151.819 Y83.603
G1 F1200 X83.179 Y101.994 E67.24239
G0 F6000 X83.4 Y101.994
G0 X83.4 Y99.95
G0 X83.179 Y99.95
G1 F1200 X151.82 Y168.591 E70.47105
G0 F6000 X151.6 Y168.591
G0 X151.6 Y170.566
G0 X151.818 Y170.566
G1 F1200 X83.179 Y188.958 E72.83453
G0 F6000 X83.4 Y188.958
G0 X83.4 Y184.803
G0 X83.179 Y184.803
G1 F1200 X97.695 Y199.319 E73.51732
G0 F6000 X97.695 Y199.1
G0 X95.429 Y199.1
G0 X95.429 Y199.319
G1 F1200 X139.277 Y35.679 E79.15201
G0 F6000 X139.277 Y35.9
G0 X137.702 Y35.9
G0 X137.702 Y35.679
G1 F1200 X151.82 Y49.797 E79.81608
G0 F6000 X151.6 Y49.797
G0 X151.6 Y52.544
G0 X151.819 Y52.544
G1 F1200 X83.18 Y70.936 E82.17955
G0 F6000 X83.4 Y70.936
G0 X83.4 Y74.494
G0 X83.179 Y74.494
G1 F1200 X151.82 Y143.135 E85.40822
G0 F6000 X151.6 Y143.135
G0 X151.6 Y145.719
G0 X151.819 Y145.719
G1 F1200 X83.179 Y164.111 E87.77173
G0 F6000 X83.4 Y164.111
G0 X83.4 Y159.347
G0 X83.179 Y159.347
G1 F1200 X123.151 Y199.319 E89.65189
G0 F6000 X123.151 Y199.1
G0 X126.488 Y199.1
G0 X126.488 Y199.32
G1 F1200 X151.819 Y104.783 E92.90712
G0 F6000 X151.6 Y104.783
G0 X151.6 Y102.237
G0 X151.819 Y102.237
G1 F1200 X83.179 Y120.629 E95.27063
G0 F6000 X83.4 Y120.629
G0 X83.4 Y125.406
G0 X83.179 Y125.406
G1 F1200 X151.82 Y194.047 E98.49929
G0 F6000 X151.6 Y194.047
G0 X151.6 Y195.412
G0 X151.819 Y195.412
G1 F1200 X137.238 Y199.319 E99.00137
G0 F6000 X137.238 Y199.1
G0 X138.911 Y199.1
G0 X138.911 Y199.319
G1 F1200 X151.819 Y151.146 E100.66013
G0 F6000 X151.6 Y151.146
G0 X151.6 Y158.142
G0 X151.819 Y158.142
G1 F1200 X83.179 Y176.534 E103.02364
G0 F6000 X83.179 Y176.317
G1 F1200 X106.18 Y199.319 E104.10556
G0 F6000 X106.18 Y199.1
G0 X107.853 Y199.1
G0 X107.853 Y199.32
G1 F1200 X151.7 Y35.679 E109.74027
G0 F6000 X151.63 Y35.87
G0 X151.6 Y40.121
G0 X151.819 Y40.121
G1 F1200 X83.179 Y58.513 E112.10378
G0 F6000 X83.179 Y57.523
G1 F1200 X151.82 Y126.164 E115.33245
G0 F6000 X151.819 Y127.084
G1 F1200 X83.179 Y145.476 E117.69596
G0 F6000 X83.4 Y145.476
G0 X83.4 Y142.376
G0 X83.179 Y142.376
G1 F1200 X140.121 Y199.319 E120.37436
G0 F6000 X140.121 Y199.1
G0 X145.123 Y199.1
G0 X145.123 Y199.32
G1 F1200 X151.819 Y174.329 E121.23488
G0 F6000 X151.6 Y174.329
G0 X151.6 Y176.777
G0 X151.819 Y176.777
G1 F1200 X83.178 Y195.169 E123.59842
G0 F6000 X83.4 Y195.169
G0 X83.4 Y193.288
G0 X83.179 Y193.288
G1 F1200 X89.21 Y199.319 E123.8821
G1 X89.218 Y199.32
G1 X133.065 Y35.679 E129.51682
G0 F6000 X133.065 Y35.9
G0 X122.032 Y35.9
G0 X122.032 Y35.679
G1 F1200 X83.18 Y46.089 E130.85462
G0 F6000 X83.4 Y46.089
G0 X83.4 Y49.038
G0 X83.179 Y49.038
G1 F1200 X151.82 Y117.679 E134.08328
G0 F6000 X151.6 Y117.679
G0 X151.6 Y114.661
G0 X151.819 Y114.661
G1 F1200 X83.179 Y133.053 E136.44679
G0 F6000 X83.179 Y133.891
G1 F1200 X148.606 Y199.319 E139.5243
G0 F6000 X148.606 Y199.1
G0 X151.334 Y199.1
G0 X151.334 Y199.319
G1 F1200 X151.819 Y197.511 E139.58656
G0 F6000 X151.6 Y197.511
G0 X151.6 Y182.989
G0 X151.819 Y182.989
G1 F1200 X90.875 Y199.319 E141.68507
G0 F6000 X90.875 Y199.1
G0 X101.641 Y199.1
G0 X101.641 Y199.319
G1 F1200 X145.488 Y35.68 E147.31973
G0 F6000 X145.213 Y35.679
G1 F1200 X83.179 Y52.301 E149.45577
G0 F6000 X83.4 Y52.301
G0 X83.4 Y59.579
G0 X83.179 Y59.579
G1 F1200 X89.584 Y35.678 E150.27877
G0 F6000 X89.584 Y35.9
G0 X86.79 Y35.9
G0 X86.79 Y35.679
G1 F1200 X151.82 Y100.708 E153.33756
G0 F6000 X151.6 Y100.708
G0 X151.6 Y108.449
G0 X151.818 Y108.449
G1 F1200 X83.179 Y126.841 E155.70104
G0 F6000 X83.4 Y126.841
G0 X83.4 Y129.126
G0 X83.179 Y129.126
G1 F1200 X108.219 Y35.678 E158.91878
G0 F6000 X108.219 Y35.9
G0 X112.246 Y35.9
G0 X112.246 Y35.679
G1 F1200 X151.82 Y75.253 E160.78022
G0 F6000 X151.6 Y75.253
G0 X151.6 Y77.391
G0 X151.819 Y77.391
G1 F1200 X83.179 Y95.783 E163.14373
G0 F6000 X83.4 Y95.783
G0 X83.4 Y91.464
G0 X83.179 Y91.464
G1 F1200 X151.82 Y160.105 E166.37239
G0 F6000 X151.6 Y160.105
G0 X151.6 Y164.354
G0 X151.819 Y164.354
G1 F1200 X83.179 Y182.746 E168.7359
G0 F6000 X83.4 Y182.746
G0 X83.4 Y175.491
G0 X83.179 Y175.491
G1 F1200 X120.642 Y35.679 E173.55011
G1 X120.732 Y35.679
G1 X151.82 Y66.767 E175.01239
G0 F6000 X151.6 Y66.767
G0 X151.6 Y64.968
G0 X151.819 Y64.968
G1 F1200 X83.18 Y83.359 E177.37586
G0 F6000 X83.4 Y83.359
G0 X83.4 Y77.148
G0 X83.179 Y77.148
G1 F1200 X151.819 Y58.756 E179.73937
G0 F6000 X151.6 Y58.756
G0 X151.6 Y71.179
G0 X151.819 Y71.179
G1 F1200 X83.18 Y89.571 E182.10285
G0 F6000 X83.4 Y89.571
G0 X83.4 Y105.944
G0 X83.179 Y105.944
G1 F1200 X102.007 Y35.679 E184.52232
G0 F6000 X102.007 Y35.9
G0 X103.761 Y35.9
G0 X103.761 Y35.679
G1 F1200 X151.82 Y83.738 E186.78287
G0 F6000 X151.6 Y83.738
G0 X151.6 Y89.814
G0 X151.818 Y89.814
G1 F1200 X83.18 Y108.206 E189.14631
G0 F6000 X83.179 Y108.435
G1 F1200 X151.82 Y177.076 E192.37498
G0 F6000 X151.6 Y177.076
G0 X132.699 Y199.1
G0 X132.699 Y199.319
G1 F1200 X151.819 Y127.965 E194.83194
G0 F6000 X151.6 Y127.965
G0 X151.6 Y133.296
G0 X151.819 Y133.296
G1 F1200 X83.18 Y151.688 E197.19542
G0 F6000 X83.179 Y152.309
G1 F1200 X114.43 Y35.679 E201.21139
G0 F6000 X114.43 Y35.9
G0 X98.85 Y35.9
G0 X98.85 Y35.679
G1 F1200 X83.18 Y39.878 E201.75097
G0 F6000 X83.179 Y40.553
G1 F1200 X151.82 Y109.194 E204.97963
G0 F6000 X151.6 Y109.194
G0 X151.6 Y120.872
G0 X151.819 Y120.872
G1 F1200 X83.179 Y139.264 E207.34314
G0 F6000 X83.4 Y139.264
G0 X83.4 Y150.861
G0 X83.179 Y150.861
G1 F1200 X131.636 Y199.319 E209.62243
G1 F1500 E203.12243
G0 F6000 X131.636 Y199.1
G0 X151.6 Y139.507
G1 F1500 E209.62243
G0 F6000 X151.819 Y139.507
G1 F1200 X83.179 Y157.899 E211.98594
G1 F1500 E205.48594
G0 F6000 X83.4 Y157.899
G0 X151.6 Y134.65
G1 F1500 E211.98594
G0 F6000 X151.82 Y134.65
G1 F1200 X83.179 Y66.009 E215.2146
G0 F6000 X83.4 Y66.009
G0 X83.4 Y64.724
G0 X83.18 Y64.724
G1 F1200 X151.818 Y46.333 E217.57804
G0 F6000 X151.6 Y46.333
G0 X151.6 Y41.312
G0 X151.82 Y41.312
G1 F1200 X146.187 Y35.679 E217.843
G1 F1500 E211.343
G0 F6000 X146.187 Y35.9
G0 X83.372 Y35.9
G1 F1500 E217.843
G0 F6000 X83.372 Y35.679
G1 F1200 X83.179 Y36.397 E217.86773
G0 F6000 X83.7 Y36.397
G1 F1500 E211.36773
;MESH:NONMESH
G0 F300 X83.7 Y36.397 Z0.4
G0 F6000 X83.37 Y199.13
G1 F1500 E217.86773
G0 F6000 X83.1 Y199.4
;TIME_ELAPSED:353.696860
;LAYER:1
M106 S85
;TYPE:WALL-INNER
;MESH:Upgrades_and_Awards.stl
G1 F1350 X151.9 Y199.4 E220.15603
G1 X151.9 Y35.6 E225.60404
G1 X83.1 Y35.6 E227.89233
G1 X83.1 Y199.4 E233.34034
G0 F7500 X82.7 Y199.8
;TYPE:WALL-OUTER
G1 F1350 X152.3 Y199.8 E235.65525
G1 X152.3 Y35.2 E241.12987
G1 X82.7 Y35.2 E243.44477
G1 X82.7 Y199.8 E248.91939
G0 F7500 X82.97 Y199.53
G0 X83.4 Y198.128
G0 X83.179 Y198.128
;TYPE:FILL
G1 F2100 X126.708 Y35.679 E254.51307
G0 F7500 X126.708 Y35.9
G0 X129.416 Y35.9
G0 X129.416 Y35.679
G1 F2100 X151.82 Y58.083 E255.56689
G0 F7500 X151.819 Y57.873
G1 F2100 X113.918 Y199.32 E260.4374
G0 F7500 X114.601 Y199.319
G1 F2100 X151.819 Y189.347 E261.71894
G0 F7500 X151.6 Y189.347
G0 X151.6 Y185.362
G0 X151.82 Y185.362
G1 F2100 X83.179 Y116.721 E264.9476
G0 F7500 X83.4 Y116.721
G0 X83.4 Y114.564
G0 X83.179 Y114.564
G1 F2100 X151.819 Y96.172 E267.31111
G0 F7500 X151.6 Y96.172
G0 X151.6 Y92.024
G0 X151.82 Y92.024
G1 F2100 X95.475 Y35.679 E269.96141
G1 X95.649 Y35.678
G1 X83.179 Y82.217 E271.5639
G0 F7500 X83.179 Y82.78
G1 F2100 X151.82 Y151.421 E274.79256
G0 F7500 X151.819 Y152.077
G1 F2100 X83.179 Y170.469 E277.15607
G0 F7500 X83.4 Y170.469
G0 X83.4 Y167.633
G0 X83.179 Y167.633
G1 F2100 X114.865 Y199.319 E278.64649
G0 F7500 X114.865 Y199.1
G0 X120.13 Y199.1
G0 X120.13 Y199.319
G1 F2100 X151.819 Y81.056 E282.71869
G0 F7500 X151.6 Y81.056
G0 X151.6 Y83.539
G0 X151.82 Y83.539
G1 F2100 X103.96 Y35.679 E284.96988
G0 F7500 X103.96 Y35.9
G0 X101.861 Y35.9
G0 X101.861 Y35.679
G1 F2100 X83.179 Y105.399 E287.37058
G0 F7500 X83.4 Y105.399
G0 X83.4 Y108.236
G0 X83.179 Y108.236
G1 F2100 X151.82 Y176.877 E290.59924
G1 X151.819 Y176.923
G1 X83.179 Y195.315 E292.96275
G0 F7500 X83.4 Y195.315
G0 X83.4 Y193.088
G0 X83.179 Y193.088
G1 F2100 X89.409 Y199.319 E293.25582
G0 F7500 X89.072 Y199.319
G1 F2100 X132.919 Y35.679 E298.8905
G0 F7500 X132.919 Y35.9
G0 X137.902 Y35.9
G0 X137.902 Y35.679
G1 F2100 X151.82 Y49.597 E299.54516
G0 F7500 X151.6 Y49.597
G0 X151.6 Y52.69
G0 X151.819 Y52.69
G1 F2100 X83.179 Y71.082 E301.90867
G0 F7500 X83.4 Y71.082
G0 X83.4 Y74.295
G0 X83.179 Y74.295
G1 F2100 X151.82 Y142.935 E305.13731
G0 F7500 X151.6 Y142.935
G0 X151.6 Y145.865
G0 X151.818 Y145.865
G1 F2100 X83.179 Y164.257 E307.50079
G0 F7500 X83.4 Y164.257
G0 X83.4 Y159.147
G0 X83.179 Y159.147
G1 F2100 X123.35 Y199.319 E309.39033
G0 F7500 X123.35 Y199.1
G0 X126.342 Y199.1
G0 X126.342 Y199.319
G1 F2100 X151.819 Y104.238 E312.6643
G0 F7500 X151.6 Y104.238
G0 X151.6 Y102.383
G0 X151.819 Y102.383
G1 F2100 X83.179 Y120.775 E315.02781
G0 F7500 X83.4 Y120.775
G0 X83.4 Y125.206
G0 X83.179 Y125.206
G1 F2100 X151.82 Y193.847 E318.25647
G0 F7500 X151.6 Y193.847
G0 X151.6 Y195.558
G0 X151.819 Y195.558
G1 F2100 X137.782 Y199.319 E318.73981
G0 F7500 X138.765 Y199.319
G1 F2100 X151.819 Y150.602 E320.41731
G0 F7500 X151.6 Y150.602
G0 X151.6 Y158.288
G0 X151.819 Y158.288
G1 F2100 X83.179 Y176.68 E322.78082
G0 F7500 X83.179 Y176.118
G1 F2100 X106.379 Y199.319 E323.8721
G0 F7500 X106.379 Y199.1
G0 X107.707 Y199.1
G0 X107.707 Y199.319
G1 F2100 X151.554 Y35.679 E329.50678
G0 F7500 X151.554 Y35.9
G0 X151.6 Y40.267
G0 X151.819 Y40.267
G1 F2100 X83.18 Y58.659 E331.87026
G0 F7500 X83.179 Y59.035
G1 F2100 X89.438 Y35.679 E332.67449
G0 F7500 X89.438 Y35.9
G0 X86.99 Y35.9
G0 X86.99 Y35.679
G1 F2100 X151.82 Y100.509 E335.7239
G0 F7500 X151.6 Y100.509
G0 X151.6 Y108.595
G0 X151.819 Y108.595
G1 F2100 X83.18 Y126.987 E338.08738
G0 F7500 X83.4 Y126.987
G0 X83.4 Y128.581
G0 X83.179 Y128.581
G1 F2100 X108.073 Y35.679 E341.28632
G0 F7500 X108.073 Y35.9
G0 X112.446 Y35.9
G0 X112.446 Y35.679
G1 F2100 X151.82 Y75.053 E343.13835
G0 F7500 X151.6 Y75.053
G0 X151.6 Y77.537
G0 X151.819 Y77.537
G1 F2100 X83.179 Y95.929 E345.50186
G0 F7500 X83.4 Y95.929
G0 X83.4 Y99.75
G0 X83.179 Y99.75
G1 F2100 X151.82 Y168.391 E348.73052
G0 F7500 X151.6 Y168.391
G0 X151.6 Y170.712
G0 X151.819 Y170.712
G1 F2100 X83.179 Y189.104 E351.09403
G0 F7500 X83.4 Y189.104
G0 X83.4 Y184.603
G0 X83.179 Y184.603
G1 F2100 X97.894 Y199.319 E351.7862
G0 F7500 X97.894 Y199.1
G0 X95.283 Y199.1
G0 X95.283 Y199.319
G1 F2100 X139.131 Y35.679 E357.4209
G0 F7500 X139.131 Y35.9
G0 X145.342 Y35.9
G0 X145.342 Y35.68
G1 F2100 X101.495 Y199.319 E363.05555
G0 F7500 X101.495 Y199.1
G0 X91.419 Y199.1
G0 X91.419 Y199.319
G1 F2100 X151.819 Y183.135 E365.13533
G0 F7500 X151.6 Y183.135
G0 X151.6 Y173.784
G0 X151.819 Y173.784
G1 F2100 X144.977 Y199.319 E366.01458
G0 F7500 X144.977 Y199.1
G0 X148.806 Y199.1
G0 X148.806 Y199.319
G1 F2100 X83.179 Y133.691 E369.1015
G0 F7500 X83.179 Y133.199
G1 F2100 X151.819 Y114.807 E371.46501
G0 F7500 X151.6 Y114.807
G0 X151.6 Y117.48
G0 X151.82 Y117.48
G1 F2100 X83.179 Y48.839 E374.69367
G0 F7500 X83.4 Y48.839
G0 X83.4 Y46.235
G0 X83.18 Y46.235
G1 F2100 X122.577 Y35.679 E376.05024
G0 F7500 X122.577 Y35.9
G0 X120.931 Y35.9
G0 X120.931 Y35.679
G1 F2100 X151.82 Y66.568 E377.50317
G0 F7500 X151.6 Y66.568
G0 X151.6 Y65.114
G0 X151.818 Y65.114
G1 F2100 X83.18 Y83.505 E379.8666
G0 F7500 X83.4 Y83.505
G0 X83.4 Y77.294
G0 X83.18 Y77.294
G1 F2100 X151.819 Y58.902 E382.23008
G0 F7500 X151.6 Y58.902
G0 X151.6 Y71.325
G0 X151.819 Y71.325
G1 F2100 X83.179 Y89.717 E384.59359
G0 F7500 X83.4 Y89.717
G0 X83.4 Y91.265
G0 X83.179 Y91.265
G1 F2100 X151.82 Y159.906 E387.82225
G0 F7500 X151.6 Y159.906
G0 X151.6 Y164.5
G0 X151.818 Y164.5
G1 F2100 X83.179 Y182.892 E390.18573
G0 F7500 X83.4 Y182.892
G0 X83.4 Y174.946
G0 X83.179 Y174.946
G1 F2100 X120.496 Y35.679 E394.98118
G0 F7500 X120.496 Y35.9
G0 X114.284 Y35.9
G0 X114.284 Y35.679
G1 F2100 X83.179 Y151.763 E398.97835
G1 X83.179 Y151.834
G1 X151.819 Y133.442 E401.34186
G0 F7500 X151.6 Y133.442
G0 X151.6 Y134.45
G0 X151.82 Y134.45
G1 F2100 X83.179 Y65.809 E404.57052
G0 F7500 X83.18 Y64.87
G1 F2100 X151.819 Y46.478 E406.934
G0 F7500 X151.6 Y46.478
G0 X151.6 Y41.112
G0 X151.82 Y41.112
G1 F2100 X146.387 Y35.679 E407.18955
G0 F7500 X145.758 Y35.679
G1 F2100 X83.179 Y52.447 E409.34436
G0 F7500 X83.4 Y52.447
G0 X83.4 Y57.324
G0 X83.179 Y57.324
G1 F2100 X151.82 Y125.965 E412.57302
G0 F7500 X151.6 Y125.965
G0 X151.6 Y127.23
G0 X151.819 Y127.23
G1 F2100 X83.18 Y145.622 E414.9365
G0 F7500 X83.4 Y145.622
G0 X83.4 Y142.177
G0 X83.179 Y142.177
G1 F2100 X140.321 Y199.319 E417.62428
G0 F7500 X140.321 Y199.1
G0 X132.553 Y199.1
G0 X132.553 Y199.32
G1 F2100 X151.819 Y127.42 E420.10005
G0 F7500 X151.6 Y127.42
G0 X151.6 Y121.018
G0 X151.819 Y121.018
G1 F2100 X83.179 Y139.41 E422.46356
G0 F7500 X83.4 Y139.41
G0 X83.4 Y150.662
G0 X83.179 Y150.662
G1 F2100 X131.835 Y199.319 E424.75221
G0 F7500 X131.835 Y199.1
G0 X151.188 Y199.1
G0 X151.188 Y199.32
G1 F2100 X151.819 Y196.967 E424.83324
G1 F1500 E418.33324
G0 F7500 X151.6 Y196.967
G0 X151.6 Y139.653
G1 F1500 E424.83324
G0 F7500 X151.819 Y139.653
G1 F2100 X83.179 Y158.045 E427.19675
G1 F1500 E420.69675
G0 F7500 X83.4 Y158.045
G0 X83.4 Y108.352
G1 F1500 E427.19675
G0 F7500 X83.179 Y108.352
G1 F2100 X151.819 Y89.96 E429.56026
G0 F7500 X151.6 Y89.96
G0 X151.6 Y83.749
G0 X151.818 Y83.749
G1 F2100 X83.18 Y102.14 E431.9237
G1 F1500 E425.4237
G0 F7500 X83.4 Y102.14
G0 X83.4 Y40.353
G1 F1500 E431.9237
G0 F7500 X83.179 Y40.353
G1 F2100 X151.82 Y108.994 E435.15236
G1 F1500 E428.65236
G0 F7500 X151.6 Y108.994
G0 X99.395 Y35.9
G1 F1500 E435.15236
G0 F7500 X99.395 Y35.679
G1 F2100 X83.18 Y40.024 E435.7107
G0 F7500 X83.4 Y40.024
G0 X83.4 Y35.852
G0 X83.18 Y35.852
G1 F2100 X83.226 Y35.678 E435.71669
G0 F7500 X83.7 Y36.082
G1 F1500 E429.21669
;MESH:NONMESH
G0 F300 X83.7 Y36.082 Z0.6
G0 F7500 X83.37 Y199.13
G1 F1500 E435.71669
G0 F7500 X83.1 Y199.4
;TIME_ELAPSED:579.541818
;LAYER:2
M106 S170
;TYPE:WALL-INNER
