;FLAVOR:Marlin
;TIME:10731
;Filament used: 8.35487m
;Layer height: 0.2
;MINX:47.701
;MINY:95.2
;MINZ:0.2
;MAXX:187.299
;MAXY:139.8
;MAXZ:40
;Generated with Cura_SteamEngine 5.2.1
M140 S60
M105
M190 S60
M104 S200
M105
M109 S200
M82 ;absolute extrusion mode
M201 X500.00 Y500.00 Z100.00 E5000.00 ;Setup machine max acceleration
M203 X500.00 Y500.00 Z10.00 E50.00 ;Setup machine max feedrate
M204 P500.00 R1000.00 T500.00 ;Setup Print/Retract/Travel acceleration
M205 X8.00 Y8.00 Z0.40 E5.00 ;Setup Jerk
M220 S100 ;Reset Feedrate
M221 S100 ;Reset Flowrate

G28 ;Home

G92 E0 ;Reset Extruder
G1 Z2.0 F3000 ;Move Z Axis up
G1 X10.1 Y20 Z0.28 F5000.0 ;Move to start position
G1 X10.1 Y200.0 Z0.28 F1500.0 E15 ;Draw the first line
G1 X10.4 Y200.0 Z0.28 F5000.0 ;Move to side a little
G1 X10.4 Y20 Z0.28 F1500.0 E30 ;Draw the second line
G92 E0 ;Reset Extruder
G1 Z2.0 F3000 ;Move Z Axis up

G92 E0
G92 E0
G1 F1500 E-6.5
;LAYER_COUNT:200
;LAYER:0
M107
;MESH:Water1.stl
G0 F6000 X74.572 Y127.589 Z0.2
;TYPE:WALL-INNER
G1 F1500 E0
G1 F1200 X71.288 Y128.096 E0.11052
G1 X71.106 Y128.096 E0.11657
G1 X67.822 Y127.589 E0.22709
G1 X64.797 Y126.092 E0.33935
G1 X62.37 Y123.743 E0.45169
G1 X62.034 Y123.102 E0.47576
G1 X48.101 Y123.101 E0.93918
G1 X48.101 Y139.4 E1.48128
G1 X186.899 Y139.4 E6.09772
G1 X186.899 Y95.6 E7.55452
G1 X48.102 Y95.601 E12.17092
G1 X48.102 Y103.75 E12.44196
G1 X48.102 Y111.899 E12.713
G1 X62.034 Y111.898 E13.17638
G1 X62.37 Y111.257 E13.20045
G1 X64.797 Y108.908 E13.31279
G1 X67.822 Y107.411 E13.42505
G1 X71.105 Y106.903 E13.53554
G1 X71.289 Y106.903 E13.54166
G1 X74.571 Y107.411 E13.65212
G1 X77.596 Y108.908 E13.76438
G1 X80.022 Y111.259 E13.87674
G1 X81.574 Y114.216 E13.98781
G1 X82.107 Y117.5 E14.09847
G1 X81.576 Y120.773 E14.20875
G1 X80.022 Y123.741 E14.32018
G1 X77.596 Y126.092 E14.43254
G1 X74.572 Y127.589 E14.54477
G0 F6000 X74.45 Y127.202
;TYPE:WALL-OUTER
G1 F1200 X71.197 Y127.705 E14.65425
G1 X67.943 Y127.202 E14.76376
G1 X65.014 Y125.748 E14.87253
G1 X62.695 Y123.501 E14.97992
G1 X62.276 Y122.702 E15.00993
G1 X47.701 Y122.701 E15.4947
G1 X47.701 Y139.8 E16.06341
G1 X187.299 Y139.8 E20.70646
G1 X187.299 Y95.2 E22.18986
G1 X47.702 Y95.201 E26.83288
G1 X47.702 Y103.75 E27.11722
G1 X47.702 Y112.299 E27.40156
G1 X62.276 Y112.298 E27.88629
G1 X62.695 Y111.499 E27.9163
G1 X65.014 Y109.252 E28.0237
G1 X67.943 Y107.798 E28.13246
G1 X71.197 Y107.294 E28.24198
G1 X74.45 Y107.798 E28.35147
G1 X77.379 Y109.252 E28.46023
G1 X79.699 Y111.502 E28.56772
G1 X81.19 Y114.353 E28.67473
G1 X81.703 Y117.502 E28.78085
G1 X81.19 Y120.647 E28.88683
G1 X79.699 Y123.498 E28.99384
G1 X77.379 Y125.748 E29.10133
G1 X74.45 Y127.202 E29.2101
G0 F6000 X74.759 Y127.829
G0 X76.269 Y127.082
G0 X76.172 Y126.884
;TYPE:FILL
G1 F1200 X88.607 Y139.319 E29.795
G0 F6000 X88.607 Y139.1
G0 X86.66 Y139.1
G0 X86.66 Y139.319
G1 F1200 X98.353 Y95.679 E31.29767
G0 F6000 X98.353 Y95.9
G0 X95.879 Y95.9
G0 X95.879 Y95.68
G1 F1200 X139.519 Y139.319 E33.35034
G0 F6000 X139.519 Y139.1
G0 X142.565 Y139.1
G0 X142.565 Y139.319
G1 F1200 X154.258 Y95.679 E34.85301
G0 F6000 X154.258 Y95.9
G0 X155.276 Y95.9
G0 X155.276 Y95.68
G1 F1200 X186.818 Y127.221 E36.33663
G0 F6000 X186.599 Y127.221
G0 X186.599 Y130.13
G0 X186.817 Y130.13
G1 F1200 X152.52 Y139.319 E37.51758
G0 F6000 X152.52 Y139.1
G0 X154.988 Y139.1
G0 X154.988 Y139.32
G1 F1200 X166.681 Y95.679 E39.02029
G0 F6000 X166.681 Y95.9
G0 X163.761 Y95.9
G0 X163.761 Y95.68
G1 F1200 X186.818 Y118.736 E40.10479
G0 F6000 X186.599 Y118.736
G0 X186.599 Y117.706
G0 X186.818 Y117.706
G1 F1200 X106.156 Y139.319 E42.88226
G0 F6000 X105.578 Y139.319
G1 F1200 X81.882 Y115.623 E43.99685
G0 F6000 X81.748 Y114.801
G1 F1200 X153.11 Y95.68 E46.45408
G0 F6000 X153.11 Y95.9
G0 X148.046 Y95.9
G0 X148.046 Y95.679
G1 F1200 X136.353 Y139.32 E47.95679
G0 F6000 X136.353 Y139.1
G0 X131.033 Y139.1
G0 X131.033 Y139.319
G1 F1200 X87.394 Y95.68 E50.00943
G0 F6000 X87.394 Y95.9
G0 X85.93 Y95.9
G0 X85.93 Y95.679
G1 F1200 X81.2 Y113.33 E50.61722
G0 F6000 X81.393 Y113.229
G0 X80.215 Y111.113
G0 X78.482 Y109.348
G0 X78.328 Y109.506
G1 F1200 X129.928 Y95.68 E52.39398
G1 X129.82 Y95.68
G1 X173.46 Y139.319 E54.44665
G1 X173.623 Y139.319
G1 X185.317 Y95.678 E55.94936
G0 F6000 X185.317 Y95.9
G0 X186.599 Y99.071
G0 X186.818 Y99.071
G1 F1200 X48.18 Y136.219 E60.72315
G0 F6000 X48.401 Y136.219
G0 X49.39 Y139.1
G0 X49.39 Y139.319
G1 F1200 X53.715 Y123.179 E61.2789
G0 F6000 X53.715 Y123.401
G0 X55.498 Y123.401
G0 X55.498 Y123.181
G1 F1200 X71.636 Y139.319 E62.03799
G0 F6000 X71.636 Y139.1
G0 X74.236 Y139.1
G0 X74.236 Y139.32
G1 F1200 X77.806 Y125.998 E62.49671
G0 F6000 X77.961 Y126.158
G0 X80.215 Y123.887
G0 X80.788 Y122.923
G0 X80.594 Y122.821
G1 F1200 X97.092 Y139.319 E63.27273
G0 F6000 X97.092 Y139.1
G0 X99.083 Y139.1
G0 X99.083 Y139.319
G1 F1200 X110.776 Y95.679 E64.7754
G0 F6000 X110.776 Y95.9
G0 X112.849 Y95.9
G0 X112.849 Y95.68
G1 F1200 X156.489 Y139.319 E66.82807
G0 F6000 X156.489 Y139.1
G0 X161.2 Y139.1
G0 X161.2 Y139.319
G1 F1200 X172.893 Y95.679 E68.33074
G0 F6000 X172.246 Y95.68
G1 F1200 X186.818 Y110.251 E69.01614
G0 F6000 X186.599 Y110.251
G0 X186.599 Y111.495
G0 X186.817 Y111.495
G1 F1200 X82.975 Y139.319 E72.59177
G0 F6000 X82.975 Y139.1
G0 X80.448 Y139.1
G0 X80.448 Y139.319
G1 F1200 X92.142 Y95.679 E74.09445
G0 F6000 X92.142 Y95.9
G0 X83.563 Y95.9
G0 X83.563 Y95.68
G1 F1200 X48.182 Y105.16 E75.31274
G0 F6000 X48.401 Y105.16
G0 X48.401 Y107.379
G0 X48.181 Y107.379
G1 F1200 X52.62 Y111.817 E75.52151
G0 F6000 X52.62 Y111.599
G0 X50.547 Y111.599
G0 X50.547 Y111.818
G1 F1200 X54.871 Y95.68 E76.0772
G0 F6000 X54.871 Y95.9
G0 X53.453 Y95.9
G0 X53.453 Y95.68
G1 F1200 X65.999 Y108.226 E76.66732
G0 F6000 X65.902 Y108.028
G0 X64.775 Y108.646
G0 X63.274 Y109.966
G0 X63.425 Y110.123
G1 F1200 X67.295 Y95.679 E77.16468
G0 F6000 X67.295 Y95.9
G0 X70.423 Y95.9
G0 X70.423 Y95.68
G1 F1200 X114.063 Y139.319 E79.21734
G0 F6000 X114.063 Y139.1
G0 X111.507 Y139.1
G0 X111.507 Y139.319
G1 F1200 X123.2 Y95.679 E80.72002
G0 F6000 X123.2 Y95.9
G0 X121.335 Y95.9
G0 X121.335 Y95.68
G1 F1200 X164.975 Y139.319 E82.77268
G0 F6000 X164.975 Y139.1
G0 X167.411 Y139.1
G0 X167.411 Y139.319
G1 F1200 X179.105 Y95.679 E84.27536
G0 F6000 X179.105 Y95.9
G0 X180.732 Y95.9
G0 X180.732 Y95.68
G1 F1200 X186.818 Y101.766 E84.56163
G0 F6000 X186.599 Y101.766
G0 X186.599 Y105.283
G0 X186.818 Y105.283
G1 F1200 X59.793 Y139.319 E88.93554
G0 F6000 X59.793 Y139.1
G0 X61.813 Y139.1
G0 X61.813 Y139.319
G1 F1200 X65.271 Y126.414 E89.3799
G0 F6000 X65.173 Y126.611
G0 X64.118 Y125.853
G0 X64.273 Y125.695
G1 F1200 X48.18 Y130.007 E89.93404
G0 F6000 X48.401 Y130.007
G0 X48.401 Y132.834
G0 X48.18 Y132.834
G1 F1200 X54.666 Y139.319 E90.23909
G0 F6000 X55.601 Y139.32
G1 F1200 X59.926 Y123.18 E90.79485
G0 F6000 X59.926 Y123.401
G0 X50.479 Y123.401
G0 X50.479 Y123.18
G1 F1200 X48.18 Y123.796 E90.87401
G0 F6000 X48.18 Y124.348
G1 F1200 X63.151 Y139.319 E91.5782
G0 F6000 X63.151 Y139.1
G0 X68.025 Y139.1
G0 X68.025 Y139.319
G1 F1200 X71.015 Y128.161 E91.96241
G0 F6000 X70.981 Y128.378
G0 X68.558 Y128.006
G0 X68.592 Y127.789
G1 F1200 X80.122 Y139.319 E92.50475
G0 F6000 X80.122 Y139.1
G0 X92.872 Y139.1
G0 X92.872 Y139.319
G1 F1200 X104.565 Y95.679 E94.00742
G0 F6000 X104.364 Y95.68
G1 F1200 X148.004 Y139.319 E96.06009
G0 F6000 X148.776 Y139.319
G1 F1200 X160.47 Y95.678 E97.5628
G0 F6000 X160.47 Y95.9
G0 X146.791 Y95.9
G0 X146.791 Y95.68
G1 F1200 X186.818 Y135.707 E99.44555
G0 F6000 X186.817 Y136.341
G1 F1200 X175.702 Y139.32 E99.82828
G0 F6000 X175.702 Y139.1
G0 X179.835 Y139.1
G0 X179.835 Y139.319
G1 F1200 X186.818 Y113.257 E100.72569
G0 F6000 X186.599 Y113.257
G0 X186.599 Y123.918
G0 X186.818 Y123.918
G1 F1200 X129.338 Y139.319 E102.70491
G0 F6000 X130.141 Y139.319
G1 F1200 X141.835 Y95.679 E104.20759
G0 F6000 X141.835 Y95.9
G0 X138.305 Y95.9
G0 X138.305 Y95.68
G1 F1200 X181.945 Y139.319 E106.26026
G0 F6000 X181.945 Y139.1
G0 X186.046 Y139.1
G0 X186.046 Y139.319
G1 F1200 X186.818 Y136.441 E106.35937
G1 F1500 E99.85937
G0 F6000 X186.599 Y136.441
G0 X176.293 Y95.9
G1 F1500 E106.35937
G0 F6000 X176.293 Y95.68
G1 F1200 X81.51 Y121.077 E109.62307
G0 F6000 X81.703 Y121.179
G0 X81.802 Y120.86
G0 X82.352 Y117.5
G0 X81.802 Y114.14
G0 X80.215 Y111.113
G0 X77.744 Y108.715
G0 X76.459 Y108.012
G0 X76.361 Y108.209
G1 F1200 X79.718 Y95.679 E110.05452
G0 F6000 X78.908 Y95.68
G1 F1200 X122.548 Y139.319 E112.10719
G0 F6000 X122.548 Y139.1
G0 X123.93 Y139.1
G0 X123.93 Y139.319
G1 F1200 X135.623 Y95.679 E113.60986
G0 F6000 X135.623 Y95.9
G0 X129.411 Y95.9
G0 X129.411 Y95.679
G1 F1200 X117.718 Y139.32 E115.11256
G0 F6000 X117.718 Y139.1
G0 X105.295 Y139.1
G0 X105.295 Y139.319
G1 F1200 X116.988 Y95.68 E116.6152
G0 F6000 X116.988 Y95.9
G0 X106.746 Y95.9
G0 X106.746 Y95.68
G1 F1200 X48.182 Y111.372 E118.63176
G0 F6000 X48.401 Y111.372
G0 X56.759 Y111.599
G0 X56.759 Y111.818
G1 F1200 X61.083 Y95.679 E119.18748
G0 F6000 X60.38 Y95.68
G1 F1200 X48.182 Y98.949 E119.6075
G1 X48.181 Y98.893
G1 X61.104 Y111.816 E120.21536
G0 F6000 X61.104 Y111.599
G0 X64.649 Y108.715
G0 X67.757 Y107.177
G0 X70.462 Y106.7
G0 X70.495 Y106.916
G1 F1200 X73.506 Y95.68 E120.60226
G0 F6000 X73.506 Y95.9
G0 X73.439 Y106.933
G0 X73.406 Y107.147
G1 F1200 X61.938 Y95.68 E121.14165
G0 F6000 X61.938 Y95.9
G0 X48.66 Y95.9
G0 X48.66 Y95.68
G1 F1200 X48.181 Y97.465 E121.20312
G0 F6000 X48.701 Y97.465
G1 F1500 E114.70312
;MESH:NONMESH
G0 F300 X48.701 Y97.465 Z0.4
G0 F6000 X74.636 Y107.177
G0 X77.744 Y108.715
G0 X80.215 Y111.113
G0 X81.802 Y114.14
G0 X82.352 Y117.5
G0 X81.802 Y120.86
G0 X80.215 Y123.887
G0 X77.744 Y126.285
G0 X74.704 Y127.857
G1 F1500 E121.20312
G0 F6000 X74.572 Y127.589
;TIME_ELAPSED:203.565331
;LAYER:1
M106 S85
;TYPE:WALL-INNER
;MESH:Water1.stl
G1 F1350 X71.288 Y128.096 E121.31364
G1 X71.106 Y128.096 E121.3197
G1 X67.822 Y127.589 E121.43022
G1 X64.797 Y126.092 E121.54248
G1 X62.37 Y123.743 E121.65481
G1 X62.034 Y123.102 E121.67889
G1 X48.101 Y123.101 E122.1423
G1 X48.101 Y139.4 E122.68441
G1 X186.899 Y139.4 E127.30085
G1 X186.899 Y95.6 E128.75764
G1 X48.102 Y95.601 E133.37405
G1 X48.102 Y111.899 E133.91612
G1 X62.034 Y111.898 E134.3795
G1 X62.37 Y111.257 E134.40357
G1 X64.797 Y108.908 E134.51591
G1 X67.822 Y107.411 E134.62817
G1 X71.105 Y106.903 E134.73866
G1 X71.289 Y106.903 E134.74478
G1 X74.571 Y107.411 E134.85524
G1 X77.596 Y108.908 E134.9675
G1 X80.022 Y111.259 E135.07986
G1 X81.574 Y114.216 E135.19093
G1 X82.107 Y117.5 E135.30159
G1 X81.576 Y120.773 E135.41187
G1 X80.022 Y123.741 E135.5233
G1 X77.596 Y126.092 E135.63566
G1 X74.572 Y127.589 E135.74789
G0 F7500 X74.45 Y127.202
;TYPE:WALL-OUTER
G1 F1350 X71.197 Y127.705 E135.85737
G1 X67.943 Y127.202 E135.96689
G1 X65.014 Y125.748 E136.07565
G1 X62.695 Y123.501 E136.18305
G1 X62.276 Y122.702 E136.21305
G1 X47.701 Y122.701 E136.69782
G1 X47.701 Y139.8 E137.26654
G1 X187.299 Y139.8 E141.90958
G1 X187.299 Y95.2 E143.39299
G1 X47.702 Y95.201 E148.036
G1 X47.702 Y112.299 E148.60468
G1 X62.276 Y112.298 E149.08942
G1 X62.695 Y111.499 E149.11942
G1 X65.014 Y109.252 E149.22682
G1 X67.943 Y107.798 E149.33558
G1 X71.197 Y107.294 E149.4451
G1 X74.45 Y107.798 E149.55459
G1 X77.379 Y109.252 E149.66335
G1 X79.699 Y111.502 E149.77084
G1 X81.19 Y114.353 E149.87785
G1 X81.703 Y117.502 E149.98397
G1 X81.19 Y120.647 E150.08996
G1 X79.699 Y123.498 E150.19696
G1 X77.379 Y125.748 E150.30446
G1 X74.45 Y127.202 E150.41322
G0 F7500 X74.759 Y127.829
G0 X76.403 Y127.016
G0 X76.306 Y126.818
;TYPE:FILL
G1 F2100 X88.806 Y139.319 E151.0012
G0 F7500 X88.806 Y139.1
G0 X86.514 Y139.1
G0 X86.514 Y139.319
G1 F2100 X98.207 Y95.68 E152.50384
G0 F7500 X98.207 Y95.9
G0 X96.078 Y95.9
G0 X96.078 Y95.68
G1 F2100 X139.718 Y139.319 E154.55651
G0 F7500 X139.718 Y139.1
G0 X142.419 Y139.1
G0 X142.419 Y139.32
G1 F2100 X154.112 Y95.679 E156.05922
G0 F7500 X153.656 Y95.679
G1 F2100 X81.771 Y114.941 E158.53447
G0 F7500 X81.843 Y115.385
G1 F2100 X105.777 Y139.319 E159.66025
G0 F7500 X105.149 Y139.319
G1 F2100 X116.842 Y95.679 E161.16292
G0 F7500 X116.842 Y95.9
G0 X113.049 Y95.9
G0 X113.049 Y95.68
G1 F2100 X156.689 Y139.319 E163.21559
G0 F7500 X156.689 Y139.1
G0 X154.842 Y139.1
G0 X154.842 Y139.319
G1 F2100 X166.536 Y95.678 E164.7183
G0 F7500 X166.536 Y95.9
G0 X163.961 Y95.9
G0 X163.961 Y95.68
G1 F2100 X186.818 Y118.537 E165.79343
G0 F7500 X186.818 Y117.852
G1 F2100 X106.702 Y139.319 E168.55209
G0 F7500 X106.702 Y139.1
G0 X111.36 Y139.1
G0 X111.36 Y139.319
G1 F2100 X123.054 Y95.679 E170.05477
G0 F7500 X123.054 Y95.9
G0 X121.534 Y95.9
G0 X121.534 Y95.68
G1 F2100 X165.174 Y139.319 E172.10744
G0 F7500 X165.174 Y139.1
G0 X167.265 Y139.1
G0 X167.265 Y139.319
G1 F2100 X178.959 Y95.679 E173.61012
G0 F7500 X178.959 Y95.9
G0 X180.931 Y95.9
G0 X180.931 Y95.68
G1 F2100 X186.818 Y101.566 E173.88701
G0 F7500 X186.599 Y101.566
G0 X186.599 Y99.217
G0 X186.818 Y99.217
G1 F2100 X48.18 Y136.365 E178.66079
G0 F7500 X48.401 Y136.365
G0 X49.244 Y139.1
G0 X49.244 Y139.319
G1 F2100 X53.569 Y123.179 E179.21655
G0 F7500 X53.569 Y123.401
G0 X55.698 Y123.401
G0 X55.698 Y123.181
G1 F2100 X71.836 Y139.319 E179.97563
G0 F7500 X71.836 Y139.1
G0 X74.091 Y139.1
G0 X74.091 Y139.319
G1 F2100 X77.614 Y126.171 E180.42836
G0 F7500 X77.711 Y126.369
G0 X80.215 Y123.887
G0 X80.857 Y122.792
G0 X80.663 Y122.69
G1 F2100 X97.292 Y139.319 E181.21054
G0 F7500 X97.292 Y139.1
G0 X98.937 Y139.1
G0 X98.937 Y139.32
G1 F2100 X110.63 Y95.679 E182.71324
G0 F7500 X110.63 Y95.9
G0 X107.29 Y95.9
G0 X107.29 Y95.68
G1 F2100 X48.181 Y111.518 E184.74856
G0 F7500 X48.401 Y111.518
G0 X50.401 Y111.599
G0 X50.401 Y111.819
G1 F2100 X54.725 Y95.68 E185.30428
G0 F7500 X54.725 Y95.9
G0 X53.652 Y95.9
G0 X53.652 Y95.68
G1 F2100 X66.132 Y108.16 E185.8913
G0 F7500 X66.035 Y107.962
G0 X64.788 Y108.639
G0 X63.077 Y110.157
G0 X63.228 Y110.313
G1 F2100 X67.149 Y95.679 E186.3952
G0 F7500 X67.149 Y95.9
G0 X70.622 Y95.9
G0 X70.622 Y95.68
G1 F2100 X114.262 Y139.319 E188.44787
G0 F7500 X114.262 Y139.1
G0 X117.572 Y139.1
G0 X117.572 Y139.319
G1 F2100 X129.265 Y95.679 E189.95054
G0 F7500 X130.019 Y95.68
G1 F2100 X173.659 Y139.319 E192.00321
G1 X173.477 Y139.319
G1 X185.171 Y95.678 E193.50592
G0 F7500 X185.171 Y95.9
G0 X176.838 Y95.9
G0 X176.838 Y95.68
G1 F2100 X81.421 Y121.246 E196.79145
G0 F7500 X81.615 Y121.348
G0 X81.802 Y120.86
G0 X82.352 Y117.5
G0 X81.802 Y114.14
G0 X81.297 Y113.046
G0 X81.104 Y113.146
G1 F2100 X85.784 Y95.679 E197.39289
G0 F7500 X85.784 Y95.9
G0 X84.107 Y95.9
G0 X84.107 Y95.68
G1 F2100 X48.182 Y105.306 E198.62991
G0 F7500 X48.401 Y105.306
G0 X48.401 Y107.179
G0 X48.181 Y107.179
G1 F2100 X52.819 Y111.817 E198.84807
G0 F7500 X52.819 Y111.599
G0 X56.613 Y111.599
G0 X56.613 Y111.817
G1 F2100 X60.937 Y95.68 E199.40372
G1 X60.924 Y95.68
G1 X48.182 Y99.095 E199.84248
G0 F7500 X48.181 Y98.694
G1 F2100 X61.304 Y111.816 E200.45972
G0 F7500 X61.304 Y111.599
G0 X64.649 Y108.715
G0 X67.757 Y107.177
G0 X70.31 Y106.724
G0 X70.343 Y106.94
G1 F2100 X73.36 Y95.68 E200.84744
G0 F7500 X73.36 Y95.9
G0 X79.108 Y95.9
G0 X79.108 Y95.68
G1 F2100 X122.748 Y139.319 E202.90011
G0 F7500 X122.748 Y139.1
G0 X123.784 Y139.1
G0 X123.784 Y139.319
G1 F2100 X135.477 Y95.679 E204.40278
G0 F7500 X135.477 Y95.9
G0 X138.505 Y95.9
G0 X138.505 Y95.68
G1 F2100 X182.145 Y139.319 E206.45545
G0 F7500 X182.145 Y139.1
G0 X179.689 Y139.1
G0 X179.689 Y139.32
G1 F2100 X186.818 Y112.712 E207.37165
G0 F7500 X186.599 Y112.712
G0 X186.599 Y111.641
G0 X186.817 Y111.641
G1 F2100 X83.52 Y139.319 E210.92852
G0 F7500 X83.52 Y139.1
G0 X80.321 Y139.1
G0 X80.321 Y139.319
G1 F2100 X68.827 Y127.825 E211.46916
G0 F7500 X68.793 Y128.042
G0 X70.841 Y128.356
G0 X70.875 Y128.139
G1 F2100 X67.879 Y139.319 E211.85413
G0 F7500 X67.879 Y139.1
G0 X63.351 Y139.1
G0 X63.351 Y139.319
G1 F2100 X48.18 Y124.149 E212.5677
G0 F7500 X48.18 Y123.942
G1 F2100 X51.024 Y123.18 E212.66563
G0 F7500 X51.024 Y123.401
G0 X48.401 Y130.153
G0 X48.18 Y130.153
G1 F2100 X64.391 Y125.81 E213.22382
G0 F7500 X65.142 Y126.351
G1 F2100 X61.667 Y139.319 E213.67036
G0 F7500 X61.667 Y139.1
G0 X60.338 Y139.1
G0 X60.338 Y139.319
G1 F2100 X186.817 Y105.429 E218.02547
G0 F7500 X186.599 Y105.429
G0 X186.599 Y110.051
