;FLAVOR:Marlin
;TIME:10683
;Filament used: 9.14141m
;Layer height: 0.2
;MINX:28.195
;MINY:95.2
;MINZ:0.2
;MAXX:206.792
;MAXY:139.8
;MAXZ:40
;Generated with Cura_SteamEngine 5.2.1
M140 S60
M105
M190 S60
M104 S200
M105
M109 S200
M82 ;absolute extrusion mode
M201 X500.00 Y500.00 Z100.00 E5000.00 ;Setup machine max acceleration
M203 X500.00 Y500.00 Z10.00 E50.00 ;Setup machine max feedrate
M204 P500.00 R1000.00 T500.00 ;Setup Print/Retract/Travel acceleration
M205 X8.00 Y8.00 Z0.40 E5.00 ;Setup Jerk
M220 S100 ;Reset Feedrate
M221 S100 ;Reset Flowrate

G28 ;Home

G92 E0 ;Reset Extruder
G1 Z2.0 F3000 ;Move Z Axis up
G1 X10.1 Y20 Z0.28 F5000.0 ;Move to start position
G1 X10.1 Y200.0 Z0.28 F1500.0 E15 ;Draw the first line
G1 X10.4 Y200.0 Z0.28 F5000.0 ;Move to side a little
G1 X10.4 Y20 Z0.28 F1500.0 E30 ;Draw the second line
G92 E0 ;Reset Extruder
G1 Z2.0 F3000 ;Move Z Axis up

G92 E0
G92 E0
G1 F1500 E-6.5
;LAYER_COUNT:200
;LAYER:0
M107
;MESH:Water2.stl
G0 F6000 X173.595 Y121.9 Z0.2
;TYPE:WALL-INNER
G1 F1500 E0
G1 F1200 X187.973 Y121.9 E0.47821
G1 X188.163 Y121.961 E0.48485
G1 X188.395 Y122.164 E0.4951
G1 X188.843 Y123.011 E0.52697
G1 X190.988 Y125.093 E0.6264
G1 X193.69 Y126.431 E0.72668
G1 X196.692 Y126.892 E0.8277
G1 X199.694 Y126.431 E0.92872
G1 X202.396 Y125.093 E1.029
G1 X204.542 Y123.011 E1.12845
G1 X205.913 Y120.396 E1.22665
G1 X206.387 Y117.5 E1.32425
G1 X205.913 Y114.604 E1.42186
G1 X204.542 Y111.989 E1.52006
G1 X202.396 Y109.907 E1.61951
G1 X199.694 Y108.569 E1.71979
G1 X196.692 Y108.108 E1.82081
G1 X193.69 Y108.569 E1.92183
G1 X190.988 Y109.907 E2.02211
G1 X188.842 Y111.989 E2.12156
G1 X188.395 Y112.836 E2.15341
G1 X188.163 Y113.039 E2.16367
G1 X187.973 Y113.1 E2.1703
G1 X173.595 Y113.1 E2.64852
G1 X173.595 Y121.9 E2.94121
G0 F6000 X173.195 Y122.3
;TYPE:WALL-OUTER
G1 F1200 X187.93 Y122.302 E3.43129
G1 X188.049 Y122.368 E3.43582
G1 X188.518 Y123.253 E3.46913
G1 X190.754 Y125.424 E3.57279
G1 X193.568 Y126.817 E3.67722
G1 X196.692 Y127.297 E3.78235
G1 X199.816 Y126.817 E3.88747
G1 X202.63 Y125.424 E3.99191
G1 X204.866 Y123.253 E4.09556
G1 X206.297 Y120.524 E4.19805
G1 X206.792 Y117.5 E4.29997
G1 X206.297 Y114.476 E4.40189
G1 X204.866 Y111.747 E4.50438
G1 X202.63 Y109.576 E4.60803
G1 X199.816 Y108.183 E4.71247
G1 X196.692 Y107.703 E4.81759
G1 X193.568 Y108.183 E4.92271
G1 X190.754 Y109.576 E5.02715
G1 X188.518 Y111.747 E5.13081
G1 X188.057 Y112.622 E5.1637
G1 X187.93 Y112.698 E5.16862
G1 X173.195 Y112.7 E5.65871
G1 X173.195 Y122.3 E5.97801
G0 F6000 X173.465 Y122.03
G0 X173.895 Y121.227
G0 X173.674 Y121.227
;TYPE:FILL
G1 F1200 X204.907 Y112.858 E7.05347
G0 F6000 X205.335 Y113.677
G1 F1200 X202.286 Y125.057 E7.44532
G0 F6000 X201.84 Y125.278
G1 F1200 X188.801 Y112.238 E8.05866
G0 F6000 X188.995 Y112.341
G0 X188.4 Y113.334
G0 X186.834 Y113.4
G0 X186.834 Y113.179
G1 F1200 X184.519 Y121.819 E8.35616
G0 F6000 X184.519 Y121.6
G0 X181.411 Y121.6
G0 X181.411 Y121.819
G1 F1200 X173.674 Y114.082 E8.72009
G0 F6000 X173.675 Y115.015
G1 F1200 X180.529 Y113.179 E8.95609
G1 X180.622 Y113.179
G1 X178.307 Y121.819 E9.25359
G0 F6000 X178.307 Y121.6
G0 X173.895 Y115.926
G0 X173.674 Y115.926
G1 F1200 X174.41 Y113.179 E9.34818
G0 F6000 X174.41 Y113.4
G0 X181.257 Y113.4
G0 X181.257 Y113.18
G1 F1200 X194.561 Y126.484 E9.97396
G0 F6000 X194.595 Y126.268
G0 X195.681 Y126.435
G0 X195.647 Y126.65
G1 F1200 X200.378 Y108.996 E10.58185
G0 F6000 X200.28 Y109.192
G0 X198.222 Y108.645
G0 X198.256 Y108.428
G1 F1200 X190.477 Y110.513 E10.84972
G0 F6000 X190.629 Y110.67
G0 X193.781 Y108.856
G0 X193.7 Y108.652
G1 F1200 X205.692 Y120.644 E11.41378
G0 F6000 X205.501 Y120.543
G0 X205.886 Y118.714
G0 X206.1 Y118.75
G1 F1200 X189.224 Y123.272 E11.99488
G0 F6000 X189.377 Y123.115
G0 X190.263 Y123.975
G0 X190.111 Y124.13
G1 F1200 X194.284 Y108.557 E12.53112
G0 F6000 X194.361 Y109.072
G1 F1500 E6.03112
G0 F6000 X173.409 Y122.086
G0 X172.572 Y122.086
G0 X172.122 Y139.13
G1 F1500 E12.53112
G0 F6000 X172.392 Y139.4
;TYPE:WALL-INNER
G1 F1200 X172.392 Y95.6 E13.98791
G1 X28.595 Y95.6 E18.77062
G1 X28.595 Y139.4 E20.22741
G1 X172.392 Y139.4 E25.01012
G0 F6000 X172.792 Y139.8
;TYPE:WALL-OUTER
G1 F1200 X172.792 Y95.2 E26.49352
G1 X28.195 Y95.2 E31.30284
G1 X28.195 Y139.8 E32.78624
G1 X172.792 Y139.8 E37.59555
G0 F6000 X172.522 Y139.53
G0 X172.092 Y138.175
G0 X172.311 Y138.175
;TYPE:FILL
G1 F1200 X129.815 Y95.679 E39.59444
G1 X129.926 Y95.679
G1 X28.675 Y122.809 E43.08085
G0 F6000 X28.675 Y121.818
G1 F1200 X46.176 Y139.319 E43.90405
G0 F6000 X46.176 Y139.1
G0 X43.173 Y139.1
G0 X43.173 Y139.32
G1 F1200 X54.867 Y95.678 E45.40679
G0 F6000 X54.867 Y95.9
G0 X53.448 Y95.9
G0 X53.448 Y95.679
G1 F1200 X97.087 Y139.319 E47.45946
G0 F6000 X97.087 Y139.1
G0 X99.078 Y139.1
G0 X99.078 Y139.32
G1 F1200 X110.771 Y95.679 E48.96216
G0 F6000 X110.771 Y95.9
G0 X112.845 Y95.9
G0 X112.845 Y95.679
G1 F1200 X156.485 Y139.319 E51.01486
G0 F6000 X156.485 Y139.1
G0 X154.983 Y139.1
G0 X154.983 Y139.319
G1 F1200 X166.676 Y95.679 E52.51753
G0 F6000 X166.676 Y95.9
G0 X163.756 Y95.9
G0 X163.756 Y95.679
G1 F1200 X172.311 Y104.233 E52.91991
G0 F6000 X172.092 Y104.233
G0 X172.092 Y102.957
G0 X172.31 Y102.957
G1 F1200 X36.606 Y139.319 E57.59266
G0 F6000 X36.961 Y139.32
G1 F1200 X48.655 Y95.679 E59.09537
G0 F6000 X48.655 Y95.9
G0 X44.962 Y95.9
G0 X44.962 Y95.679
G1 F1200 X88.602 Y139.319 E61.14807
G0 F6000 X88.602 Y139.1
G0 X86.654 Y139.1
G0 X86.654 Y139.32
G1 F1200 X98.348 Y95.679 E62.65078
G0 F6000 X98.348 Y95.9
G0 X95.874 Y95.9
G0 X95.874 Y95.679
G1 F1200 X139.514 Y139.319 E64.70347
G0 F6000 X139.514 Y139.1
G0 X142.559 Y139.1
G0 X142.559 Y139.32
G1 F1200 X154.253 Y95.678 E66.20622
G0 F6000 X154.253 Y95.9
G0 X155.271 Y95.9
G0 X155.271 Y95.679
G1 F1200 X172.311 Y112.719 E67.00772
G0 F6000 X172.092 Y112.719
G0 X172.092 Y115.381
G0 X172.31 Y115.381
G1 F1200 X82.97 Y139.319 E70.084
G0 F6000 X82.97 Y139.1
G0 X80.443 Y139.1
G0 X80.443 Y139.32
G1 F1200 X92.136 Y95.678 E71.58674
G0 F6000 X92.136 Y95.9
G0 X87.389 Y95.9
G0 X87.389 Y95.679
G1 F1200 X131.029 Y139.319 E73.63943
G0 F6000 X130.136 Y139.32
G1 F1200 X141.83 Y95.679 E75.14214
G0 F6000 X141.83 Y95.9
G0 X138.3 Y95.9
G0 X138.3 Y95.679
G1 F1200 X172.311 Y129.689 E76.74189
G0 F6000 X172.092 Y129.689
G0 X172.092 Y127.804
G0 X172.31 Y127.804
G1 F1200 X129.334 Y139.319 E78.2217
G0 F6000 X129.334 Y139.1
G0 X123.924 Y139.1
G0 X123.924 Y139.32
G1 F1200 X135.618 Y95.678 E79.72444
G0 F6000 X135.618 Y95.9
G0 X129.406 Y95.9
G0 X129.406 Y95.679
G1 F1200 X117.713 Y139.32 E81.22715
G0 F6000 X117.713 Y139.1
G0 X114.059 Y139.1
G0 X114.059 Y139.319
G1 F1200 X70.418 Y95.679 E83.27986
G0 F6000 X70.418 Y95.9
G0 X73.501 Y95.9
G0 X73.501 Y95.678
G1 F1200 X61.808 Y139.32 E84.7826
G0 F6000 X61.808 Y139.1
G0 X63.146 Y139.1
G0 X63.146 Y139.319
G1 F1200 X28.675 Y104.847 E86.40403
G0 F6000 X28.675 Y104.174
G1 F1200 X60.381 Y95.679 E87.49578
G0 F6000 X61.078 Y95.679
G1 F1200 X49.385 Y139.32 E88.99848
G0 F6000 X49.385 Y139.1
G0 X54.661 Y139.1
G0 X54.661 Y139.319
G1 F1200 X28.675 Y113.332 E90.2208
G0 F6000 X28.895 Y113.332
G0 X28.895 Y110.386
G0 X28.675 Y110.386
G1 F1200 X83.563 Y95.679 E92.11079
G0 F6000 X83.563 Y95.9
G0 X85.925 Y95.9
G0 X85.925 Y95.679
G1 F1200 X74.231 Y139.319 E93.61347
G0 F6000 X74.231 Y139.1
G0 X71.632 Y139.1
G0 X71.632 Y139.319
G1 F1200 X28.675 Y96.362 E95.63403
G0 F6000 X28.895 Y96.362
G0 X30.02 Y95.9
G0 X30.02 Y95.679
G1 F1200 X28.674 Y100.701 E95.80696
G0 F6000 X28.895 Y100.701
G0 X28.895 Y97.963
G0 X28.674 Y97.963
G1 F1200 X37.198 Y95.679 E96.10047
G0 F6000 X36.477 Y95.679
G1 F1200 X80.117 Y139.319 E98.15316
G0 F6000 X80.117 Y139.1
G0 X68.02 Y139.1
G0 X68.02 Y139.32
G1 F1200 X79.713 Y95.679 E99.65587
G0 F6000 X78.903 Y95.679
G1 F1200 X122.544 Y139.319 E101.70858
G0 F6000 X122.544 Y139.1
G0 X111.501 Y139.1
G0 X111.501 Y139.319
G1 F1200 X123.195 Y95.679 E103.21126
G0 F6000 X123.195 Y95.9
G0 X121.33 Y95.9
G0 X121.33 Y95.679
G1 F1200 X164.97 Y139.319 E105.26395
G0 F6000 X164.97 Y139.1
G0 X167.406 Y139.1
G0 X167.406 Y139.32
G1 F1200 X172.311 Y121.013 E105.89432
G1 X172.311 Y121.204
G1 X146.786 Y95.679 E107.09494
G0 F6000 X146.786 Y95.9
G0 X148.041 Y95.9
G0 X148.041 Y95.679
G1 F1200 X136.348 Y139.32 E108.59765
G0 F6000 X136.348 Y139.1
G0 X148 Y139.1
G0 X148 Y139.319
G1 F1200 X104.359 Y95.679 E110.65036
G0 F6000 X104.56 Y95.679
G1 F1200 X92.866 Y139.319 E112.15304
G0 F6000 X92.866 Y139.1
G0 X105.289 Y139.1
G0 X105.289 Y139.32
G1 F1200 X116.983 Y95.678 E113.65579
G0 F6000 X116.983 Y95.9
G0 X106.744 Y95.9
G0 X106.744 Y95.679
G1 F1200 X28.675 Y116.598 E116.34397
G0 F6000 X28.895 Y116.598
G0 X28.895 Y123.883
G0 X28.674 Y123.883
G1 F1200 X36.232 Y95.678 E117.31517
G0 F6000 X36.232 Y95.9
G0 X42.443 Y95.9
G0 X42.443 Y95.679
G1 F1200 X30.75 Y139.319 E118.81784
G0 F6000 X30.75 Y139.1
G0 X29.205 Y139.1
G0 X29.205 Y139.319
G1 F1200 X28.675 Y138.788 E118.8428
G0 F6000 X28.895 Y138.788
G0 X28.895 Y135.233
G0 X28.676 Y135.233
G1 F1200 X172.311 Y96.746 E123.78864
G0 F6000 X172.311 Y95.748
G1 F1200 X172.242 Y95.679 E123.79189
G0 F6000 X172.122 Y95.87
G0 X172.092 Y97.832
G0 X172.311 Y97.832
G1 F1200 X161.194 Y139.32 E125.22047
G0 F6000 X161.194 Y139.1
G0 X152.516 Y139.1
G0 X152.516 Y139.32
G1 F1200 X172.31 Y134.016 E125.90204
G0 F6000 X172.092 Y134.016
G0 X172.092 Y121.592
G0 X172.31 Y121.592
G1 F1200 X106.152 Y139.319 E128.18009
G0 F6000 X105.573 Y139.319
G1 F1200 X61.933 Y95.679 E130.23278
G0 F6000 X61.933 Y95.9
G0 X67.29 Y95.9
G0 X67.29 Y95.679
G1 F1200 X55.596 Y139.319 E131.73546
G0 F6000 X55.596 Y139.1
G0 X59.788 Y139.1
G0 X59.788 Y139.319
G1 F1200 X172.31 Y109.169 E135.60998
G0 F6000 X172.092 Y109.169
G0 X160.465 Y95.9
G0 X160.465 Y95.679
G1 F1200 X148.771 Y139.32 E137.11269
G1 F1500 E130.61269
G0 F6000 X148.771 Y139.1
G0 X153.108 Y95.9
G1 F1500 E137.11269
G0 F6000 X153.108 Y95.679
G1 F1200 X28.676 Y129.021 E141.39732
G0 F6000 X28.895 Y129.021
G0 X28.895 Y130.303
G0 X28.675 Y130.303
G1 F1200 X37.69 Y139.319 E141.82138
G0 F6000 X37.69 Y138.8
G1 F1500 E135.32138
;MESH:NONMESH
G0 F300 X37.69 Y138.8 Z0.4
G0 F6000 X172.572 Y121.63
G0 X173.415 Y121.63
G0 X173.865 Y121.63
G1 F1500 E141.82138
G0 F6000 X173.595 Y121.9
;TIME_ELAPSED:236.878253
;LAYER:1
M106 S85
;TYPE:WALL-INNER
;MESH:Water2.stl
G1 F1350 X187.973 Y121.9 E142.29959
G1 X188.163 Y121.961 E142.30623
G1 X188.395 Y122.164 E142.31648
G1 X188.843 Y123.011 E142.34835
G1 X190.988 Y125.093 E142.44778
G1 X193.69 Y126.431 E142.54806
G1 X196.692 Y126.892 E142.64908
G1 X199.694 Y126.431 E142.75009
G1 X202.396 Y125.093 E142.85038
G1 X204.542 Y123.011 E142.94982
G1 X205.913 Y120.396 E143.04803
G1 X206.387 Y117.5 E143.14563
G1 X205.913 Y114.604 E143.24323
G1 X204.542 Y111.989 E143.34144
G1 X202.396 Y109.907 E143.44089
G1 X199.694 Y108.569 E143.54117
G1 X196.692 Y108.108 E143.64219
G1 X193.69 Y108.569 E143.7432
G1 X190.988 Y109.907 E143.84349
G1 X188.842 Y111.989 E143.94294
G1 X188.395 Y112.836 E143.97479
G1 X188.163 Y113.039 E143.98504
G1 X187.973 Y113.1 E143.99168
G1 X173.595 Y113.1 E144.46989
G1 X173.595 Y121.9 E144.76258
G0 F7500 X173.195 Y122.3
;TYPE:WALL-OUTER
G1 F1350 X187.93 Y122.302 E145.25267
G1 X188.049 Y122.368 E145.2572
G1 X188.518 Y123.253 E145.29051
G1 X190.754 Y125.424 E145.39417
G1 X193.568 Y126.817 E145.4986
G1 X196.692 Y127.297 E145.60373
G1 X199.816 Y126.817 E145.70885
G1 X202.63 Y125.424 E145.81328
G1 X204.866 Y123.253 E145.91694
G1 X206.297 Y120.524 E146.01943
G1 X206.792 Y117.5 E146.12135
G1 X206.297 Y114.476 E146.22326
G1 X204.866 Y111.747 E146.32575
G1 X202.63 Y109.576 E146.42941
G1 X199.816 Y108.183 E146.53384
G1 X196.692 Y107.703 E146.63897
G1 X193.568 Y108.183 E146.74409
G1 X190.754 Y109.576 E146.84853
G1 X188.518 Y111.747 E146.95218
G1 X188.057 Y112.622 E146.98508
G1 X187.93 Y112.698 E146.99
G1 X173.195 Y112.7 E147.48009
G1 X173.195 Y122.3 E147.79939
G0 F7500 X173.465 Y122.03
G0 X173.895 Y121.373
G0 X173.674 Y121.373
;TYPE:FILL
G1 F2100 X204.974 Y112.986 E148.87715
G0 F7500 X205.239 Y113.492
G1 F2100 X202.118 Y125.141 E149.27827
G1 X201.973 Y125.211
G1 X188.869 Y112.107 E149.89464
G0 F7500 X189.064 Y112.21
G0 X190.421 Y110.872
G0 X190.269 Y110.715
G1 F2100 X198.603 Y108.482 E150.1816
G0 F7500 X198.569 Y108.698
G0 X200.152 Y109.128
G0 X200.249 Y108.933
G1 F2100 X195.507 Y126.628 E150.79091
G0 F7500 X194.797 Y126.52
G1 F2100 X181.457 Y113.18 E151.41838
G0 F7500 X181.073 Y113.179
G1 F2100 X173.674 Y115.161 E151.67315
G0 F7500 X173.674 Y115.381
G1 F2100 X174.264 Y113.179 E151.74897
G0 F7500 X173.674 Y113.883
G1 F2100 X181.611 Y121.819 E152.12228
G0 F7500 X181.611 Y121.6
G0 X184.372 Y121.6
G0 X184.372 Y121.82
G1 F2100 X186.688 Y113.178 E152.41986
G0 F7500 X186.688 Y113.4
G0 X180.476 Y113.4
G0 X180.476 Y113.179
G1 F2100 X178.161 Y121.819 E152.71736
G0 F7500 X178.161 Y121.6
G0 X188.4 Y121.666
G0 X189.495 Y123.23
G0 X189.343 Y123.386
G1 F2100 X206.075 Y118.903 E153.2935
G0 F7500 X205.861 Y118.868
G0 X205.57 Y120.412
G0 X205.761 Y120.513
G1 F2100 X193.869 Y108.622 E153.85284
G0 F7500 X194.132 Y108.58
G1 F2100 X189.995 Y124.017 E154.38439
G0 F7500 X190.356 Y123.646
G1 F1500 E147.88439
G0 F7500 X188.697 Y123.124
G0 X187.738 Y123.628
G0 X173.645 Y123.153
G0 X172.572 Y123.124
G0 X172.122 Y139.13
G1 F1500 E154.38439
G0 F7500 X172.392 Y139.4
;TYPE:WALL-INNER
G1 F1350 X172.392 Y95.6 E155.84119
G1 X28.595 Y95.6 E160.6239
G1 X28.595 Y139.4 E162.08069
G1 X172.392 Y139.4 E166.8634
G0 F7500 X172.792 Y139.8
;TYPE:WALL-OUTER
G1 F1350 X172.792 Y95.2 E168.3468
G1 X28.195 Y95.2 E173.15612
G1 X28.195 Y139.8 E174.63952
G1 X172.792 Y139.8 E179.44883
G0 F7500 X172.522 Y139.53
G0 X172.092 Y137.975
G0 X172.311 Y137.975
;TYPE:FILL
G1 F2100 X130.015 Y95.679 E181.43831
G0 F7500 X130.471 Y95.679
G1 F2100 X28.675 Y122.955 E184.94349
G0 F7500 X28.674 Y123.339
G1 F2100 X36.086 Y95.678 E185.89596
G0 F7500 X36.676 Y95.679
G1 F2100 X80.316 Y139.319 E187.94865
G1 X80.297 Y139.32
G1 X91.99 Y95.679 E189.45135
G0 F7500 X91.99 Y95.9
G0 X96.073 Y95.9
G0 X96.073 Y95.679
G1 F2100 X139.714 Y139.319 E191.50407
G0 F7500 X139.714 Y139.1
G0 X142.413 Y139.1
G0 X142.413 Y139.32
G1 F2100 X154.107 Y95.679 E193.00678
G0 F7500 X153.654 Y95.679
G1 F2100 X28.676 Y129.167 E197.3102
G0 F7500 X28.675 Y130.104
G1 F2100 X37.89 Y139.319 E197.74365
G0 F7500 X37.152 Y139.319
G1 F2100 X172.31 Y103.103 E202.39761
G0 F7500 X172.311 Y104.034
G1 F2100 X163.956 Y95.679 E202.7906
G0 F7500 X163.956 Y95.9
G0 X166.53 Y95.9
G0 X166.53 Y95.679
G1 F2100 X154.837 Y139.32 E204.2933
G0 F7500 X154.837 Y139.1
G0 X153.062 Y139.1
G0 X153.062 Y139.319
G1 F2100 X172.31 Y134.162 E204.95607
G0 F7500 X172.092 Y134.162
G0 X172.092 Y129.49
G0 X172.311 Y129.49
G1 F2100 X138.5 Y95.679 E206.54644
G0 F7500 X138.5 Y95.9
G0 X135.472 Y95.9
G0 X135.472 Y95.679
G1 F2100 X123.778 Y139.32 E208.04915
G0 F7500 X123.778 Y139.1
G0 X122.743 Y139.1
G0 X122.743 Y139.319
G1 F2100 X79.103 Y95.679 E210.10184
G0 F7500 X79.567 Y95.678
G1 F2100 X67.874 Y139.32 E211.60458
G0 F7500 X67.874 Y139.1
G0 X71.831 Y139.1
G0 X71.831 Y139.319
G1 F2100 X28.675 Y96.162 E213.63453
G0 F7500 X28.895 Y96.162
G0 X29.874 Y95.9
G0 X29.874 Y95.679
G1 F2100 X28.674 Y100.157 E213.78872
G0 F7500 X28.895 Y100.157
G0 X28.895 Y98.109
G0 X28.675 Y98.109
G1 F2100 X37.743 Y95.679 E214.10097
G0 F7500 X37.743 Y95.9
G0 X42.297 Y95.9
G0 X42.297 Y95.679
G1 F2100 X30.604 Y139.32 E215.60367
G0 F7500 X30.604 Y139.1
G0 X29.405 Y139.1
G0 X29.405 Y139.319
G1 F2100 X28.675 Y138.589 E215.63801
G0 F7500 X28.895 Y138.589
G0 X28.895 Y135.379
G0 X28.675 Y135.379
G1 F2100 X172.31 Y96.892 E220.58386
G0 F7500 X172.311 Y97.287
G1 F2100 X161.048 Y139.32 E222.0312
G0 F7500 X161.048 Y139.1
G0 X165.17 Y139.1
G0 X165.17 Y139.319
G1 F2100 X121.529 Y95.679 E224.08391
G0 F7500 X121.529 Y95.9
G0 X123.049 Y95.9
G0 X123.049 Y95.679
G1 F2100 X111.355 Y139.32 E225.58663
G0 F7500 X111.355 Y139.1
G0 X114.258 Y139.1
G0 X114.258 Y139.319
G1 F2100 X70.618 Y95.679 E227.63932
G0 F7500 X70.618 Y95.9
G0 X73.355 Y95.9
G0 X73.355 Y95.679
G1 F2100 X61.662 Y139.32 E229.14202
G0 F7500 X61.662 Y139.1
G0 X60.334 Y139.1
G0 X60.334 Y139.319
G1 F2100 X172.31 Y109.315 E232.99774
G0 F7500 X172.092 Y109.315
G0 X172.092 Y112.519
G0 X172.311 Y112.519
G1 F2100 X155.47 Y95.679 E233.78987
