;FLAVOR:Marlin
;TIME:18687
;Filament used: 17.9637m
;Layer height: 0.28
;MINX:67.75
;MINY:39
;MINZ:0.28
;MAXX:167.25
;MAXY:196
;MAXZ:38.08
;TARGET_MACHINE.NAME:Creality CR-6 SE
;Generated with Cura_SteamEngine 5.8.1
M140 S60
M105
M190 S60
M104 S200
M105
M109 S200
M82 ;absolute extrusion mode
M201 X500.00 Y500.00 Z100.00 E5000.00 ;Setup machine max acceleration
M203 X500.00 Y500.00 Z10.00 E50.00 ;Setup machine max feedrate
M204 P500.00 R1000.00 T500.00 ;Setup Print/Retract/Travel acceleration
M205 X8.00 Y8.00 Z0.40 E5.00 ;Setup Jerk
M220 S100 ;Reset Feedrate
M221 S100 ;Reset Flowrate

G28 ;Home

G92 E0 ;Reset Extruder
G1 Z2.0 F3000 ;Move Z Axis up
G1 X10.1 Y20 Z0.28 F5000.0 ;Move to start position
G1 X10.1 Y200.0 Z0.28 F1500.0 E15 ;Draw the first line
G1 X10.4 Y200.0 Z0.28 F5000.0 ;Move to side a little
G1 X10.4 Y20 Z0.28 F1500.0 E30 ;Draw the second line
G92 E0 ;Reset Extruder
G1 Z2.0 F3000 ;Move Z Axis up

G92 E0
G92 E0
G1 F1500 E-6.5
;LAYER_COUNT:136
;LAYER:0
M107
G0 F6000 X69.371 Y44.277 Z0.28
;TYPE:SKIRT
G1 F1500 E0
G1 F1200 X69.914 Y43.469 E0.04533
G1 X70.481 Y42.765 E0.08742
G1 X71.206 Y42.013 E0.13606
G1 X71.942 Y41.376 E0.18139
G1 X72.674 Y40.846 E0.22347
G1 X73.571 Y40.311 E0.2721
G1 X74.449 Y39.89 E0.31744
G1 X75.362 Y39.548 E0.36284
G1 X76.299 Y39.289 E0.40811
G1 X77.266 Y39.111 E0.45389
G1 X78.405 Y39.015 E0.50711
G1 X79.062 Y39 E0.53771
G1 X155.554 Y39 E4.0995
G1 X156.434 Y39.013 E4.14048
G1 X157.406 Y39.072 E4.18583
G1 X158.369 Y39.218 E4.23118
G1 X159.316 Y39.449 E4.27657
G1 X160.204 Y39.749 E4.32022
G1 X161.096 Y40.139 E4.36555
G1 X161.979 Y40.626 E4.4125
G1 X162.73 Y41.128 E4.45456
G1 X163.545 Y41.786 E4.50334
G1 X164.243 Y42.464 E4.54865
G1 X164.879 Y43.201 E4.59398
G1 X165.449 Y43.991 E4.63934
G1 X165.911 Y44.767 E4.68139
G1 X166.365 Y45.709 E4.73009
G1 X166.694 Y46.587 E4.77374
G1 X166.963 Y47.559 E4.82071
G1 X167.14 Y48.525 E4.86644
G1 X167.235 Y49.655 E4.91924
G1 X167.25 Y50.33 E4.95068
G1 X167.249 Y184.4 E11.19354
G1 X167.238 Y185.163 E11.22907
G1 X167.181 Y186.136 E11.27446
G1 X167.036 Y187.099 E11.3198
G1 X166.807 Y188.045 E11.36512
G1 X166.496 Y188.969 E11.41052
G1 X166.104 Y189.86 E11.45585
G1 X165.636 Y190.712 E11.50111
G1 X165.114 Y191.493 E11.54485
G1 X164.481 Y192.278 E11.59181
G1 X163.856 Y192.929 E11.63383
G1 X163.067 Y193.617 E11.68258
G1 X162.307 Y194.167 E11.72626
G1 X161.44 Y194.684 E11.77326
G1 X160.562 Y195.106 E11.81862
G1 X159.651 Y195.448 E11.86394
G1 X158.712 Y195.709 E11.90932
G1 X157.746 Y195.887 E11.95506
G1 X156.595 Y195.985 E12.00884
G1 X155.92 Y196 E12.04028
G1 X79.314 Y195.999 E15.60738
G1 X78.581 Y195.988 E15.64151
G1 X77.609 Y195.931 E15.68685
G1 X76.646 Y195.785 E15.73221
G1 X75.7 Y195.556 E15.77753
G1 X74.776 Y195.244 E15.82294
G1 X73.886 Y194.852 E15.86822
G1 X73.063 Y194.401 E15.91192
G1 X72.224 Y193.84 E15.95892
G1 X71.52 Y193.274 E16.00098
G1 X70.767 Y192.549 E16.04966
G1 X70.13 Y191.813 E16.09498
G1 X69.6 Y191.082 E16.13702
G1 X69.064 Y190.185 E16.18568
G1 X68.642 Y189.307 E16.23104
G1 X68.3 Y188.395 E16.27639
G1 X68.04 Y187.457 E16.32172
G1 X67.862 Y186.488 E16.36759
G1 X67.764 Y185.309 E16.42268
G1 X67.75 Y184.658 E16.453
G1 X67.751 Y50.525 E22.6988
G1 X67.762 Y49.825 E22.7314
G1 X67.82 Y48.852 E22.77678
G1 X67.966 Y47.889 E22.82214
G1 X68.196 Y46.943 E22.86747
G1 X68.509 Y46.02 E22.91285
G1 X68.901 Y45.13 E22.95814
G1 X69.371 Y44.277 E23.00349
G0 F6000 X69.703 Y44.5
G1 F1200 X70.226 Y43.72 E23.04722
G1 X70.793 Y43.016 E23.08931
G1 X71.468 Y42.315 E23.13462
G1 X72.177 Y41.7 E23.17832
G1 X72.909 Y41.17 E23.22041
G1 X73.745 Y40.671 E23.26574
G1 X74.59 Y40.264 E23.30941
G1 X75.469 Y39.933 E23.35315
G1 X76.372 Y39.682 E23.39679
G1 X77.3 Y39.51 E23.44074
G1 X78.439 Y39.414 E23.49396
G1 X79.071 Y39.4 E23.5234
G1 X155.548 Y39.4 E27.08449
G1 X156.41 Y39.412 E27.12463
G1 X157.347 Y39.468 E27.16834
G1 X158.275 Y39.607 E27.21203
G1 X159.188 Y39.828 E27.25577
G1 X160.044 Y40.116 E27.29783
G1 X160.936 Y40.506 E27.34316
G1 X161.757 Y40.959 E27.38682
G1 X162.508 Y41.461 E27.42889
G1 X163.267 Y42.073 E27.47429
G1 X163.941 Y42.726 E27.51798
G1 X164.555 Y43.435 E27.56166
G1 X165.105 Y44.196 E27.60538
G1 X165.567 Y44.972 E27.64743
G1 X165.99 Y45.849 E27.69277
G1 X166.319 Y46.727 E27.73643
G1 X166.57 Y47.632 E27.78016
G1 X166.741 Y48.559 E27.82405
G1 X166.836 Y49.689 E27.87686
G1 X166.85 Y50.33 E27.90671
G1 X166.849 Y184.395 E34.14934
G1 X166.839 Y185.14 E34.18403
G1 X166.785 Y186.077 E34.22774
G1 X166.647 Y187.006 E34.27147
G1 X166.428 Y187.918 E34.31514
G1 X166.13 Y188.808 E34.35885
G1 X165.753 Y189.668 E34.40257
G1 X165.303 Y190.49 E34.44621
G1 X164.781 Y191.271 E34.48995
G1 X164.192 Y192.001 E34.53362
G1 X163.567 Y192.652 E34.57565
G1 X162.832 Y193.293 E34.62106
G1 X162.072 Y193.843 E34.66474
G1 X161.266 Y194.324 E34.70845
G1 X160.421 Y194.732 E34.75214
G1 X159.543 Y195.063 E34.79583
G1 X158.639 Y195.316 E34.83954
G1 X157.712 Y195.488 E34.88345
G1 X156.561 Y195.586 E34.93724
G1 X155.92 Y195.6 E34.96709
G1 X79.32 Y195.599 E38.53391
G1 X78.604 Y195.589 E38.56725
G1 X77.668 Y195.535 E38.61091
G1 X76.739 Y195.396 E38.65465
G1 X75.827 Y195.177 E38.69832
G1 X74.937 Y194.878 E38.74204
G1 X74.078 Y194.501 E38.78572
G1 X73.255 Y194.05 E38.82942
G1 X72.475 Y193.528 E38.87312
G1 X71.771 Y192.962 E38.91518
G1 X71.069 Y192.287 E38.96053
G1 X70.454 Y191.578 E39.00423
G1 X69.924 Y190.847 E39.04628
G1 X69.424 Y190.011 E39.09164
G1 X69.016 Y189.166 E39.13533
G1 X68.685 Y188.288 E39.17902
G1 X68.433 Y187.384 E39.22272
G1 X68.261 Y186.455 E39.26671
G1 X68.163 Y185.276 E39.3218
G1 X68.15 Y184.658 E39.35059
G1 X68.151 Y50.531 E45.5961
G1 X68.161 Y49.848 E45.62791
G1 X68.216 Y48.911 E45.67161
G1 X68.355 Y47.983 E45.71531
G1 X68.575 Y47.071 E45.75899
G1 X68.875 Y46.181 E45.80273
G1 X69.252 Y45.322 E45.84641
G1 X69.703 Y44.5 E45.89007
G0 F6000 X70.036 Y44.722
G1 F1200 X70.538 Y43.971 E45.93213
G1 X71.105 Y43.267 E45.97422
G1 X71.731 Y42.617 E46.01624
G1 X72.412 Y42.024 E46.05829
G1 X73.144 Y41.494 E46.10037
G1 X73.919 Y41.031 E46.14241
G1 X74.732 Y40.638 E46.18445
G1 X75.577 Y40.318 E46.22653
G1 X76.446 Y40.075 E46.26854
G1 X77.334 Y39.909 E46.31061
G1 X78.473 Y39.813 E46.36383
G1 X79.08 Y39.8 E46.3921
G1 X155.543 Y39.8 E49.95254
G1 X156.387 Y39.811 E49.99185
G1 X157.289 Y39.864 E50.03392
G1 X158.182 Y39.996 E50.07595
G1 X159.06 Y40.207 E50.118
G1 X159.916 Y40.495 E50.16005
G1 X160.743 Y40.857 E50.20209
G1 X161.535 Y41.292 E50.24417
G1 X162.286 Y41.794 E50.28623
G1 X162.989 Y42.361 E50.32828
G1 X163.639 Y42.988 E50.37034
G1 X164.231 Y43.67 E50.41239
G1 X164.761 Y44.401 E50.45443
G1 X165.223 Y45.177 E50.49649
G1 X165.616 Y45.99 E50.53853
G1 X165.934 Y46.835 E50.58057
G1 X166.177 Y47.705 E50.62264
G1 X166.342 Y48.593 E50.66469
G1 X166.437 Y49.723 E50.71749
G1 X166.45 Y50.33 E50.74577
G1 X166.449 Y184.39 E56.98816
G1 X166.44 Y185.117 E57.02202
G1 X166.389 Y186.019 E57.06408
G1 X166.258 Y186.913 E57.10616
G1 X166.049 Y187.791 E57.14818
G1 X165.763 Y188.648 E57.19025
G1 X165.402 Y189.476 E57.23231
G1 X164.97 Y190.268 E57.27432
G1 X164.469 Y191.02 E57.3164
G1 X163.903 Y191.724 E57.35846
G1 X163.278 Y192.375 E57.40048
G1 X162.597 Y192.969 E57.44256
G1 X161.866 Y193.5 E57.48463
G1 X161.092 Y193.964 E57.52665
G1 X160.279 Y194.358 E57.56872
G1 X159.435 Y194.678 E57.61075
G1 X158.565 Y194.923 E57.65283
G1 X157.678 Y195.089 E57.69485
G1 X156.527 Y195.187 E57.74864
G1 X155.92 Y195.2 E57.77691
G1 X79.325 Y195.199 E61.3435
G1 X78.627 Y195.19 E61.376
G1 X77.726 Y195.139 E61.41802
G1 X76.832 Y195.007 E61.4601
G1 X75.954 Y194.798 E61.50213
G1 X75.097 Y194.511 E61.54421
G1 X74.27 Y194.15 E61.58623
G1 X73.477 Y193.717 E61.6283
G1 X72.726 Y193.216 E61.67034
G1 X72.022 Y192.65 E61.7124
G1 X71.371 Y192.024 E61.75446
G1 X70.778 Y191.343 E61.7965
G1 X70.248 Y190.612 E61.83855
G1 X69.784 Y189.837 E61.88061
G1 X69.39 Y189.024 E61.92268
G1 X69.07 Y188.18 E61.96471
G1 X68.826 Y187.31 E62.00678
G1 X68.66 Y186.422 E62.04884
G1 X68.563 Y185.267 E62.10282
G1 X68.55 Y184.658 E62.13118
G1 X68.551 Y50.536 E68.37646
G1 X68.56 Y49.871 E68.40743
G1 X68.612 Y48.969 E68.4495
G1 X68.744 Y48.076 E68.49153
G1 X68.954 Y47.198 E68.53357
G1 X69.241 Y46.341 E68.57565
G1 X69.603 Y45.514 E68.61769
G1 X70.036 Y44.722 E68.65972
G1 F1500 E62.15972
;MESH:scythe_resource_v2_1.stl
G0 F6000 X78.085 Y50.8
G0 X117.5 Y184.4
;TYPE:WALL-INNER
G1 F1500 E68.65972
G1 F1200 X155.648 Y184.4 E70.43605
G1 X155.648 Y50.6 E76.66634
G1 X79.348 Y50.6 E80.21919
G1 X79.348 Y184.4 E86.44948
G1 X117.5 Y184.4 E88.22599
G0 F6000 X117.5 Y184.8
;TYPE:WALL-OUTER
G1 F1200 X156.048 Y184.8 E90.02095
G1 X156.048 Y50.2 E96.28849
G1 X78.948 Y50.2 E99.87859
G1 X78.948 Y184.8 E106.14613
G1 X117.5 Y184.8 E107.94127
G0 F6000 X117.5 Y184.04
;TYPE:SKIN
G1 F1200 X79.708 Y184.04 E109.70102
G1 X79.708 Y50.96 E115.89779
G1 X155.288 Y50.96 E119.41711
G1 X155.288 Y184.04 E125.61387
G1 X117.5 Y184.04 E127.37344
G1 F1500 E120.87344
G0 F6000 X117.5 Y184.3
G0 X79.52 Y184.228
G0 X79.448 Y183.428
G0 X79.908 Y183.428
G1 F1500 E127.37344
G1 F1200 X80.32 Y183.84 E127.40057
G0 F6000 X80.885 Y183.84
G1 F1200 X79.908 Y182.863 E127.46491
G0 F6000 X79.908 Y182.297
G1 F1200 X81.451 Y183.84 E127.56652
G0 F6000 X82.017 Y183.84
G1 F1200 X79.908 Y181.731 E127.7054
G0 F6000 X79.908 Y181.166
G1 F1200 X82.582 Y183.84 E127.88148
G0 F6000 X83.148 Y183.84
G1 F1200 X79.908 Y180.6 E128.09484
G0 F6000 X79.908 Y180.034
G1 F1200 X83.714 Y183.84 E128.34548
G0 F6000 X84.279 Y183.84
G1 F1200 X79.908 Y179.469 E128.63331
G0 F6000 X79.908 Y178.903
G1 F1200 X84.845 Y183.84 E128.95842
G0 F6000 X85.411 Y183.84
G1 F1200 X79.908 Y178.337 E129.32081
G0 F6000 X79.908 Y177.772
G1 F1200 X85.976 Y183.84 E129.72039
G0 F6000 X86.542 Y183.84
G1 F1200 X79.908 Y177.206 E130.15725
G0 F6000 X79.908 Y176.64
G1 F1200 X87.108 Y183.84 E130.63139
G0 F6000 X87.673 Y183.84
G1 F1200 X79.908 Y176.075 E131.14272
G0 F6000 X79.908 Y175.509
G1 F1200 X88.239 Y183.84 E131.69133
G0 F6000 X88.805 Y183.84
G1 F1200 X79.908 Y174.943 E132.27722
G0 F6000 X79.908 Y174.377
G1 F1200 X89.371 Y183.84 E132.90037
G0 F6000 X89.936 Y183.84
G1 F1200 X79.908 Y173.812 E133.56073
G0 F6000 X79.908 Y173.246
G1 F1200 X90.502 Y183.84 E134.25837
G0 F6000 X91.068 Y183.84
G1 F1200 X79.908 Y172.68 E134.99327
G0 F6000 X79.908 Y172.115
G1 F1200 X91.633 Y183.84 E135.76538
G0 F6000 X92.199 Y183.84
G1 F1200 X79.908 Y171.549 E136.57477
G0 F6000 X79.908 Y170.983
G1 F1200 X92.765 Y183.84 E137.42142
G0 F6000 X93.33 Y183.84
G1 F1200 X79.908 Y170.418 E138.30528
G0 F6000 X79.908 Y169.852
G1 F1200 X93.896 Y183.84 E139.22642
G0 F6000 X94.462 Y183.84
G1 F1200 X79.908 Y169.286 E140.18482
G0 F6000 X79.908 Y168.721
G1 F1200 X95.027 Y183.84 E141.18043
G0 F6000 X95.593 Y183.84
G1 F1200 X79.908 Y168.155 E142.21332
G0 F6000 X79.908 Y167.589
G1 F1200 X96.159 Y183.84 E143.28347
G0 F6000 X96.724 Y183.84
G1 F1200 X79.908 Y167.024 E144.39084
G0 F6000 X79.908 Y166.458
G1 F1200 X97.29 Y183.84 E145.53547
G0 F6000 X97.856 Y183.84
G1 F1200 X79.908 Y165.892 E146.71738
G0 F6000 X79.908 Y165.327
G1 F1200 X98.421 Y183.84 E147.93649
G0 F6000 X98.987 Y183.84
G1 F1200 X79.908 Y164.761 E149.19287
G0 F6000 X79.908 Y164.195
G1 F1200 X99.553 Y183.84 E150.48653
G0 F6000 X100.119 Y183.84
G1 F1200 X79.908 Y163.629 E151.81746
G0 F6000 X79.908 Y163.064
G1 F1200 X100.684 Y183.84 E153.1856
G0 F6000 X101.25 Y183.84
G1 F1200 X79.908 Y162.498 E154.591
G0 F6000 X79.908 Y161.932
G1 F1200 X101.816 Y183.84 E156.03368
G0 F6000 X102.381 Y183.84
G1 F1200 X79.908 Y161.367 E157.51357
G0 F6000 X79.908 Y160.801
G1 F1200 X102.947 Y183.84 E159.03072
G0 F6000 X103.513 Y183.84
G1 F1200 X79.908 Y160.235 E160.58515
G0 F6000 X79.908 Y159.67
G1 F1200 X104.078 Y183.84 E162.17679
G0 F6000 X104.644 Y183.84
G1 F1200 X79.908 Y159.104 E163.8057
G0 F6000 X79.908 Y158.538
G1 F1200 X105.21 Y183.84 E165.47188
G0 F6000 X105.775 Y183.84
G1 F1200 X79.908 Y157.973 E167.17526
G0 F6000 X79.908 Y157.407
G1 F1200 X106.341 Y183.84 E168.91592
G0 F6000 X106.907 Y183.84
G1 F1200 X79.908 Y156.841 E170.69385
G0 F6000 X79.908 Y156.276
G1 F1200 X107.472 Y183.84 E172.50899
G0 F6000 X108.038 Y183.84
G1 F1200 X79.908 Y155.71 E174.3614
G0 F6000 X79.908 Y155.144
G1 F1200 X108.604 Y183.84 E176.25108
G0 F6000 X109.17 Y183.84
G1 F1200 X79.908 Y154.578 E178.17803
G0 F6000 X79.908 Y154.013
G1 F1200 X109.735 Y183.84 E180.14219
G0 F6000 X110.301 Y183.84
G1 F1200 X79.908 Y153.447 E182.14362
G0 F6000 X79.908 Y152.881
G1 F1200 X110.867 Y183.84 E184.18232
G0 F6000 X111.432 Y183.84
G1 F1200 X79.908 Y152.316 E186.25823
G0 F6000 X79.908 Y151.75
G1 F1200 X111.998 Y183.84 E188.37141
G0 F6000 X112.564 Y183.84
G1 F1200 X79.908 Y151.184 E190.52187
G0 F6000 X79.908 Y150.619
G1 F1200 X113.129 Y183.84 E192.70953
G0 F6000 X113.695 Y183.84
G1 F1200 X79.908 Y150.053 E194.93446
G0 F6000 X79.908 Y149.487
G1 F1200 X114.261 Y183.84 E197.19666
G0 F6000 X114.826 Y183.84
G1 F1200 X79.908 Y148.922 E199.49607
G0 F6000 X79.908 Y148.356
G1 F1200 X115.392 Y183.84 E201.83275
G0 F6000 X115.958 Y183.84
G1 F1200 X79.908 Y147.79 E204.20671
G0 F6000 X79.908 Y147.225
G1 F1200 X116.523 Y183.84 E206.61787
G0 F6000 X117.089 Y183.84
G1 F1200 X79.908 Y146.659 E209.0663
G0 F6000 X79.908 Y146.093
G1 F1200 X117.655 Y183.84 E211.55201
G0 F6000 X118.22 Y183.84
G1 F1200 X79.908 Y145.528 E214.07492
G0 F6000 X79.908 Y144.962
G1 F1200 X118.786 Y183.84 E216.6351
G0 F6000 X119.352 Y183.84
G1 F1200 X79.908 Y144.396 E219.23255
G0 F6000 X79.908 Y143.83
G1 F1200 X119.918 Y183.84 E221.86728
G0 F6000 X120.483 Y183.84
G1 F1200 X79.908 Y143.265 E224.53921
G0 F6000 X79.908 Y142.699
G1 F1200 X121.049 Y183.84 E227.24842
G0 F6000 X121.615 Y183.84
G1 F1200 X79.908 Y142.133 E229.9949
G0 F6000 X79.908 Y141.568
G1 F1200 X122.18 Y183.84 E232.77858
G0 F6000 X122.746 Y183.84
G1 F1200 X79.908 Y141.002 E235.59953
G0 F6000 X79.908 Y140.436
G1 F1200 X123.312 Y183.84 E238.45776
G0 F6000 X123.877 Y183.84
G1 F1200 X79.908 Y139.871 E241.3532
G0 F6000 X79.908 Y139.305
G1 F1200 X124.443 Y183.84 E244.2859
G0 F6000 X125.009 Y183.84
G1 F1200 X79.908 Y138.739 E247.25588
G0 F6000 X79.908 Y138.174
G1 F1200 X125.574 Y183.84 E250.26306
G0 F6000 X126.14 Y183.84
G1 F1200 X79.908 Y137.608 E253.30752
G0 F6000 X79.908 Y137.042
G1 F1200 X126.706 Y183.84 E256.38925
G0 F6000 X127.271 Y183.84
G1 F1200 X79.908 Y136.477 E259.50818
G0 F6000 X79.908 Y135.911
G1 F1200 X127.837 Y183.84 E262.66439
G0 F6000 X128.403 Y183.84
G1 F1200 X79.908 Y135.345 E265.85787
G0 F6000 X79.908 Y134.78
G1 F1200 X128.968 Y183.84 E269.08855
G0 F6000 X129.534 Y183.84
G1 F1200 X79.908 Y134.214 E272.35651
G0 F6000 X79.908 Y133.648
G1 F1200 X130.1 Y183.84 E275.66174
G0 F6000 X130.666 Y183.84
G1 F1200 X79.908 Y133.082 E279.00424
G0 F6000 X79.908 Y132.517
G1 F1200 X131.231 Y183.84 E282.38395
G0 F6000 X131.797 Y183.84
G1 F1200 X79.908 Y131.951 E285.80093
G0 F6000 X79.908 Y131.385
G1 F1200 X132.363 Y183.84 E289.25518
G0 F6000 X132.928 Y183.84
G1 F1200 X79.908 Y130.82 E292.74663
G0 F6000 X79.908 Y130.254
G1 F1200 X133.494 Y183.84 E296.27536
G0 F6000 X134.06 Y183.84
G1 F1200 X79.908 Y129.688 E299.84137
G0 F6000 X79.908 Y129.123
G1 F1200 X134.625 Y183.84 E303.44457
G0 F6000 X135.191 Y183.84
G1 F1200 X79.908 Y128.557 E307.08505
G0 F6000 X79.908 Y127.991
G1 F1200 X135.757 Y183.84 E310.76281
G0 F6000 X136.322 Y183.84
G1 F1200 X79.908 Y127.426 E314.47776
G0 F6000 X79.908 Y126.86
G1 F1200 X136.888 Y183.84 E318.22999
G0 F6000 X137.454 Y183.84
G1 F1200 X79.908 Y126.294 E322.0195
G0 F6000 X79.908 Y125.729
G1 F1200 X138.019 Y183.84 E325.8462
G0 F6000 X138.585 Y183.84
G1 F1200 X79.908 Y125.163 E329.71019
G0 F6000 X79.908 Y124.597
G1 F1200 X139.151 Y183.84 E333.61144
G0 F6000 X139.717 Y183.84
G1 F1200 X79.908 Y124.031 E337.54996
G0 F6000 X79.908 Y123.466
G1 F1200 X140.282 Y183.84 E341.52569
G0 F6000 X140.848 Y183.84
G1 F1200 X79.908 Y122.9 E345.5387
G0 F6000 X79.908 Y122.334
G1 F1200 X141.414 Y183.84 E349.58897
G0 F6000 X141.979 Y183.84
G1 F1200 X79.908 Y121.769 E353.67645
G0 F6000 X79.908 Y121.203
G1 F1200 X142.545 Y183.84 E357.80121
G0 F6000 X143.111 Y183.84
G1 F1200 X79.908 Y120.637 E361.96323
G0 F6000 X79.908 Y120.072
G1 F1200 X143.676 Y183.84 E366.16246
G0 F6000 X144.242 Y183.84
