;FLAVOR:Marlin
;TIME:27479
;Filament used: 28.7437m
;Layer height: 0.28
;MINX:0
;MINY:30.5
;MINZ:0.28
;MAXX:235
;MAXY:204.5
;MAXZ:31.92
;TARGET_MACHINE.NAME:Creality CR-6 SE
;Generated with Cura_SteamEngine 5.8.1
M140 S60
M105
M190 S60
M104 S200
M105
M109 S200
M82 ;absolute extrusion mode
M201 X500.00 Y500.00 Z100.00 E5000.00 ;Setup machine max acceleration
M203 X500.00 Y500.00 Z10.00 E50.00 ;Setup machine max feedrate
M204 P500.00 R1000.00 T500.00 ;Setup Print/Retract/Travel acceleration
M205 X8.00 Y8.00 Z0.40 E5.00 ;Setup Jerk
M220 S100 ;Reset Feedrate
M221 S100 ;Reset Flowrate

G28 ;Home

G92 E0 ;Reset Extruder
G1 Z2.0 F3000 ;Move Z Axis up
G1 X10.1 Y20 Z0.28 F5000.0 ;Move to start position
G1 X10.1 Y200.0 Z0.28 F1500.0 E15 ;Draw the first line
G1 X10.4 Y200.0 Z0.28 F5000.0 ;Move to side a little
G1 X10.4 Y20 Z0.28 F1500.0 E30 ;Draw the second line
G92 E0 ;Reset Extruder
G1 Z2.0 F3000 ;Move Z Axis up

G92 E0
G92 E0
G1 F1500 E-6.5
;LAYER_COUNT:114
;LAYER:0
M107
G0 F6000 X0.00 Y31.08 Z0.28
;TYPE:SKIRT
G1 F1500 E0
G1 F1200 X1.049 Y30.789 E0.05069
G1 X2.016 Y30.611 E0.09647
G1 X3.155 Y30.515 E0.1497
G1 X3.812 Y30.5 E0.1803
G1 X230.804 Y30.5 E10.75
G1 X231.684 Y30.513 E10.79098
G1 X232.656 Y30.572 E10.83632
G1 X233.619 Y30.718 E10.88168
G1 X234.531 Y30.939 E10.92537
G1 X235 Y31.096 E10.9484
G0 F6000 X235 Y31.517
G1 F1200 X234.437 Y31.328 E10.97606
G1 X233.525 Y31.107 E11.01975
G1 X232.597 Y30.968 E11.06344
G1 X231.66 Y30.912 E11.10715
G1 X230.798 Y30.9 E11.1473
G1 X3.821 Y30.9 E21.7163
G1 X3.189 Y30.914 E21.74573
G1 X2.05 Y31.01 E21.79896
G1 X1.122 Y31.182 E21.8429
G1 X0.219 Y31.433 E21.88654
G1 X0.00 Y31.515 E21.89743
G0 F6000 X0.00 Y31.942
G1 F1200 X0.327 Y31.818 E21.91372
G1 X1.196 Y31.575 E21.95573
G1 X2.084 Y31.409 E21.9978
G1 X3.223 Y31.313 E22.05102
G1 X3.83 Y31.3 E22.0793
G1 X230.793 Y31.3 E32.64764
G1 X231.637 Y31.311 E32.68695
G1 X232.539 Y31.364 E32.72902
G1 X233.432 Y31.496 E32.77105
G1 X234.31 Y31.707 E32.8131
G1 X235 Y31.939 E32.847
G1 F1500 E26.347
G0 F6000 X235 Y203.92
G1 F1500 E32.847
G1 F1200 X233.947 Y204.212 E32.89788
G1 X232.981 Y204.389 E32.94361
G1 X231.845 Y204.485 E32.9967
G1 X231.17 Y204.5 E33.02813
G1 X217.232 Y204.499 E33.67715
G1 X216.459 Y204.485 E33.71315
G1 X215.288 Y204.399 E33.76782
G1 X214.429 Y204.287 E33.80816
G1 X211.798 Y203.99 E33.93145
G1 X209.262 Y203.773 E34.04996
G1 X206.769 Y203.633 E34.16623
G1 X204.235 Y203.561 E34.28427
G1 X201.746 Y203.561 E34.40017
G1 X199.213 Y203.633 E34.51817
G1 X196.695 Y203.776 E34.6356
G1 X194.197 Y203.987 E34.75233
G1 X191.649 Y204.278 E34.87175
G1 X190.667 Y204.404 E34.91785
G1 X189.652 Y204.484 E34.96526
G1 X189.042 Y204.499 E34.99367
G1 X161.232 Y204.499 E36.28862
G1 X160.459 Y204.485 E36.32462
G1 X159.288 Y204.399 E36.3793
G1 X158.429 Y204.287 E36.41964
G1 X155.798 Y203.99 E36.54292
G1 X153.262 Y203.773 E36.66144
G1 X150.769 Y203.633 E36.77771
G1 X148.235 Y203.561 E36.89575
G1 X145.746 Y203.561 E37.01165
G1 X143.213 Y203.633 E37.12964
G1 X140.695 Y203.776 E37.24708
G1 X138.197 Y203.987 E37.36381
G1 X135.649 Y204.278 E37.48323
G1 X134.667 Y204.404 E37.52933
G1 X133.652 Y204.484 E37.57674
G1 X133.022 Y204.499 E37.60608
G1 X4.197 Y204.5 E43.60472
G1 X3.331 Y204.488 E43.64504
G1 X2.359 Y204.431 E43.69038
G1 X1.396 Y204.285 E43.73574
G1 X0.45 Y204.056 E43.78106
G1 X0.00 Y203.905 E43.80316
G0 F6000 X0.00 Y203.484
G1 F1200 X0.577 Y203.677 E43.83149
G1 X1.489 Y203.896 E43.87516
G1 X2.418 Y204.035 E43.9189
G1 X3.354 Y204.089 E43.96256
G1 X4.202 Y204.1 E44.00205
G1 X133.022 Y204.099 E50.00045
G1 X133.642 Y204.084 E50.02933
G1 X134.635 Y204.005 E50.07571
G1 X135.598 Y203.881 E50.12092
G1 X138.163 Y203.589 E50.24113
G1 X140.661 Y203.377 E50.35787
G1 X143.202 Y203.233 E50.47638
G1 X145.735 Y203.161 E50.59437
G1 X148.246 Y203.161 E50.71129
G1 X150.78 Y203.233 E50.82934
G1 X153.296 Y203.375 E50.94668
G1 X155.832 Y203.591 E51.06519
G1 X158.48 Y203.891 E51.18928
G1 X159.339 Y204.002 E51.22961
G1 X160.488 Y204.086 E51.28326
G1 X161.239 Y204.099 E51.31823
G1 X189.032 Y204.099 E52.61239
G1 X189.642 Y204.084 E52.6408
G1 X190.635 Y204.005 E52.68719
G1 X191.598 Y203.881 E52.7324
G1 X194.163 Y203.589 E52.85261
G1 X196.661 Y203.377 E52.96934
G1 X199.202 Y203.233 E53.08785
G1 X201.735 Y203.161 E53.20585
G1 X204.246 Y203.161 E53.32277
G1 X206.78 Y203.233 E53.44081
G1 X209.296 Y203.375 E53.55815
G1 X211.832 Y203.591 E53.67667
G1 X214.48 Y203.891 E53.80076
G1 X215.339 Y204.002 E53.84109
G1 X216.488 Y204.086 E53.89474
G1 X217.239 Y204.099 E53.92971
G1 X231.17 Y204.1 E54.5784
G1 X231.811 Y204.086 E54.60825
G1 X232.947 Y203.99 E54.66134
G1 X233.874 Y203.819 E54.70523
G1 X234.778 Y203.568 E54.74892
G1 X235 Y203.485 E54.75995
G0 F6000 X235 Y203.058
G1 F1200 X234.67 Y203.183 E54.77638
G1 X233.801 Y203.426 E54.8184
G1 X232.913 Y203.591 E54.86046
G1 X231.777 Y203.687 E54.91354
G1 X231.17 Y203.7 E54.94181
G1 X217.246 Y203.699 E55.59017
G1 X216.517 Y203.687 E55.62412
G1 X215.39 Y203.605 E55.67674
G1 X214.531 Y203.495 E55.71707
G1 X211.866 Y203.192 E55.84196
G1 X209.33 Y202.977 E55.96047
G1 X206.791 Y202.833 E56.07889
G1 X204.257 Y202.761 E56.19693
G1 X201.724 Y202.761 E56.31487
G1 X199.191 Y202.833 E56.43287
G1 X196.627 Y202.978 E56.55245
G1 X194.129 Y203.191 E56.66919
G1 X191.547 Y203.484 E56.79019
G1 X190.603 Y203.606 E56.83451
G1 X189.632 Y203.684 E56.87987
G1 X189.022 Y203.699 E56.90828
G1 X161.246 Y203.699 E58.20165
G1 X160.517 Y203.687 E58.2356
G1 X159.39 Y203.605 E58.28822
G1 X158.531 Y203.495 E58.32854
G1 X155.866 Y203.192 E58.45344
G1 X153.33 Y202.977 E58.57195
G1 X150.791 Y202.833 E58.69036
G1 X148.257 Y202.761 E58.8084
G1 X145.724 Y202.761 E58.92635
G1 X143.191 Y202.833 E59.04435
G1 X140.627 Y202.978 E59.16393
G1 X138.129 Y203.191 E59.28067
G1 X135.547 Y203.484 E59.40167
G1 X134.603 Y203.606 E59.44599
G1 X133.632 Y203.684 E59.49135
G1 X133.022 Y203.699 E59.51976
G1 X4.207 Y203.7 E65.51793
G1 X3.377 Y203.69 E65.55658
G1 X2.476 Y203.639 E65.5986
G1 X1.582 Y203.507 E65.64068
G1 X0.704 Y203.298 E65.68271
G1 X0.00 Y203.062 E65.71728
G1 F1500 E59.21728
;MESH:scythe_base_card_1.stl
G0 F6000 X3.92 Y194.165
G0 X117.5 Y192.9
;TYPE:WALL-INNER
G1 F1500 E65.71728
G1 F1200 X132.648 Y192.9 E66.42263
G1 X132.659 Y190.744 E66.52303
G1 X132.688 Y190.498 E66.53456
G1 X132.652 Y190.155 E66.55062
G1 X132.657 Y180.37 E67.00625
G1 X132.734 Y179.781 E67.03391
G1 X132.898 Y179.284 E67.05828
G1 X133.14 Y178.762 E67.08507
G1 X133.548 Y178.207 E67.11715
G1 X134.015 Y177.762 E67.14718
G1 X134.542 Y177.427 E67.17626
G1 X134.942 Y177.242 E67.19678
G1 X135.367 Y177.108 E67.21753
G1 X135.911 Y177.006 E67.24331
G1 X157.925 Y177 E68.26837
G1 X158.517 Y177.074 E68.29615
G1 X159.103 Y177.262 E68.32481
G1 X159.589 Y177.495 E68.3499
G1 X160.13 Y177.887 E68.38101
G1 X160.59 Y178.374 E68.41221
G1 X160.905 Y178.864 E68.43933
G1 X161.107 Y179.305 E68.46192
G1 X161.276 Y179.841 E68.48809
G1 X161.342 Y180.387 E68.5137
G1 X161.34 Y190.261 E68.97347
G1 X161.309 Y190.5 E68.98469
G1 X161.341 Y190.774 E68.99754
G1 X161.344 Y192.9 E69.09653
G1 X188.648 Y192.9 E70.36792
G1 X188.659 Y190.744 E70.46832
G1 X188.688 Y190.498 E70.47985
G1 X188.652 Y190.155 E70.49591
G1 X188.66 Y180.336 E70.95312
G1 X188.733 Y179.784 E70.97905
G1 X188.916 Y179.242 E71.00569
G1 X189.133 Y178.779 E71.0295
G1 X189.533 Y178.225 E71.06132
G1 X190.016 Y177.762 E71.09247
G1 X190.546 Y177.425 E71.12172
G1 X190.944 Y177.242 E71.14211
G1 X191.383 Y177.104 E71.16354
G1 X191.935 Y177.004 E71.18966
G1 X213.916 Y177 E72.21319
G1 X214.55 Y177.081 E72.24295
G1 X215.072 Y177.249 E72.26849
G1 X215.596 Y177.5 E72.29554
G1 X216.136 Y177.892 E72.32661
G1 X216.594 Y178.378 E72.35771
G1 X216.925 Y178.903 E72.38661
G1 X217.107 Y179.305 E72.40715
G1 X217.27 Y179.813 E72.432
G1 X217.34 Y180.367 E72.458
G1 X217.34 Y190.261 E72.91871
G1 X217.309 Y190.5 E72.92993
G1 X217.341 Y190.774 E72.94277
G1 X217.344 Y192.9 E73.04177
G1 X230.9 Y192.9 E73.67299
G1 X230.9 Y98.972 E78.04667
G1 X228.743 Y98.965 E78.14711
G1 X228.499 Y98.936 E78.15855
G1 X228.247 Y98.965 E78.17037
G1 X211.13 Y98.972 E78.96741
G1 X210.529 Y98.898 E78.9956
G1 X209.996 Y98.731 E79.02161
G1 X209.474 Y98.488 E79.04842
G1 X208.932 Y98.097 E79.07954
G1 X208.461 Y97.607 E79.11119
G1 X208.132 Y97.088 E79.1398
G1 X207.946 Y96.682 E79.1606
G1 X207.78 Y96.17 E79.18566
G1 X207.704 Y95.558 E79.21438
G1 X207.704 Y63.907 E80.68818
G1 X207.784 Y63.312 E80.71613
G1 X207.944 Y62.812 E80.74058
G1 X208.2 Y62.275 E80.76828
G1 X208.58 Y61.75 E80.79846
G1 X209.093 Y61.267 E80.83127
G1 X209.568 Y60.965 E80.85748
G1 X210.006 Y60.766 E80.87988
G1 X210.404 Y60.635 E80.89939
G1 X210.959 Y60.53 E80.92569
G1 X228.131 Y60.524 E81.72529
G1 X228.497 Y60.563 E81.74243
G1 X228.747 Y60.531 E81.75417
G1 X230.9 Y60.524 E81.85442
G1 X230.9 Y42.1 E82.71232
G1 X4.1 Y42.1 E93.27308
G1 X4.1 Y60.524 E94.13097
G1 X6.262 Y60.532 E94.23165
G1 X6.499 Y60.563 E94.24278
G1 X6.749 Y60.531 E94.25451
G1 X24.478 Y60.525 E95.08005
G1 X25.084 Y60.602 E95.10849
G1 X25.591 Y60.765 E95.13329
G1 X26.116 Y61.005 E95.16017
G1 X26.672 Y61.406 E95.19209
G1 X27.159 Y61.924 E95.2252
G1 X27.454 Y62.39 E95.25088
G1 X27.641 Y62.782 E95.2711
G1 X27.816 Y63.311 E95.29705
G1 X27.895 Y63.916 E95.32546
G1 X27.888 Y95.636 E96.80248
G1 X27.827 Y96.136 E96.82593
G1 X27.632 Y96.731 E96.85509
G1 X27.388 Y97.238 E96.88129
G1 X26.999 Y97.766 E96.91182
G1 X26.536 Y98.207 E96.9416
G1 X26.03 Y98.53 E96.96955
G1 X25.625 Y98.723 E96.99044
G1 X25.193 Y98.862 E97.01157
G1 X24.651 Y98.964 E97.03725
G1 X6.798 Y98.969 E97.86856
G1 X6.502 Y98.936 E97.88243
G1 X6.249 Y98.965 E97.89429
G1 X4.1 Y98.971 E97.99436
G1 X4.1 Y136.024 E99.7197
G1 X6.262 Y136.032 E99.82037
G1 X6.499 Y136.063 E99.8315
G1 X6.749 Y136.031 E99.84324
G1 X24.463 Y136.024 E100.66807
G1 X25.086 Y136.102 E100.69731
G1 X25.625 Y136.277 E100.7237
G1 X26.131 Y136.513 E100.7497
G1 X26.682 Y136.914 E100.78143
G1 X27.14 Y137.399 E100.81249
G1 X27.465 Y137.91 E100.84069
G1 X27.659 Y138.329 E100.86219
G1 X27.829 Y138.871 E100.88864
G1 X27.896 Y139.438 E100.91523
G1 X27.891 Y171.112 E102.3901
G1 X27.823 Y171.657 E102.41567
G1 X27.632 Y172.231 E102.44384
G1 X27.396 Y172.725 E102.46934
G1 X27.016 Y173.246 E102.49936
G1 X26.533 Y173.709 E102.53052
G1 X26.03 Y174.03 E102.5583
G1 X25.626 Y174.222 E102.57913
G1 X25.193 Y174.362 E102.60032
G1 X24.637 Y174.466 E102.62666
G1 X6.798 Y174.469 E103.45732
G1 X6.502 Y174.436 E103.47119
G1 X6.249 Y174.465 E103.48304
G1 X4.1 Y174.471 E103.58311
G1 X4.1 Y192.9 E104.44124
G1 X117.5 Y192.9 E109.72162
G0 F6000 X117.5 Y193.3
;TYPE:WALL-OUTER
G1 F1200 X133.047 Y193.3 E110.44556
G1 X133.057 Y190.789 E110.56248
G1 X133.09 Y190.497 E110.57616
G1 X133.052 Y190.155 E110.59219
G1 X133.057 Y180.384 E111.04716
G1 X133.119 Y179.889 E111.07039
G1 X133.278 Y179.411 E111.09385
G1 X133.495 Y178.953 E111.11745
G1 X133.846 Y178.474 E111.1451
G1 X134.289 Y178.056 E111.17346
G1 X134.716 Y177.787 E111.19696
G1 X135.083 Y177.617 E111.21579
G1 X135.47 Y177.495 E111.23469
G1 X135.967 Y177.404 E111.25822
G1 X157.912 Y177.4 E112.28007
G1 X158.466 Y177.473 E112.30609
G1 X158.938 Y177.627 E112.32921
G1 X159.394 Y177.846 E112.35276
G1 X159.881 Y178.201 E112.38082
G1 X160.27 Y178.614 E112.40724
G1 X160.562 Y179.071 E112.43249
G1 X160.727 Y179.429 E112.45085
G1 X160.882 Y179.909 E112.47434
G1 X160.944 Y180.422 E112.4984
G1 X160.943 Y190.21 E112.95417
G1 X160.906 Y190.498 E112.96769
G1 X160.943 Y190.818 E112.98269
G1 X160.943 Y193.3 E113.09826
G1 X189.047 Y193.3 E114.4069
G1 X189.057 Y190.789 E114.52382
G1 X189.09 Y190.497 E114.53751
G1 X189.052 Y190.155 E114.55353
G1 X189.057 Y180.384 E115.00851
G1 X189.116 Y179.9 E115.03121
G1 X189.278 Y179.411 E115.0552
G1 X189.493 Y178.956 E115.07863
G1 X189.855 Y178.465 E115.10704
G1 X190.292 Y178.055 E115.13494
G1 X190.718 Y177.787 E115.15838
G1 X191.083 Y177.617 E115.17712
G1 X191.47 Y177.495 E115.19602
G1 X191.967 Y177.404 E115.21955
G1 X213.909 Y177.4 E116.24126
G1 X214.453 Y177.469 E116.26679
G1 X214.926 Y177.621 E116.28993
G1 X215.383 Y177.838 E116.31348
G1 X215.872 Y178.193 E116.34162
G1 X216.278 Y178.624 E116.36919
G1 X216.562 Y179.071 E116.39385
G1 X216.727 Y179.429 E116.41221
G1 X216.883 Y179.919 E116.43615
G1 X216.943 Y180.415 E116.45942
G1 X216.943 Y190.21 E116.91551
G1 X216.906 Y190.498 E116.92903
G1 X216.943 Y190.818 E116.94403
G1 X216.943 Y193.3 E117.0596
G1 X231.3 Y193.3 E117.72813
G1 X231.3 Y98.572 E122.13906
G1 X228.789 Y98.567 E122.25598
G1 X228.499 Y98.534 E122.26957
G1 X228.205 Y98.567 E122.28335
G1 X211.139 Y98.572 E123.07801
G1 X210.599 Y98.504 E123.10336
G1 X210.111 Y98.346 E123.12724
G1 X209.65 Y98.126 E123.15103
G1 X209.164 Y97.768 E123.17913
G1 X208.764 Y97.346 E123.20621
G1 X208.486 Y96.901 E123.23064
G1 X208.321 Y96.543 E123.249
G1 X208.165 Y96.053 E123.27294
G1 X208.104 Y95.532 E123.29737
G1 X208.105 Y63.906 E124.77001
G1 X208.17 Y63.416 E124.79302
G1 X208.323 Y62.942 E124.81621
G1 X208.538 Y62.489 E124.83956
G1 X208.889 Y62.004 E124.86744
G1 X209.329 Y61.59 E124.89557
G1 X209.76 Y61.316 E124.91935
G1 X210.132 Y61.146 E124.9384
G1 X210.505 Y61.022 E124.9567
G1 X210.997 Y60.928 E124.98003
G1 X228.156 Y60.925 E125.77902
G1 X228.499 Y60.966 E125.79511
G1 X228.79 Y60.929 E125.80877
G1 X231.3 Y60.925 E125.92564
G1 X231.3 Y41.7 E126.82084
G1 X3.7 Y41.7 E137.41885
G1 X3.7 Y60.924 E138.314
G1 X6.212 Y60.929 E138.43097
G1 X6.499 Y60.966 E138.44444
G1 X6.791 Y60.929 E138.45815
G1 X24.453 Y60.924 E139.28056
G1 X24.996 Y60.992 E139.30605
G1 X25.467 Y61.145 E139.32911
G1 X25.924 Y61.356 E139.35254
G1 X26.426 Y61.722 E139.38147
G1 X26.827 Y62.148 E139.40871
G1 X27.104 Y62.583 E139.43273
G1 X27.279 Y62.953 E139.45179
G1 X27.43 Y63.415 E139.47442
G1 X27.496 Y63.956 E139.4998
G1 X27.491 Y95.588 E140.97272
G1 X27.427 Y96.091 E140.99633
G1 X27.27 Y96.561 E141.0194
G1 X27.05 Y97.022 E141.04319
G1 X26.699 Y97.501 E141.07084
G1 X26.264 Y97.912 E141.0987
G1 X25.826 Y98.185 E141.12274
G1 X25.466 Y98.355 E141.14127
G1 X25.082 Y98.477 E141.16004
G1 X24.592 Y98.568 E141.18324
G1 X6.865 Y98.572 E142.00869
G1 X6.501 Y98.534 E142.02573
G1 X6.206 Y98.567 E142.03955
G1 X3.7 Y98.571 E142.15624
G1 X3.7 Y136.424 E143.91883
G1 X6.212 Y136.429 E144.0358
G1 X6.499 Y136.466 E144.04928
G1 X6.791 Y136.429 E144.06298
G1 X24.46 Y136.424 E144.88573
G1 X24.997 Y136.492 E144.91093
G1 X25.478 Y136.649 E144.93449
G1 X25.938 Y136.864 E144.95813
G1 X26.423 Y137.219 E144.98612
G1 X26.832 Y137.654 E145.01392
G1 X27.109 Y138.094 E145.03813
G1 X27.278 Y138.453 E145.05661
G1 X27.435 Y138.943 E145.08057
G1 X27.496 Y139.465 E145.10504
G1 X27.491 Y171.088 E146.57754
G1 X27.432 Y171.571 E146.6002
G1 X27.27 Y172.061 E146.62423
G1 X27.058 Y172.511 E146.64739
G1 X26.707 Y172.992 E146.67512
G1 X26.277 Y173.402 E146.70278
G1 X25.837 Y173.68 E146.72702
G1 X25.466 Y173.855 E146.74612
G1 X25.082 Y173.977 E146.76488
G1 X24.599 Y174.068 E146.78777
G1 X6.865 Y174.072 E147.61354
G1 X6.501 Y174.034 E147.63058
G1 X6.206 Y174.067 E147.6444
G1 X3.7 Y174.071 E147.76109
G1 X3.7 Y193.3 E148.65647
G1 X117.5 Y193.3 E153.95548
G0 F6000 X117.5 Y192.54
;TYPE:SKIN
G1 F1200 X4.46 Y192.54 E159.21909
G1 X4.46 Y174.832 E160.04365
G1 X6.177 Y174.828 E160.1236
G1 X6.494 Y174.798 E160.13843
G1 X6.777 Y174.828 E160.15168
G1 X24.675 Y174.824 E160.98509
G1 X25.266 Y174.713 E161.01309
G1 X25.75 Y174.559 E161.03674
G1 X26.141 Y174.378 E161.0568
G1 X26.728 Y174.015 E161.08894
G1 X27.271 Y173.504 E161.12366
G1 X27.719 Y172.886 E161.1592
G1 X27.979 Y172.329 E161.18782
G1 X28.172 Y171.74 E161.21668
G1 X28.251 Y171.109 E161.2463
G1 X28.252 Y139.408 E162.72243
G1 X28.171 Y138.75 E162.7533
G1 X27.997 Y138.211 E162.77967
G1 X27.78 Y137.738 E162.8039
G1 X27.446 Y137.205 E162.83319
G1 X26.934 Y136.65 E162.86835
G1 X26.3 Y136.196 E162.90466
G1 X25.765 Y135.942 E162.93224
G1 X25.144 Y135.744 E162.96259
G1 X24.479 Y135.664 E162.99378
G1 X6.712 Y135.673 E163.82108
G1 X6.494 Y135.698 E163.8313
G1 X6.205 Y135.669 E163.84483
G1 X4.46 Y135.66 E163.92608
G1 X4.46 Y99.332 E165.61767
G1 X6.177 Y99.328 E165.69762
G1 X6.494 Y99.298 E165.71244
G1 X6.777 Y99.328 E165.7257
G1 X24.657 Y99.324 E166.55826
G1 X25.268 Y99.213 E166.58718
G1 X25.771 Y99.051 E166.61179
