;FLAVOR:Marlin
;TIME:21300
;Filament used: 22.2115m
;Layer height: 0.28
;MINX:0
;MINY:48.5
;MINZ:0.28
;MAXX:235
;MAXY:186.5
;MAXZ:31.92
;TARGET_MACHINE.NAME:Creality CR-6 SE
;Generated with Cura_SteamEngine 5.8.1
M140 S60
M105
M190 S60
M104 S200
M105
M109 S200
M82 ;absolute extrusion mode
M201 X500.00 Y500.00 Z100.00 E5000.00 ;Setup machine max acceleration
M203 X500.00 Y500.00 Z10.00 E50.00 ;Setup machine max feedrate
M204 P500.00 R1000.00 T500.00 ;Setup Print/Retract/Travel acceleration
M205 X8.00 Y8.00 Z0.40 E5.00 ;Setup Jerk
M220 S100 ;Reset Feedrate
M221 S100 ;Reset Flowrate

G28 ;Home

G92 E0 ;Reset Extruder
G1 Z2.0 F3000 ;Move Z Axis up
G1 X10.1 Y20 Z0.28 F5000.0 ;Move to start position
G1 X10.1 Y200.0 Z0.28 F1500.0 E15 ;Draw the first line
G1 X10.4 Y200.0 Z0.28 F5000.0 ;Move to side a little
G1 X10.4 Y20 Z0.28 F1500.0 E30 ;Draw the second line
G92 E0 ;Reset Extruder
G1 Z2.0 F3000 ;Move Z Axis up

G92 E0
G92 E0
G1 F1500 E-6.5
;LAYER_COUNT:114
;LAYER:0
M107
G0 F6000 X0.00 Y49.08 Z0.28
;TYPE:SKIRT
G1 F1500 E0
G1 F1200 X1.049 Y48.789 E0.05069
G1 X2.016 Y48.611 E0.09647
G1 X3.155 Y48.515 E0.1497
G1 X3.812 Y48.5 E0.1803
G1 X22.514 Y48.5 E1.05114
G1 X23.395 Y48.513 E1.09217
G1 X24.359 Y48.572 E1.13714
G1 X25.075 Y48.671 E1.1708
G1 X27.981 Y49.173 E1.30812
G1 X30.535 Y49.538 E1.42825
G1 X32.972 Y49.815 E1.54246
G1 X35.521 Y50.034 E1.66159
G1 X37.981 Y50.173 E1.77632
G1 X40.545 Y50.246 E1.89576
G1 X43.036 Y50.246 E2.01175
G1 X45.571 Y50.175 E2.12984
G1 X48.052 Y50.037 E2.24554
G1 X50.606 Y49.82 E2.3649
G1 X53.085 Y49.538 E2.48107
G1 X55.601 Y49.181 E2.5994
G1 X57.327 Y48.892 E2.68089
G1 X58.575 Y48.672 E2.7399
G1 X59.47 Y48.554 E2.78193
G1 X60.099 Y48.516 E2.81128
G1 X60.728 Y48.501 E2.84057
G1 X98.181 Y48.5 E4.58454
G1 X99.066 Y48.513 E4.62576
G1 X100.03 Y48.572 E4.67073
G1 X100.746 Y48.671 E4.70438
G1 X103.704 Y49.182 E4.84416
G1 X106.204 Y49.538 E4.96175
G1 X108.679 Y49.818 E5.07773
G1 X111.233 Y50.037 E5.19709
G1 X113.711 Y50.175 E5.31265
G1 X116.255 Y50.247 E5.43116
G1 X118.744 Y50.247 E5.54706
G1 X121.303 Y50.175 E5.66626
G1 X123.764 Y50.034 E5.78105
G1 X126.295 Y49.82 E5.89932
G1 X128.789 Y49.536 E6.0162
G1 X131.333 Y49.173 E6.13586
G1 X133.248 Y48.85 E6.22629
G1 X134.205 Y48.679 E6.27156
G1 X135.15 Y48.554 E6.31595
G1 X135.94 Y48.512 E6.35278
G1 X136.709 Y48.5 E6.3886
G1 X173.993 Y48.501 E8.12469
G1 X174.715 Y48.512 E8.15832
G1 X175.696 Y48.572 E8.20408
G1 X176.412 Y48.671 E8.23774
G1 X179.37 Y49.182 E8.37752
G1 X181.87 Y49.538 E8.4951
G1 X184.345 Y49.818 E8.61108
G1 X186.899 Y50.037 E8.73044
G1 X189.377 Y50.175 E8.84601
G1 X191.921 Y50.247 E8.96452
G1 X194.41 Y50.247 E9.08041
G1 X196.969 Y50.175 E9.19962
G1 X199.43 Y50.034 E9.3144
G1 X201.961 Y49.82 E9.43268
G1 X204.455 Y49.536 E9.54956
G1 X206.974 Y49.176 E9.66804
G1 X208.738 Y48.881 E9.75132
G1 X209.914 Y48.673 E9.80693
G1 X210.81 Y48.555 E9.84902
G1 X211.598 Y48.512 E9.88576
G1 X212.338 Y48.5 E9.92023
G1 X230.951 Y48.501 E10.78692
G1 X231.684 Y48.513 E10.82106
G1 X232.656 Y48.572 E10.8664
G1 X233.619 Y48.718 E10.91176
G1 X234.531 Y48.939 E10.95545
G1 X235 Y49.096 E10.97848
G0 F6000 X235 Y49.517
G1 F1200 X234.437 Y49.328 E11.00614
G1 X233.525 Y49.107 E11.04983
G1 X232.597 Y48.968 E11.09353
G1 X231.66 Y48.912 E11.13723
G1 X230.945 Y48.901 E11.17053
G1 X212.338 Y48.9 E12.03695
G1 X211.605 Y48.912 E12.07109
G1 X210.862 Y48.952 E12.10573
G1 X209.966 Y49.07 E12.14782
G1 X208.804 Y49.276 E12.20277
G1 X207.04 Y49.571 E12.28605
G1 X204.512 Y49.932 E12.40496
G1 X201.995 Y50.218 E12.52291
G1 X199.464 Y50.433 E12.64119
G1 X196.98 Y50.575 E12.75705
G1 X194.421 Y50.647 E12.87625
G1 X191.91 Y50.647 E12.99317
G1 X189.366 Y50.575 E13.11168
G1 X186.865 Y50.435 E13.22832
G1 X184.311 Y50.217 E13.34768
G1 X181.814 Y49.934 E13.46469
G1 X179.314 Y49.578 E13.58228
G1 X176.344 Y49.065 E13.72262
G1 X175.641 Y48.968 E13.75566
G1 X174.691 Y48.911 E13.79998
G1 X173.987 Y48.901 E13.83276
G1 X136.709 Y48.9 E15.56858
G1 X135.946 Y48.912 E15.60412
G1 X135.202 Y48.951 E15.63881
G1 X134.257 Y49.076 E15.68319
G1 X133.319 Y49.244 E15.72757
G1 X131.39 Y49.569 E15.81866
G1 X128.846 Y49.932 E15.93831
G1 X126.329 Y50.218 E16.05627
G1 X123.798 Y50.433 E16.17455
G1 X121.314 Y50.575 E16.2904
G1 X118.755 Y50.647 E16.40961
G1 X116.244 Y50.647 E16.52653
G1 X113.7 Y50.575 E16.64504
G1 X111.199 Y50.435 E16.76168
G1 X108.645 Y50.217 E16.88103
G1 X106.148 Y49.934 E16.99805
G1 X103.648 Y49.578 E17.11563
G1 X100.678 Y49.065 E17.25598
G1 X99.975 Y48.968 E17.28902
G1 X99.042 Y48.912 E17.33255
G1 X98.175 Y48.9 E17.37292
G1 X60.728 Y48.901 E19.11661
G1 X60.109 Y48.916 E19.14544
G1 X59.522 Y48.951 E19.17282
G1 X58.627 Y49.069 E19.21486
G1 X57.393 Y49.287 E19.27321
G1 X55.667 Y49.576 E19.3547
G1 X53.141 Y49.934 E19.47349
G1 X50.64 Y50.218 E19.5907
G1 X48.086 Y50.435 E19.71005
G1 X45.582 Y50.575 E19.82683
G1 X43.047 Y50.646 E19.94492
G1 X40.534 Y50.646 E20.06193
G1 X37.97 Y50.573 E20.18137
G1 X35.487 Y50.432 E20.29718
G1 X32.938 Y50.214 E20.4163
G1 X30.478 Y49.934 E20.53159
G1 X27.924 Y49.569 E20.65172
G1 X25.007 Y49.065 E20.78956
G1 X24.304 Y48.968 E20.82261
G1 X23.371 Y48.912 E20.86613
G1 X22.508 Y48.9 E20.90632
G1 X3.821 Y48.9 E21.77647
G1 X3.189 Y48.914 E21.8059
G1 X2.05 Y49.01 E21.85913
G1 X1.122 Y49.182 E21.90307
G1 X0.219 Y49.433 E21.94672
G1 X0.00 Y49.515 E21.9576
G0 F6000 X0.00 Y49.942
G1 F1200 X0.327 Y49.818 E21.97389
G1 X1.196 Y49.575 E22.01591
G1 X2.084 Y49.409 E22.05797
G1 X3.223 Y49.313 E22.11119
G1 X3.83 Y49.3 E22.13947
G1 X22.503 Y49.3 E23.00896
G1 X23.348 Y49.311 E23.04831
G1 X24.249 Y49.364 E23.09034
G1 X24.939 Y49.459 E23.12277
G1 X27.867 Y49.965 E23.26113
G1 X30.421 Y50.33 E23.38126
G1 X32.904 Y50.613 E23.49763
G1 X35.453 Y50.83 E23.61675
G1 X37.959 Y50.973 E23.73363
G1 X40.523 Y51.046 E23.85307
G1 X43.058 Y51.046 E23.97111
G1 X45.593 Y50.975 E24.0892
G1 X48.12 Y50.833 E24.20705
G1 X50.674 Y50.616 E24.3264
G1 X53.197 Y50.33 E24.44464
G1 X55.733 Y49.971 E24.5639
G1 X57.459 Y49.682 E24.64539
G1 X58.679 Y49.466 E24.70308
G1 X59.574 Y49.348 E24.74512
G1 X60.119 Y49.316 E24.77054
G1 X60.728 Y49.301 E24.7989
G1 X98.17 Y49.3 E26.54236
G1 X99.019 Y49.311 E26.5819
G1 X99.92 Y49.364 E26.62392
G1 X100.61 Y49.459 E26.65636
G1 X103.592 Y49.974 E26.79727
G1 X106.092 Y50.33 E26.91485
G1 X108.611 Y50.616 E27.0329
G1 X111.165 Y50.833 E27.15225
G1 X113.689 Y50.975 E27.26997
G1 X116.233 Y51.047 E27.38847
G1 X118.766 Y51.047 E27.50642
G1 X121.325 Y50.975 E27.62563
G1 X123.832 Y50.832 E27.74255
G1 X126.363 Y50.616 E27.86083
G1 X128.903 Y50.328 E27.97987
G1 X131.447 Y49.965 E28.09952
G1 X133.39 Y49.638 E28.19127
G1 X134.328 Y49.47 E28.23564
G1 X135.223 Y49.35 E28.27769
G1 X135.952 Y49.312 E28.31168
G1 X136.709 Y49.3 E28.34694
G1 X173.981 Y49.301 E30.08248
G1 X174.685 Y49.311 E30.11526
G1 X175.586 Y49.364 E30.15729
G1 X176.276 Y49.459 E30.18972
G1 X179.258 Y49.974 E30.33063
G1 X181.758 Y50.33 E30.44822
G1 X184.277 Y50.616 E30.56626
G1 X186.831 Y50.833 E30.68562
G1 X189.355 Y50.975 E30.80333
G1 X191.899 Y51.047 E30.92184
G1 X194.432 Y51.047 E31.03979
G1 X196.991 Y50.975 E31.15899
G1 X199.498 Y50.832 E31.27592
G1 X202.029 Y50.616 E31.3942
G1 X204.569 Y50.328 E31.51323
G1 X207.106 Y49.966 E31.63256
G1 X208.87 Y49.671 E31.71584
G1 X210.018 Y49.467 E31.77013
G1 X210.914 Y49.349 E31.81221
G1 X211.612 Y49.312 E31.84476
G1 X212.338 Y49.3 E31.87857
G1 X230.939 Y49.301 E32.74471
G1 X231.637 Y49.311 E32.77722
G1 X232.539 Y49.364 E32.81929
G1 X233.432 Y49.496 E32.86132
G1 X234.31 Y49.707 E32.90337
G1 X235 Y49.939 E32.93727
G1 F1500 E26.43727
G0 F6000 X235 Y185.912
G1 F1500 E32.93727
G1 F1200 X234.901 Y185.948 E32.94217
G1 X233.962 Y186.209 E32.98756
G1 X232.996 Y186.387 E33.03329
G1 X231.845 Y186.485 E33.08708
G1 X231.17 Y186.5 E33.11852
G1 X4.064 Y186.499 E43.69353
G1 X3.331 Y186.488 E43.72766
G1 X2.359 Y186.431 E43.773
G1 X1.396 Y186.285 E43.81836
G1 X0.45 Y186.056 E43.86368
G1 X0.00 Y185.905 E43.88578
G0 F6000 X0.00 Y185.484
G1 F1200 X0.577 Y185.677 E43.91411
G1 X1.489 Y185.896 E43.95778
G1 X2.418 Y186.035 E44.00152
G1 X3.354 Y186.089 E44.04518
G1 X4.07 Y186.099 E44.07852
G1 X231.17 Y186.1 E54.65325
G1 X231.811 Y186.086 E54.68311
G1 X232.962 Y185.988 E54.73689
G1 X233.889 Y185.816 E54.7808
G1 X234.793 Y185.563 E54.82451
G1 X235 Y185.486 E54.83479
G0 F6000 X235 Y185.059
G1 F1200 X234.685 Y185.178 E54.85047
G1 X233.815 Y185.423 E54.89256
G1 X232.928 Y185.589 E54.93458
G1 X231.777 Y185.687 E54.98837
G1 X231.17 Y185.7 E55.01664
G1 X4.075 Y185.699 E65.59113
G1 X3.377 Y185.69 E65.62364
G1 X2.476 Y185.639 E65.66566
G1 X1.582 Y185.507 E65.70774
G1 X0.704 Y185.298 E65.74976
G1 X0.00 Y185.062 E65.78434
G1 F1500 E59.28434
;MESH:scythe_exp_card_1.stl
G0 F6000 X3.92 Y176.165
G0 X117.5 Y174.9
;TYPE:WALL-INNER
G1 F1500 E65.78434
G1 F1200 X230.9 Y174.9 E71.06472
G1 X230.9 Y60.1 E76.41029
G1 X212.432 Y60.1 E77.27023
G1 X212.421 Y62.253 E77.37049
G1 X212.392 Y62.495 E77.38184
G1 X212.428 Y62.839 E77.39794
G1 X212.431 Y80.346 E78.21314
G1 X212.396 Y80.864 E78.23732
G1 X212.256 Y81.413 E78.2637
G1 X212.092 Y81.831 E78.28461
G1 X211.875 Y82.226 E78.30559
G1 X211.53 Y82.695 E78.3327
G1 X211.032 Y83.159 E78.3644
G1 X210.565 Y83.455 E78.39014
G1 X210.168 Y83.642 E78.41058
G1 X209.736 Y83.783 E78.43174
G1 X209.201 Y83.886 E78.45711
G1 X177.324 Y83.9 E79.94143
G1 X176.706 Y83.821 E79.97044
G1 X176.141 Y83.632 E79.99819
G1 X175.634 Y83.388 E80.02439
G1 X175.106 Y82.999 E80.05492
G1 X174.664 Y82.535 E80.08476
G1 X174.35 Y82.045 E80.11186
G1 X174.16 Y81.642 E80.13261
G1 X173.977 Y81.084 E80.15995
G1 X173.905 Y80.493 E80.18768
G1 X173.907 Y62.743 E81.01419
G1 X173.936 Y62.493 E81.02591
G1 X173.907 Y62.22 E81.03869
G1 X173.904 Y60.1 E81.13741
G1 X136.764 Y60.1 E82.8668
G1 X136.756 Y62.256 E82.9672
G1 X136.725 Y62.499 E82.9786
G1 X136.757 Y62.774 E82.99149
G1 X136.758 Y80.545 E83.81899
G1 X136.702 Y80.97 E83.83895
G1 X136.553 Y81.541 E83.86643
G1 X136.327 Y82.021 E83.89113
G1 X136.096 Y82.39 E83.9114
G1 X135.792 Y82.761 E83.93374
G1 X135.395 Y83.135 E83.95913
G1 X134.864 Y83.471 E83.98839
G1 X134.489 Y83.647 E84.00768
G1 X134.073 Y83.782 E84.02805
G1 X133.521 Y83.888 E84.05422
G1 X101.656 Y83.9 E85.53799
G1 X101.038 Y83.821 E85.567
G1 X100.49 Y83.64 E85.59387
G1 X99.991 Y83.401 E85.61964
G1 X99.528 Y83.067 E85.64622
G1 X99.217 Y82.775 E85.66608
G1 X98.915 Y82.409 E85.68818
G1 X98.612 Y81.935 E85.71437
G1 X98.403 Y81.394 E85.74138
G1 X98.294 Y80.974 E85.76158
G1 X98.237 Y80.493 E85.78414
G1 X98.24 Y62.736 E86.61098
G1 X98.271 Y62.493 E86.62239
G1 X98.239 Y62.222 E86.63509
G1 X98.236 Y60.1 E86.7339
G1 X61.1 Y60.101 E88.46311
G1 X61.089 Y62.253 E88.56332
G1 X61.06 Y62.495 E88.57467
G1 X61.096 Y62.841 E88.59086
G1 X61.09 Y80.541 E89.41505
G1 X61.026 Y81.063 E89.43954
G1 X60.838 Y81.647 E89.46811
G1 X60.615 Y82.117 E89.49233
G1 X60.206 Y82.682 E89.52481
G1 X59.737 Y83.13 E89.55501
G1 X59.206 Y83.467 E89.58429
G1 X58.835 Y83.643 E89.60341
G1 X58.393 Y83.785 E89.62503
G1 X57.853 Y83.888 E89.65063
G1 X25.996 Y83.9 E91.13403
G1 X25.41 Y83.828 E91.16152
G1 X24.838 Y83.646 E91.18947
G1 X24.347 Y83.415 E91.21473
G1 X23.77 Y82.995 E91.24797
G1 X23.389 Y82.591 E91.27382
G1 X23.125 Y82.226 E91.2948
G1 X22.908 Y81.832 E91.31574
G1 X22.704 Y81.31 E91.34184
G1 X22.57 Y80.635 E91.37389
G1 X22.575 Y62.744 E92.20697
G1 X22.604 Y62.498 E92.2185
G1 X22.571 Y62.226 E92.23126
G1 X22.571 Y60.1 E92.33025
G1 X4.1 Y60.1 E93.19034
G1 X4.1 Y174.9 E98.53591
G1 X117.5 Y174.9 E103.81629
G0 F6000 X117.5 Y175.3
;TYPE:WALL-OUTER
G1 F1200 X231.3 Y175.3 E109.11529
G1 X231.3 Y59.7 E114.49811
G1 X212.014 Y59.7 E115.39615
G1 X212.032 Y59.989 E115.40963
G1 X212.023 Y62.207 E115.51291
G1 X211.99 Y62.495 E115.52641
G1 X212.027 Y62.816 E115.54146
G1 X212.032 Y80.321 E116.35656
G1 X212.002 Y80.795 E116.37868
G1 X211.875 Y81.29 E116.40248
G1 X211.73 Y81.661 E116.42102
G1 X211.537 Y82.012 E116.43968
G1 X211.23 Y82.43 E116.46383
G1 X210.808 Y82.827 E116.4908
G1 X210.373 Y83.104 E116.51482
G1 X209.998 Y83.279 E116.53409
G1 X209.614 Y83.401 E116.55285
G1 X209.127 Y83.492 E116.57592
G1 X177.338 Y83.5 E118.05615
G1 X176.781 Y83.426 E118.08231
G1 X176.311 Y83.27 E118.10537
G1 X175.85 Y83.05 E118.12915
G1 X175.366 Y82.694 E118.15713
G1 X174.961 Y82.266 E118.18457
G1 X174.689 Y81.832 E118.20842
G1 X174.522 Y81.467 E118.22711
G1 X174.365 Y80.98 E118.25094
G1 X174.304 Y80.456 E118.2755
G1 X174.305 Y62.789 E119.09815
G1 X174.338 Y62.495 E119.11193
G1 X174.305 Y62.178 E119.12677
G1 X174.305 Y59.7 E119.24215
G1 X136.364 Y59.7 E121.00884
G1 X136.359 Y62.206 E121.12553
G1 X136.322 Y62.497 E121.13919
G1 X136.359 Y62.818 E121.15424
G1 X136.36 Y80.51 E121.97805
G1 X136.308 Y80.9 E121.99637
G1 X136.177 Y81.402 E122.02053
G1 X135.961 Y81.856 E122.04394
G1 X135.751 Y82.184 E122.06208
G1 X135.49 Y82.498 E122.08109
G1 X135.134 Y82.832 E122.10382
G1 X134.694 Y83.109 E122.12803
G1 X134.33 Y83.279 E122.14674
G1 X133.946 Y83.401 E122.1655
G1 X133.483 Y83.49 E122.18745
G1 X101.67 Y83.5 E123.6688
G1 X101.113 Y83.426 E123.69496
G1 X100.642 Y83.269 E123.71808
G1 X100.186 Y83.051 E123.74162
G1 X99.778 Y82.754 E123.76512
G1 X99.493 Y82.484 E123.7834
G1 X99.235 Y82.168 E123.80239
G1 X98.965 Y81.738 E123.82603
G1 X98.786 Y81.279 E123.84898
G1 X98.685 Y80.884 E123.86796
G1 X98.636 Y80.456 E123.88802
G1 X98.637 Y62.786 E124.71081
G1 X98.674 Y62.495 E124.72447
G1 X98.637 Y62.178 E124.73933
G1 X98.637 Y59.7 E124.85472
G1 X60.701 Y59.7 E126.62117
G1 X60.693 Y62.185 E126.73689
G1 X60.658 Y62.495 E126.75141
G1 X60.696 Y62.841 E126.76762
G1 X60.691 Y80.512 E127.59046
G1 X60.632 Y80.996 E127.61316
G1 X60.472 Y81.485 E127.63712
G1 X60.25 Y81.946 E127.66094
G1 X59.898 Y82.426 E127.68866
G1 X59.455 Y82.842 E127.71696
G1 X59.032 Y83.107 E127.7402
G1 X58.665 Y83.279 E127.75907
G1 X58.285 Y83.4 E127.77764
G1 X57.815 Y83.49 E127.79993
G1 X26.003 Y83.5 E129.28123
G1 X25.468 Y83.432 E129.30634
G1 X24.997 Y83.279 E129.3294
G1 X24.539 Y83.064 E129.35296
G1 X24.052 Y82.711 E129.38097
G1 X23.697 Y82.336 E129.40501
G1 X23.456 Y82.001 E129.42423
G1 X23.27 Y81.662 E129.44223
G1 X23.093 Y81.214 E129.46466
G1 X22.968 Y80.596 E129.49402
G1 X22.973 Y62.789 E130.32319
G1 X23.006 Y62.497 E130.33687
G1 X22.968 Y62.155 E130.3529
G1 X22.973 Y59.7 E130.46721
G1 X3.7 Y59.7 E131.36464
G1 X3.7 Y175.3 E136.74746
G1 X117.5 Y175.3 E142.04647
G0 F6000 X117.5 Y174.54
;TYPE:SKIN
G1 F1200 X4.46 Y174.54 E147.31008
G1 X4.46 Y60.46 E152.62213
G1 X22.211 Y60.46 E153.44869
G1 X22.208 Y62.175 E153.52854
G1 X22.239 Y62.497 E153.54361
G1 X22.212 Y62.798 E153.55768
G1 X22.208 Y80.668 E154.38978
G1 X22.361 Y81.43 E154.42597
G1 X22.573 Y81.97 E154.45298
G1 X22.812 Y82.409 E154.47626
G1 X23.11 Y82.821 E154.49994
G1 X23.569 Y83.3 E154.53083
G1 X24.176 Y83.732 E154.56552
G1 X24.702 Y83.979 E154.59258
G1 X25.291 Y84.17 E154.62141
G1 X25.939 Y84.256 E154.65185
G1 X57.833 Y84.248 E156.13697
G1 X58.484 Y84.132 E156.16776
G1 X58.962 Y83.979 E156.19113
G1 X59.374 Y83.784 E156.21235
G1 X59.918 Y83.446 E156.24217
G1 X60.487 Y82.905 E156.27873
G1 X60.899 Y82.342 E156.31122
G1 X61.171 Y81.787 E156.34
G1 X61.376 Y81.139 E156.37165
G1 X61.447 Y80.552 E156.39918
G1 X61.456 Y62.833 E157.22425
G1 X61.422 Y62.491 E157.24025
G1 X61.451 Y62.205 E157.25364
G1 X61.456 Y60.46 E157.33489
G1 X97.872 Y60.46 E159.03058
G1 X97.881 Y62.259 E159.11435
G1 X97.907 Y62.49 E159.12517
G1 X97.876 Y62.792 E159.13931
G1 X97.876 Y80.496 E159.96368
G1 X97.933 Y81 E159.9873
G1 X98.073 Y81.551 E160.01377
G1 X98.274 Y82.051 E160.03886
G1 X98.612 Y82.607 E160.06916
G1 X98.937 Y83.003 E160.09301
G1 X99.28 Y83.332 E160.11515
G1 X99.824 Y83.72 E160.14626
G1 X100.355 Y83.97 E160.17359
G1 X100.936 Y84.166 E160.20214
G1 X101.65 Y84.26 E160.23567
G1 X133.505 Y84.248 E161.71898
G1 X134.14 Y84.137 E161.74899
G1 X134.603 Y83.987 E161.77165
G1 X135.024 Y83.791 E161.79328
G1 X135.594 Y83.443 E161.82438
G1 X136.052 Y83.012 E161.85366
G1 X136.372 Y82.619 E161.87726
G1 X136.629 Y82.221 E161.89932
G1 X136.887 Y81.678 E161.92731
G1 X137.048 Y81.061 E161.95701
G1 X137.116 Y80.554 E161.98082
G1 X137.115 Y62.732 E162.81069
G1 X137.086 Y62.487 E162.82218
G1 X137.119 Y62.199 E162.83568
G1 X137.124 Y60.46 E162.91665
