;FLAVOR:Marlin
;TIME:14374
;Filament used: 14.6451m
;Layer height: 0.28
;MINX:65.5
;MINY:39
;MINZ:0.28
;MAXX:169.5
;MAXY:196
;MAXZ:31.92
;TARGET_MACHINE.NAME:Creality CR-6 SE
;Generated with Cura_SteamEngine 5.8.1
M140 S60
M105
M190 S60
M104 S200
M105
M109 S200
M82 ;absolute extrusion mode
M201 X500.00 Y500.00 Z100.00 E5000.00 ;Setup machine max acceleration
M203 X500.00 Y500.00 Z10.00 E50.00 ;Setup machine max feedrate
M204 P500.00 R1000.00 T500.00 ;Setup Print/Retract/Travel acceleration
M205 X8.00 Y8.00 Z0.40 E5.00 ;Setup Jerk
M220 S100 ;Reset Feedrate
M221 S100 ;Reset Flowrate

G28 ;Home

G92 E0 ;Reset Extruder
G1 Z2.0 F3000 ;Move Z Axis up
G1 X10.1 Y20 Z0.28 F5000.0 ;Move to start position
G1 X10.1 Y200.0 Z0.28 F1500.0 E15 ;Draw the first line
G1 X10.4 Y200.0 Z0.28 F5000.0 ;Move to side a little
G1 X10.4 Y20 Z0.28 F1500.0 E30 ;Draw the second line
G92 E0 ;Reset Extruder
G1 Z2.0 F3000 ;Move Z Axis up

G92 E0
G92 E0
G1 F1500 E-6.5
;LAYER_COUNT:114
;LAYER:0
M107
G0 F6000 X67.121 Y44.277 Z0.28
;TYPE:SKIRT
G1 F1500 E0
G1 F1200 X67.664 Y43.469 E0.04533
G1 X68.231 Y42.765 E0.08742
G1 X68.956 Y42.013 E0.13606
G1 X69.692 Y41.376 E0.18139
G1 X70.424 Y40.846 E0.22347
G1 X71.321 Y40.311 E0.2721
G1 X72.199 Y39.89 E0.31744
G1 X73.112 Y39.548 E0.36284
G1 X74.049 Y39.289 E0.40811
G1 X75.016 Y39.111 E0.45389
G1 X76.155 Y39.015 E0.50711
G1 X76.812 Y39 E0.53771
G1 X157.804 Y39 E4.30904
G1 X158.684 Y39.013 E4.35002
G1 X159.656 Y39.072 E4.39537
G1 X160.619 Y39.218 E4.44072
G1 X161.566 Y39.449 E4.48611
G1 X162.454 Y39.749 E4.52975
G1 X163.346 Y40.139 E4.57509
G1 X164.229 Y40.626 E4.62204
G1 X164.98 Y41.128 E4.6641
G1 X165.795 Y41.786 E4.71288
G1 X166.493 Y42.464 E4.75819
G1 X167.129 Y43.201 E4.80352
G1 X167.699 Y43.991 E4.84888
G1 X168.161 Y44.767 E4.89093
G1 X168.615 Y45.709 E4.93962
G1 X168.944 Y46.587 E4.98328
G1 X169.213 Y47.559 E5.03025
G1 X169.39 Y48.525 E5.07598
G1 X169.485 Y49.655 E5.12878
G1 X169.5 Y50.33 E5.16022
G1 X169.499 Y184.4 E11.40308
G1 X169.488 Y185.163 E11.43861
G1 X169.431 Y186.136 E11.48399
G1 X169.286 Y187.099 E11.52934
G1 X169.057 Y188.045 E11.57466
G1 X168.746 Y188.969 E11.62006
G1 X168.354 Y189.86 E11.66539
G1 X167.886 Y190.712 E11.71065
G1 X167.364 Y191.493 E11.75439
G1 X166.731 Y192.278 E11.80135
G1 X166.106 Y192.929 E11.84337
G1 X165.317 Y193.617 E11.89212
G1 X164.557 Y194.167 E11.9358
G1 X163.69 Y194.684 E11.9828
G1 X162.812 Y195.106 E12.02816
G1 X161.901 Y195.448 E12.07347
G1 X160.962 Y195.709 E12.11886
G1 X159.996 Y195.887 E12.16459
G1 X158.845 Y195.985 E12.21838
G1 X158.17 Y196 E12.24982
G1 X77.064 Y195.999 E16.02646
G1 X76.331 Y195.988 E16.06059
G1 X75.359 Y195.931 E16.10593
G1 X74.396 Y195.785 E16.15128
G1 X73.45 Y195.556 E16.19661
G1 X72.526 Y195.244 E16.24202
G1 X71.636 Y194.852 E16.2873
G1 X70.813 Y194.401 E16.331
G1 X69.974 Y193.84 E16.378
G1 X69.27 Y193.274 E16.42006
G1 X68.517 Y192.549 E16.46873
G1 X67.88 Y191.813 E16.51406
G1 X67.35 Y191.082 E16.5561
G1 X66.814 Y190.185 E16.60476
G1 X66.392 Y189.307 E16.65012
G1 X66.05 Y188.395 E16.69547
G1 X65.79 Y187.457 E16.7408
G1 X65.612 Y186.488 E16.78667
G1 X65.514 Y185.309 E16.84176
G1 X65.5 Y184.658 E16.87208
G1 X65.501 Y50.525 E23.11788
G1 X65.512 Y49.825 E23.15047
G1 X65.57 Y48.852 E23.19586
G1 X65.716 Y47.889 E23.24122
G1 X65.946 Y46.943 E23.28655
G1 X66.259 Y46.02 E23.33193
G1 X66.651 Y45.13 E23.37722
G1 X67.121 Y44.277 E23.42256
G0 F6000 X67.453 Y44.5
G1 F1200 X67.976 Y43.72 E23.46629
G1 X68.543 Y43.016 E23.50838
G1 X69.218 Y42.315 E23.5537
G1 X69.927 Y41.7 E23.5974
G1 X70.659 Y41.17 E23.63948
G1 X71.495 Y40.671 E23.68482
G1 X72.34 Y40.264 E23.72849
G1 X73.219 Y39.933 E23.77223
G1 X74.122 Y39.682 E23.81587
G1 X75.05 Y39.51 E23.85982
G1 X76.189 Y39.414 E23.91304
G1 X76.821 Y39.4 E23.94248
G1 X157.798 Y39.4 E27.71311
G1 X158.66 Y39.412 E27.75325
G1 X159.597 Y39.468 E27.79696
G1 X160.525 Y39.607 E27.84065
G1 X161.438 Y39.828 E27.88439
G1 X162.294 Y40.116 E27.92644
G1 X163.186 Y40.506 E27.97178
G1 X164.007 Y40.959 E28.01544
G1 X164.758 Y41.461 E28.0575
G1 X165.517 Y42.073 E28.1029
G1 X166.191 Y42.726 E28.1466
G1 X166.805 Y43.435 E28.19027
G1 X167.355 Y44.196 E28.23399
G1 X167.817 Y44.972 E28.27605
G1 X168.24 Y45.849 E28.32139
G1 X168.569 Y46.727 E28.36505
G1 X168.82 Y47.632 E28.40878
G1 X168.991 Y48.559 E28.45267
G1 X169.086 Y49.689 E28.50547
G1 X169.1 Y50.33 E28.53533
G1 X169.099 Y184.395 E34.77796
G1 X169.089 Y185.14 E34.81265
G1 X169.035 Y186.077 E34.85635
G1 X168.897 Y187.006 E34.90009
G1 X168.678 Y187.918 E34.94376
G1 X168.38 Y188.808 E34.98746
G1 X168.003 Y189.668 E35.03119
G1 X167.553 Y190.49 E35.07482
G1 X167.031 Y191.271 E35.11856
G1 X166.442 Y192.001 E35.16224
G1 X165.817 Y192.652 E35.20426
G1 X165.082 Y193.293 E35.24967
G1 X164.322 Y193.843 E35.29336
G1 X163.516 Y194.324 E35.33706
G1 X162.671 Y194.732 E35.38076
G1 X161.793 Y195.063 E35.42445
G1 X160.889 Y195.316 E35.46816
G1 X159.962 Y195.488 E35.51206
G1 X158.811 Y195.586 E35.56585
G1 X158.17 Y195.6 E35.59571
G1 X77.07 Y195.599 E39.37206
G1 X76.354 Y195.589 E39.40541
G1 X75.418 Y195.535 E39.44906
G1 X74.489 Y195.396 E39.4928
G1 X73.577 Y195.177 E39.53648
G1 X72.687 Y194.878 E39.58019
G1 X71.828 Y194.501 E39.62388
G1 X71.005 Y194.05 E39.66757
G1 X70.225 Y193.528 E39.71128
G1 X69.521 Y192.962 E39.75334
G1 X68.819 Y192.287 E39.79869
G1 X68.204 Y191.578 E39.84239
G1 X67.674 Y190.847 E39.88443
G1 X67.174 Y190.011 E39.92979
G1 X66.766 Y189.166 E39.97349
G1 X66.435 Y188.288 E40.01718
G1 X66.183 Y187.384 E40.06088
G1 X66.011 Y186.455 E40.10487
G1 X65.913 Y185.276 E40.15996
G1 X65.9 Y184.658 E40.18874
G1 X65.901 Y50.531 E46.43426
G1 X65.911 Y49.848 E46.46606
G1 X65.966 Y48.911 E46.50977
G1 X66.105 Y47.983 E46.55346
G1 X66.325 Y47.071 E46.59715
G1 X66.625 Y46.181 E46.64088
G1 X67.002 Y45.322 E46.68456
G1 X67.453 Y44.5 E46.72822
G0 F6000 X67.786 Y44.722
G1 F1200 X68.288 Y43.971 E46.77028
G1 X68.855 Y43.267 E46.81237
G1 X69.481 Y42.617 E46.8544
G1 X70.162 Y42.024 E46.89644
G1 X70.894 Y41.494 E46.93852
G1 X71.669 Y41.031 E46.98056
G1 X72.482 Y40.638 E47.02261
G1 X73.327 Y40.318 E47.06468
G1 X74.196 Y40.075 E47.1067
G1 X75.084 Y39.909 E47.14876
G1 X76.223 Y39.813 E47.20199
G1 X76.83 Y39.8 E47.23026
G1 X157.793 Y39.8 E51.00024
G1 X158.637 Y39.811 E51.03954
G1 X159.539 Y39.864 E51.08161
G1 X160.432 Y39.996 E51.12365
G1 X161.31 Y40.207 E51.16569
G1 X162.166 Y40.495 E51.20775
G1 X162.993 Y40.857 E51.24978
G1 X163.785 Y41.292 E51.29186
G1 X164.536 Y41.794 E51.33392
G1 X165.239 Y42.361 E51.37598
G1 X165.889 Y42.988 E51.41803
G1 X166.481 Y43.67 E51.46008
G1 X167.011 Y44.401 E51.50213
G1 X167.473 Y45.177 E51.54418
G1 X167.866 Y45.99 E51.58623
G1 X168.184 Y46.835 E51.62827
G1 X168.427 Y47.705 E51.67033
G1 X168.592 Y48.593 E51.71239
G1 X168.687 Y49.723 E51.76519
G1 X168.7 Y50.33 E51.79346
G1 X168.699 Y184.39 E58.03586
G1 X168.69 Y185.117 E58.06971
G1 X168.639 Y186.019 E58.11178
G1 X168.508 Y186.913 E58.15385
G1 X168.299 Y187.791 E58.19588
G1 X168.013 Y188.648 E58.23795
G1 X167.652 Y189.476 E58.28001
G1 X167.22 Y190.268 E58.32201
G1 X166.719 Y191.02 E58.36409
G1 X166.153 Y191.724 E58.40615
G1 X165.528 Y192.375 E58.44817
G1 X164.847 Y192.969 E58.49025
G1 X164.116 Y193.5 E58.53232
G1 X163.342 Y193.964 E58.57434
G1 X162.529 Y194.358 E58.61641
G1 X161.685 Y194.678 E58.65844
G1 X160.815 Y194.923 E58.70053
G1 X159.928 Y195.089 E58.74255
G1 X158.777 Y195.187 E58.79634
G1 X158.17 Y195.2 E58.82461
G1 X77.075 Y195.199 E62.60073
G1 X76.377 Y195.19 E62.63324
G1 X75.476 Y195.139 E62.67526
G1 X74.582 Y195.007 E62.71734
G1 X73.704 Y194.798 E62.75936
G1 X72.847 Y194.511 E62.80145
G1 X72.02 Y194.15 E62.84346
G1 X71.227 Y193.717 E62.88554
G1 X70.476 Y193.216 E62.92757
G1 X69.772 Y192.65 E62.96963
G1 X69.121 Y192.024 E63.01169
G1 X68.528 Y191.343 E63.05374
G1 X67.998 Y190.612 E63.09578
G1 X67.534 Y189.837 E63.13784
G1 X67.14 Y189.024 E63.17991
G1 X66.82 Y188.18 E63.22194
G1 X66.576 Y187.31 E63.26401
G1 X66.41 Y186.422 E63.30608
G1 X66.313 Y185.267 E63.36005
G1 X66.3 Y184.658 E63.38841
G1 X66.301 Y50.536 E69.63369
G1 X66.31 Y49.871 E69.66466
G1 X66.362 Y48.969 E69.70673
G1 X66.494 Y48.076 E69.74877
G1 X66.704 Y47.198 E69.7908
G1 X66.991 Y46.341 E69.83289
G1 X67.353 Y45.514 E69.87492
G1 X67.786 Y44.722 E69.91695
G1 F1500 E63.41695
;MESH:scythe_coin_2.stl
G0 F6000 X75.835 Y50.8
G0 X117.5 Y184.4
;TYPE:WALL-INNER
G1 F1500 E69.91695
G1 F1200 X157.9 Y184.4 E71.79815
G1 X157.9 Y50.6 E78.02844
G1 X77.1 Y50.6 E81.79082
G1 X77.1 Y184.4 E88.02111
G1 X117.5 Y184.4 E89.9023
G0 F6000 X117.5 Y184.8
;TYPE:WALL-OUTER
G1 F1200 X158.3 Y184.8 E91.80212
G1 X158.3 Y50.2 E98.06966
G1 X76.7 Y50.2 E101.8693
G1 X76.7 Y184.8 E108.13684
G1 X117.5 Y184.8 E110.03666
G0 F6000 X117.5 Y184.04
;TYPE:SKIN
G1 F1200 X77.46 Y184.04 E111.90109
G1 X77.46 Y50.96 E118.09785
G1 X157.54 Y50.96 E121.82671
G1 X157.54 Y184.04 E128.02347
G1 X117.5 Y184.04 E129.8879
G1 F1500 E123.3879
G0 F6000 X117.5 Y184.3
G0 X77.272 Y184.228
G0 X77.2 Y183.443
G0 X77.659 Y183.443
G1 F1500 E129.8879
G1 F1200 X78.057 Y183.84 E129.91408
G0 F6000 X78.622 Y183.84
G1 F1200 X77.659 Y182.877 E129.9775
G0 F6000 X77.659 Y182.311
G1 F1200 X79.188 Y183.84 E130.07818
G0 F6000 X79.754 Y183.84
G1 F1200 X77.659 Y181.746 E130.21611
G0 F6000 X77.659 Y181.18
G1 F1200 X80.32 Y183.84 E130.39131
G0 F6000 X80.885 Y183.84
G1 F1200 X77.659 Y180.614 E130.60375
G0 F6000 X77.659 Y180.048
G1 F1200 X81.451 Y183.84 E130.85346
G0 F6000 X82.017 Y183.84
G1 F1200 X77.659 Y179.483 E131.1404
G0 F6000 X77.659 Y178.917
G1 F1200 X82.582 Y183.84 E131.46459
G0 F6000 X83.148 Y183.84
G1 F1200 X77.659 Y178.351 E131.82605
G0 F6000 X77.659 Y177.786
G1 F1200 X83.714 Y183.84 E132.22475
G0 F6000 X84.279 Y183.84
G1 F1200 X77.659 Y177.22 E132.66069
G0 F6000 X77.659 Y176.654
G1 F1200 X84.845 Y183.84 E133.1339
G0 F6000 X85.411 Y183.84
G1 F1200 X77.659 Y176.089 E133.64435
G0 F6000 X77.659 Y175.523
G1 F1200 X85.976 Y183.84 E134.19204
G0 F6000 X86.542 Y183.84
G1 F1200 X77.659 Y174.957 E134.777
G0 F6000 X77.659 Y174.392
G1 F1200 X87.108 Y183.84 E135.3992
G0 F6000 X87.673 Y183.84
G1 F1200 X77.659 Y173.826 E136.05864
G0 F6000 X77.659 Y173.26
G1 F1200 X88.239 Y183.84 E136.75535
G0 F6000 X88.805 Y183.84
G1 F1200 X77.659 Y172.695 E137.4893
G0 F6000 X77.659 Y172.129
G1 F1200 X89.371 Y183.84 E138.26052
G0 F6000 X89.936 Y183.84
G1 F1200 X77.659 Y171.563 E139.06898
G0 F6000 X77.659 Y170.998
G1 F1200 X90.502 Y183.84 E139.91468
G0 F6000 X91.068 Y183.84
G1 F1200 X77.659 Y170.432 E140.79766
G0 F6000 X77.659 Y169.866
G1 F1200 X91.633 Y183.84 E141.71787
G0 F6000 X92.199 Y183.84
G1 F1200 X77.659 Y169.3 E142.67535
G0 F6000 X77.659 Y168.735
G1 F1200 X92.765 Y183.84 E143.67007
G0 F6000 X93.33 Y183.84
G1 F1200 X77.659 Y168.169 E144.70204
G0 F6000 X77.659 Y167.603
G1 F1200 X93.896 Y183.84 E145.77127
G0 F6000 X94.462 Y183.84
G1 F1200 X77.659 Y167.038 E146.87774
G0 F6000 X77.659 Y166.472
G1 F1200 X95.027 Y183.84 E148.02146
G0 F6000 X95.593 Y183.84
G1 F1200 X77.659 Y165.906 E149.20244
G0 F6000 X77.659 Y165.341
G1 F1200 X96.159 Y183.84 E150.42066
G0 F6000 X96.724 Y183.84
G1 F1200 X77.659 Y164.775 E151.67613
G0 F6000 X77.659 Y164.209
G1 F1200 X97.29 Y183.84 E152.96886
G0 F6000 X97.856 Y183.84
G1 F1200 X77.659 Y163.644 E154.29884
G0 F6000 X77.659 Y163.078
G1 F1200 X98.421 Y183.84 E155.66605
G0 F6000 X98.987 Y183.84
G1 F1200 X77.659 Y162.512 E157.07053
G0 F6000 X77.659 Y161.947
G1 F1200 X99.553 Y183.84 E158.51226
G0 F6000 X100.119 Y183.84
G1 F1200 X77.659 Y161.381 E159.99126
G0 F6000 X77.659 Y160.815
G1 F1200 X100.684 Y183.84 E161.50749
G0 F6000 X101.25 Y183.84
G1 F1200 X77.659 Y160.249 E163.061
G0 F6000 X77.659 Y159.684
G1 F1200 X101.816 Y183.84 E164.65175
G0 F6000 X102.381 Y183.84
G1 F1200 X77.659 Y159.118 E166.27973
G0 F6000 X77.659 Y158.552
G1 F1200 X102.947 Y183.84 E167.94499
G0 F6000 X103.513 Y183.84
G1 F1200 X77.659 Y157.987 E169.64749
G0 F6000 X77.659 Y157.421
G1 F1200 X104.078 Y183.84 E171.38722
G0 F6000 X104.644 Y183.84
G1 F1200 X77.659 Y156.855 E173.16423
G0 F6000 X77.659 Y156.29
G1 F1200 X105.21 Y183.84 E174.97848
G0 F6000 X105.775 Y183.84
G1 F1200 X77.659 Y155.724 E176.82997
G0 F6000 X77.659 Y155.158
G1 F1200 X106.341 Y183.84 E178.71872
G0 F6000 X106.907 Y183.84
G1 F1200 X77.659 Y154.593 E180.64472
G0 F6000 X77.659 Y154.027
G1 F1200 X107.472 Y183.84 E182.60796
G0 F6000 X108.038 Y183.84
G1 F1200 X77.659 Y153.461 E184.60847
G0 F6000 X77.659 Y152.896
G1 F1200 X108.604 Y183.84 E186.64622
G0 F6000 X109.17 Y183.84
G1 F1200 X77.659 Y152.33 E188.72124
G0 F6000 X77.659 Y151.764
G1 F1200 X109.735 Y183.84 E190.8335
G0 F6000 X110.301 Y183.84
G1 F1200 X77.659 Y151.199 E192.98299
G0 F6000 X77.659 Y150.633
G1 F1200 X110.867 Y183.84 E195.16976
G0 F6000 X111.432 Y183.84
G1 F1200 X77.659 Y150.067 E197.39377
G0 F6000 X77.659 Y149.501
G1 F1200 X111.998 Y183.84 E199.65506
G0 F6000 X112.564 Y183.84
G1 F1200 X77.659 Y148.936 E201.95358
G0 F6000 X77.659 Y148.37
G1 F1200 X113.129 Y183.84 E204.28934
G0 F6000 X113.695 Y183.84
G1 F1200 X77.659 Y147.804 E206.66237
G0 F6000 X77.659 Y147.239
G1 F1200 X114.261 Y183.84 E209.07264
G0 F6000 X114.826 Y183.84
G1 F1200 X77.659 Y146.673 E211.52015
G0 F6000 X77.659 Y146.107
G1 F1200 X115.392 Y183.84 E214.00493
G0 F6000 X115.958 Y183.84
G1 F1200 X77.659 Y145.542 E216.52696
G0 F6000 X77.659 Y144.976
G1 F1200 X116.523 Y183.84 E219.08622
G0 F6000 X117.089 Y183.84
G1 F1200 X77.659 Y144.41 E221.68275
G0 F6000 X77.659 Y143.845
G1 F1200 X117.655 Y183.84 E224.31652
G0 F6000 X118.22 Y183.84
G1 F1200 X77.659 Y143.279 E226.98753
G0 F6000 X77.659 Y142.713
G1 F1200 X118.786 Y183.84 E229.69581
G0 F6000 X119.352 Y183.84
G1 F1200 X77.659 Y142.148 E232.44134
G0 F6000 X77.659 Y141.582
G1 F1200 X119.918 Y183.84 E235.22413
G0 F6000 X120.483 Y183.84
G1 F1200 X77.659 Y141.016 E238.04417
G0 F6000 X77.659 Y140.45
G1 F1200 X121.049 Y183.84 E240.90147
G0 F6000 X121.615 Y183.84
G1 F1200 X77.659 Y139.885 E243.79602
G0 F6000 X77.659 Y139.319
G1 F1200 X122.18 Y183.84 E246.7278
G0 F6000 X122.746 Y183.84
G1 F1200 X77.659 Y138.753 E249.69686
G0 F6000 X77.659 Y138.188
G1 F1200 X123.312 Y183.84 E252.70315
G0 F6000 X123.877 Y183.84
G1 F1200 X77.659 Y137.622 E255.74668
G0 F6000 X77.659 Y137.056
G1 F1200 X124.443 Y183.84 E258.82749
G0 F6000 X125.009 Y183.84
G1 F1200 X77.659 Y136.491 E261.94554
G0 F6000 X77.659 Y135.925
G1 F1200 X125.574 Y183.84 E265.10082
G0 F6000 X126.14 Y183.84
G1 F1200 X77.659 Y135.359 E268.29338
G0 F6000 X77.659 Y134.794
G1 F1200 X126.706 Y183.84 E271.52317
G0 F6000 X127.271 Y183.84
G1 F1200 X77.659 Y134.228 E274.79021
G0 F6000 X77.659 Y133.662
G1 F1200 X127.837 Y183.84 E278.09452
G0 F6000 X128.403 Y183.84
G1 F1200 X77.659 Y133.097 E281.43606
G0 F6000 X77.659 Y132.531
G1 F1200 X128.968 Y183.84 E284.81485
G0 F6000 X129.534 Y183.84
G1 F1200 X77.659 Y131.965 E288.2309
G0 F6000 X77.659 Y131.4
G1 F1200 X130.1 Y183.84 E291.6842
G0 F6000 X130.666 Y183.84
G1 F1200 X77.659 Y130.834 E295.17477
G0 F6000 X77.659 Y130.268
G1 F1200 X131.231 Y183.84 E298.70258
G0 F6000 X131.797 Y183.84
G1 F1200 X77.659 Y129.702 E302.26766
G0 F6000 X77.659 Y129.137
G1 F1200 X132.363 Y183.84 E305.86998
G0 F6000 X132.928 Y183.84
G1 F1200 X77.659 Y128.571 E309.50953
G0 F6000 X77.659 Y128.005
G1 F1200 X133.494 Y183.84 E313.18636
G0 F6000 X134.06 Y183.84
G1 F1200 X77.659 Y127.44 E316.90043
G0 F6000 X77.659 Y126.874
G1 F1200 X134.625 Y183.84 E320.65174
G0 F6000 X135.191 Y183.84
G1 F1200 X77.659 Y126.308 E324.44032
G0 F6000 X77.659 Y125.743
G1 F1200 X135.757 Y183.84 E328.26614
G0 F6000 X136.322 Y183.84
G1 F1200 X77.659 Y125.177 E332.1292
G0 F6000 X77.659 Y124.611
G1 F1200 X136.888 Y183.84 E336.02953
G0 F6000 X137.454 Y183.84
G1 F1200 X77.659 Y124.046 E339.9671
G0 F6000 X77.659 Y123.48
G1 F1200 X138.019 Y183.84 E343.94191
G0 F6000 X138.585 Y183.84
G1 F1200 X77.659 Y122.914 E347.95399
G0 F6000 X77.659 Y122.349
G1 F1200 X139.151 Y183.84 E352.00331
G0 F6000 X139.717 Y183.84
G1 F1200 X77.659 Y121.783 E356.0899
G0 F6000 X77.659 Y121.217
G1 F1200 X140.282 Y183.84 E360.21373
G0 F6000 X140.848 Y183.84
G1 F1200 X77.659 Y120.652 E364.37481
G0 F6000 X77.659 Y120.086
G1 F1200 X141.414 Y183.84 E368.57315
G0 F6000 X141.979 Y183.84
G1 F1200 X77.659 Y119.52 E372.80873
G0 F6000 X77.659 Y118.954
