;FLAVOR:Marlin
;TIME:11469
;Filament used: 11.4281m
;Layer height: 0.28
;MINX:1.5
;MINY:74
;MINZ:0.28
;MAXX:233.5
;MAXY:161
;MAXZ:24.08
;TARGET_MACHINE.NAME:Creality CR-6 SE
;Generated with Cura_SteamEngine 5.8.1
M140 S60
M105
M190 S60
M104 S200
M105
M109 S200
M82 ;absolute extrusion mode
M201 X500.00 Y500.00 Z100.00 E5000.00 ;Setup machine max acceleration
M203 X500.00 Y500.00 Z10.00 E50.00 ;Setup machine max feedrate
M204 P500.00 R1000.00 T500.00 ;Setup Print/Retract/Travel acceleration
M205 X8.00 Y8.00 Z0.40 E5.00 ;Setup Jerk
M220 S100 ;Reset Feedrate
M221 S100 ;Reset Flowrate

G28 ;Home

G92 E0 ;Reset Extruder
G1 Z2.0 F3000 ;Move Z Axis up
G1 X10.1 Y20 Z0.28 F5000.0 ;Move to start position
G1 X10.1 Y200.0 Z0.28 F1500.0 E15 ;Draw the first line
G1 X10.4 Y200.0 Z0.28 F5000.0 ;Move to side a little
G1 X10.4 Y20 Z0.28 F1500.0 E30 ;Draw the second line
G92 E0 ;Reset Extruder
G1 Z2.0 F3000 ;Move Z Axis up

G92 E0
G92 E0
G1 F1500 E-6.5
;LAYER_COUNT:86
;LAYER:0
M107
G0 F6000 X11.016 Y74.111 Z0.28
;TYPE:SKIRT
G1 F1500 E0
G1 F1200 X12.155 Y74.015 E0.05322
G1 X12.812 Y74 E0.08383
G1 X221.804 Y74 E9.81537
G1 X222.684 Y74.013 E9.85635
G1 X223.656 Y74.072 E9.90169
G1 X224.619 Y74.218 E9.94705
G1 X225.566 Y74.449 E9.99244
G1 X226.454 Y74.749 E10.03608
G1 X227.346 Y75.139 E10.08141
G1 X228.229 Y75.626 E10.12837
G1 X228.98 Y76.128 E10.17043
G1 X229.795 Y76.786 E10.2192
G1 X230.493 Y77.464 E10.26452
G1 X231.129 Y78.201 E10.30985
G1 X231.699 Y78.991 E10.35521
G1 X232.161 Y79.767 E10.39726
G1 X232.615 Y80.709 E10.44595
G1 X232.944 Y81.587 E10.48961
G1 X233.213 Y82.559 E10.53657
G1 X233.39 Y83.525 E10.5823
G1 X233.485 Y84.655 E10.63511
G1 X233.5 Y85.33 E10.66654
G1 X233.499 Y101.409 E11.41525
G1 X233.487 Y102.164 E11.45041
G1 X233.379 Y103.513 E11.51343
G1 X233.006 Y106.123 E11.63619
G1 X232.721 Y108.636 E11.75396
G1 X232.499 Y111.196 E11.87361
G1 X232.362 Y113.629 E11.98708
G1 X232.288 Y116.2 E12.10685
G1 X232.286 Y118.711 E12.22377
G1 X232.357 Y121.228 E12.34102
G1 X232.496 Y123.696 E12.45612
G1 X232.712 Y126.273 E12.57654
G1 X232.995 Y128.762 E12.69318
G1 X233.378 Y131.479 E12.82095
G1 X233.485 Y132.735 E12.87964
G1 X233.5 Y133.471 E12.91392
G1 X233.499 Y149.4 E13.65564
G1 X233.488 Y150.163 E13.69118
G1 X233.431 Y151.136 E13.73656
G1 X233.286 Y152.099 E13.78191
G1 X233.057 Y153.045 E13.82723
G1 X232.746 Y153.969 E13.87263
G1 X232.354 Y154.86 E13.91795
G1 X231.886 Y155.712 E13.96322
G1 X231.364 Y156.493 E14.00696
G1 X230.731 Y157.278 E14.05392
G1 X230.106 Y157.929 E14.09594
G1 X229.317 Y158.617 E14.14468
G1 X228.557 Y159.167 E14.18837
G1 X227.69 Y159.684 E14.23537
G1 X226.812 Y160.106 E14.28073
G1 X225.901 Y160.448 E14.32604
G1 X224.962 Y160.709 E14.37142
G1 X223.996 Y160.887 E14.41716
G1 X222.845 Y160.985 E14.47095
G1 X222.17 Y161 E14.50239
G1 X13.064 Y160.999 E24.23924
G1 X12.331 Y160.988 E24.27338
G1 X11.359 Y160.931 E24.31871
G1 X10.396 Y160.785 E24.36407
G1 X9.45 Y160.556 E24.40939
G1 X8.526 Y160.244 E24.4548
G1 X7.636 Y159.852 E24.50008
G1 X6.813 Y159.401 E24.54378
G1 X5.974 Y158.84 E24.59078
G1 X5.27 Y158.274 E24.63284
G1 X4.517 Y157.549 E24.68152
G1 X3.88 Y156.813 E24.72684
G1 X3.35 Y156.082 E24.76888
G1 X2.814 Y155.185 E24.81754
G1 X2.392 Y154.307 E24.8629
G1 X2.05 Y153.395 E24.90826
G1 X1.79 Y152.457 E24.95358
G1 X1.612 Y151.488 E24.99946
G1 X1.514 Y150.309 E25.05454
G1 X1.5 Y149.658 E25.08486
G1 X1.501 Y133.744 E25.82589
G1 X1.514 Y132.981 E25.86142
G1 X1.622 Y131.638 E25.92416
G1 X2.027 Y128.816 E26.05691
G1 X2.306 Y126.363 E26.17187
G1 X2.525 Y123.823 E26.29058
G1 X2.663 Y121.365 E26.40521
G1 X2.737 Y118.795 E26.52493
G1 X2.739 Y116.284 E26.64186
G1 X2.668 Y113.776 E26.75869
G1 X2.528 Y111.295 E26.87439
G1 X2.312 Y108.722 E26.99463
G1 X2.032 Y106.256 E27.11019
G1 X1.778 Y104.416 E27.19668
G1 X1.626 Y103.39 E27.24498
G1 X1.516 Y102.147 E27.30308
G1 X1.502 Y101.549 E27.33094
G1 X1.5 Y85.665 E28.07056
G1 X1.512 Y84.825 E28.10968
G1 X1.57 Y83.852 E28.15507
G1 X1.716 Y82.889 E28.20042
G1 X1.946 Y81.943 E28.24575
G1 X2.259 Y81.02 E28.29114
G1 X2.651 Y80.13 E28.33642
G1 X3.121 Y79.277 E28.38177
G1 X3.664 Y78.469 E28.4271
G1 X4.231 Y77.765 E28.46919
G1 X4.956 Y77.013 E28.51783
G1 X5.692 Y76.376 E28.56316
G1 X6.424 Y75.846 E28.60524
G1 X7.321 Y75.311 E28.65387
G1 X8.199 Y74.89 E28.69921
G1 X9.112 Y74.548 E28.74461
G1 X10.049 Y74.289 E28.78988
G1 X11.016 Y74.111 E28.83566
G0 F6000 X11.05 Y74.51
G1 F1200 X12.189 Y74.414 E28.88888
G1 X12.821 Y74.4 E28.91832
G1 X221.798 Y74.4 E38.64916
G1 X222.66 Y74.412 E38.68931
G1 X223.597 Y74.468 E38.73302
G1 X224.525 Y74.607 E38.77671
G1 X225.438 Y74.828 E38.82045
G1 X226.294 Y75.116 E38.8625
G1 X227.186 Y75.506 E38.90784
G1 X228.007 Y75.959 E38.9515
G1 X228.758 Y76.461 E38.99356
G1 X229.517 Y77.073 E39.03896
G1 X230.191 Y77.726 E39.08266
G1 X230.805 Y78.435 E39.12633
G1 X231.355 Y79.196 E39.17005
G1 X231.817 Y79.972 E39.21211
G1 X232.24 Y80.849 E39.25745
G1 X232.569 Y81.727 E39.3011
G1 X232.82 Y82.632 E39.34484
G1 X232.991 Y83.559 E39.38873
G1 X233.086 Y84.689 E39.44153
G1 X233.1 Y85.33 E39.47139
G1 X233.099 Y101.403 E40.21981
G1 X233.088 Y102.132 E40.25376
G1 X232.983 Y103.456 E40.31561
G1 X232.61 Y106.066 E40.43837
G1 X232.322 Y108.602 E40.55722
G1 X232.101 Y111.162 E40.67687
G1 X231.962 Y113.617 E40.79137
G1 X231.888 Y116.188 E40.91113
G1 X231.886 Y118.711 E41.02861
G1 X231.957 Y121.239 E41.14637
G1 X232.097 Y123.73 E41.26255
G1 X232.314 Y126.307 E41.38297
G1 X232.599 Y128.816 E41.50055
G1 X232.831 Y130.508 E41.58007
G1 X232.979 Y131.513 E41.62738
G1 X233.086 Y132.769 E41.68607
G1 X233.1 Y133.471 E41.71877
G1 X233.099 Y149.395 E42.46025
G1 X233.089 Y150.14 E42.49495
G1 X233.035 Y151.077 E42.53865
G1 X232.897 Y152.006 E42.58238
G1 X232.678 Y152.918 E42.62606
G1 X232.38 Y153.808 E42.66976
G1 X232.003 Y154.668 E42.71349
G1 X231.553 Y155.49 E42.75712
G1 X231.031 Y156.271 E42.80086
G1 X230.442 Y157.001 E42.84454
G1 X229.817 Y157.652 E42.88656
G1 X229.082 Y158.293 E42.93197
G1 X228.322 Y158.843 E42.97566
G1 X227.516 Y159.324 E43.01936
G1 X226.671 Y159.732 E43.06306
G1 X225.793 Y160.063 E43.10675
G1 X224.889 Y160.316 E43.15046
G1 X223.962 Y160.488 E43.19436
G1 X222.811 Y160.586 E43.24815
G1 X222.17 Y160.6 E43.27801
G1 X13.07 Y160.599 E53.01458
G1 X12.354 Y160.589 E53.04792
G1 X11.418 Y160.535 E53.09158
G1 X10.489 Y160.396 E53.13532
G1 X9.577 Y160.177 E53.17899
G1 X8.687 Y159.878 E53.22271
G1 X7.828 Y159.501 E53.26639
G1 X7.005 Y159.05 E53.31009
G1 X6.225 Y158.528 E53.35379
G1 X5.521 Y157.962 E53.39585
G1 X4.819 Y157.287 E53.4412
G1 X4.204 Y156.578 E53.48491
G1 X3.674 Y155.847 E53.52695
G1 X3.174 Y155.011 E53.57231
G1 X2.766 Y154.166 E53.616
G1 X2.435 Y153.288 E53.65969
G1 X2.183 Y152.384 E53.70339
G1 X2.011 Y151.455 E53.74739
G1 X1.913 Y150.276 E53.80247
G1 X1.9 Y149.658 E53.83126
G1 X1.901 Y133.751 E54.57195
G1 X1.913 Y133.013 E54.60632
G1 X2.018 Y131.695 E54.66789
G1 X2.423 Y128.873 E54.80064
G1 X2.705 Y126.397 E54.91668
G1 X2.923 Y123.857 E55.03539
G1 X3.063 Y121.377 E55.15105
G1 X3.137 Y118.807 E55.27077
G1 X3.139 Y116.284 E55.38825
G1 X3.068 Y113.765 E55.50559
G1 X2.927 Y111.261 E55.62237
G1 X2.71 Y108.688 E55.74261
G1 X2.429 Y106.211 E55.85869
G1 X2.174 Y104.361 E55.94565
G1 X2.022 Y103.332 E55.99408
G1 X1.916 Y102.137 E56.04994
G1 X1.902 Y101.549 E56.07733
G1 X1.9 Y85.67 E56.81672
G1 X1.911 Y84.848 E56.855
G1 X1.966 Y83.911 E56.89871
G1 X2.105 Y82.983 E56.9424
G1 X2.325 Y82.071 E56.98609
G1 X2.625 Y81.181 E57.02982
G1 X3.002 Y80.322 E57.0735
G1 X3.453 Y79.5 E57.11716
G1 X3.976 Y78.72 E57.16089
G1 X4.543 Y78.016 E57.20298
G1 X5.218 Y77.315 E57.24829
G1 X5.927 Y76.7 E57.292
G1 X6.659 Y76.17 E57.33408
G1 X7.495 Y75.671 E57.37941
G1 X8.34 Y75.264 E57.42309
G1 X9.219 Y74.933 E57.46682
G1 X10.122 Y74.682 E57.51046
G1 X11.05 Y74.51 E57.55441
G0 F6000 X11.084 Y74.909
G1 F1200 X12.223 Y74.813 E57.60764
G1 X12.83 Y74.8 E57.63591
G1 X221.793 Y74.8 E67.3661
G1 X222.637 Y74.811 E67.4054
G1 X223.539 Y74.864 E67.44748
G1 X224.432 Y74.996 E67.48951
G1 X225.31 Y75.207 E67.53156
G1 X226.166 Y75.495 E67.57361
G1 X226.993 Y75.857 E67.61565
G1 X227.785 Y76.292 E67.65772
G1 X228.536 Y76.794 E67.69979
G1 X229.239 Y77.361 E67.74184
G1 X229.889 Y77.988 E67.78389
G1 X230.481 Y78.67 E67.82595
G1 X231.011 Y79.401 E67.86799
G1 X231.473 Y80.177 E67.91004
G1 X231.866 Y80.99 E67.95209
G1 X232.184 Y81.835 E67.99413
G1 X232.427 Y82.705 E68.03619
G1 X232.592 Y83.593 E68.07825
G1 X232.687 Y84.723 E68.13105
G1 X232.7 Y85.33 E68.15932
G1 X232.699 Y101.397 E68.90747
G1 X232.689 Y102.101 E68.94025
G1 X232.587 Y103.399 E69.00088
G1 X232.214 Y106.009 E69.12365
G1 X231.923 Y108.568 E69.24357
G1 X231.703 Y111.128 E69.36322
G1 X231.562 Y113.605 E69.47874
G1 X231.488 Y116.176 E69.59851
G1 X231.486 Y118.711 E69.71655
G1 X231.557 Y121.25 E69.83482
G1 X231.698 Y123.764 E69.95207
G1 X231.916 Y126.341 E70.07249
G1 X232.203 Y128.87 E70.19101
G1 X232.435 Y130.567 E70.27076
G1 X232.58 Y131.547 E70.31689
G1 X232.687 Y132.803 E70.37559
G1 X232.7 Y133.471 E70.4067
G1 X232.699 Y149.39 E71.14796
G1 X232.69 Y150.117 E71.18181
G1 X232.639 Y151.019 E71.22388
G1 X232.508 Y151.913 E71.26595
G1 X232.299 Y152.791 E71.30798
G1 X232.013 Y153.648 E71.35005
G1 X231.652 Y154.476 E71.39211
G1 X231.22 Y155.268 E71.43412
G1 X230.719 Y156.02 E71.47619
G1 X230.153 Y156.724 E71.51825
G1 X229.528 Y157.375 E71.56028
G1 X228.847 Y157.969 E71.60235
G1 X228.116 Y158.5 E71.64442
G1 X227.342 Y158.964 E71.68645
G1 X226.529 Y159.358 E71.72851
G1 X225.685 Y159.678 E71.77054
G1 X224.815 Y159.923 E71.81263
G1 X223.928 Y160.089 E71.85465
G1 X222.777 Y160.187 E71.90844
G1 X222.17 Y160.2 E71.93671
G1 X13.075 Y160.199 E81.67305
G1 X12.377 Y160.19 E81.70555
G1 X11.476 Y160.139 E81.74757
G1 X10.582 Y160.007 E81.78965
G1 X9.704 Y159.798 E81.83168
G1 X8.847 Y159.511 E81.87376
G1 X8.02 Y159.15 E81.91578
G1 X7.227 Y158.717 E81.95785
G1 X6.476 Y158.216 E81.99989
G1 X5.772 Y157.65 E82.04195
G1 X5.121 Y157.024 E82.08401
G1 X4.528 Y156.343 E82.12605
G1 X3.998 Y155.612 E82.1681
G1 X3.534 Y154.837 E82.21016
G1 X3.14 Y154.024 E82.25223
G1 X2.82 Y153.18 E82.29426
G1 X2.576 Y152.31 E82.33633
G1 X2.41 Y151.422 E82.3784
G1 X2.313 Y150.267 E82.43237
G1 X2.3 Y149.658 E82.46073
G1 X2.301 Y133.757 E83.20115
G1 X2.312 Y133.044 E83.23435
G1 X2.414 Y131.752 E83.2947
G1 X2.819 Y128.93 E83.42745
G1 X3.104 Y126.431 E83.54457
G1 X3.321 Y123.891 E83.66327
G1 X3.463 Y121.389 E83.77996
G1 X3.537 Y118.819 E83.89968
G1 X3.539 Y116.284 E84.01772
G1 X3.468 Y113.754 E84.13558
G1 X3.326 Y111.227 E84.25343
G1 X3.108 Y108.654 E84.37367
G1 X2.826 Y106.166 E84.49026
G1 X2.57 Y104.306 E84.57769
G1 X2.418 Y103.274 E84.62626
G1 X2.316 Y102.127 E84.67988
G1 X2.302 Y101.549 E84.7068
G1 X2.3 Y85.675 E85.44596
G1 X2.31 Y84.871 E85.4834
G1 X2.362 Y83.969 E85.52547
G1 X2.494 Y83.076 E85.56751
G1 X2.704 Y82.198 E85.60954
G1 X2.991 Y81.341 E85.65163
G1 X3.353 Y80.514 E85.69366
G1 X3.786 Y79.722 E85.7357
G1 X4.288 Y78.971 E85.77776
G1 X4.855 Y78.267 E85.81985
G1 X5.481 Y77.617 E85.86187
G1 X6.162 Y77.024 E85.90392
G1 X6.894 Y76.494 E85.946
G1 X7.669 Y76.031 E85.98804
G1 X8.482 Y75.638 E86.03008
G1 X9.327 Y75.318 E86.07216
G1 X10.196 Y75.075 E86.11417
G1 X11.084 Y74.909 E86.15624
G1 F1500 E79.65624
;MESH:tm_aid_x1.stl
G0 F6000 X13.3 Y84.335
G0 X117.5 Y149.4
;TYPE:WALL-INNER
G1 F1500 E86.15624
G1 F1200 X221.9 Y149.4 E91.01754
G1 X221.9 Y133.807 E91.74362
G1 X221.538 Y133.848 E91.76058
G1 X219.135 Y133.84 E91.87247
G1 X218.899 Y133.809 E91.88356
G1 X218.637 Y133.842 E91.89585
G1 X204.681 Y133.844 E92.5457
G1 X204.111 Y133.77 E92.57247
G1 X203.546 Y133.582 E92.60019
G1 X203.063 Y133.358 E92.62499
G1 X202.51 Y132.954 E92.65688
G1 X202.037 Y132.448 E92.68913
G1 X201.723 Y131.945 E92.71674
G1 X201.541 Y131.543 E92.73729
G1 X201.384 Y131.061 E92.76089
G1 X201.305 Y130.456 E92.7893
G1 X201.304 Y104.531 E93.99648
G1 X201.384 Y103.94 E94.02425
G1 X201.549 Y103.425 E94.04943
G1 X201.781 Y102.931 E94.07484
G1 X202.192 Y102.364 E94.10745
G1 X202.679 Y101.902 E94.13871
G1 X203.137 Y101.611 E94.16398
G1 X203.611 Y101.388 E94.18837
G1 X203.971 Y101.272 E94.20598
G1 X204.559 Y101.158 E94.23387
G1 X218.531 Y101.148 E94.88447
G1 X218.902 Y101.187 E94.90184
G1 X219.162 Y101.158 E94.91402
G1 X221.611 Y101.152 E95.02805
G1 X221.9 Y101.188 E95.04161
G1 X221.9 Y85.6 E95.76746
G1 X13.1 Y85.6 E105.49006
G1 X13.1 Y101.148 E106.21404
G1 X15.255 Y101.159 E106.31439
G1 X15.499 Y101.188 E106.32583
G1 X15.749 Y101.159 E106.33755
G1 X43.215 Y101.152 E107.61648
G1 X43.784 Y101.226 E107.6432
G1 X44.291 Y101.389 E107.668
G1 X44.835 Y101.644 E107.69597
G1 X45.385 Y102.045 E107.72767
G1 X45.834 Y102.516 E107.75797
G1 X46.155 Y103.015 E107.78559
G1 X46.346 Y103.422 E107.80653
G1 X46.523 Y103.963 E107.83303
G1 X46.595 Y104.545 E107.86034
G1 X46.591 Y130.488 E109.06836
G1 X46.523 Y131.033 E109.09393
G1 X46.346 Y131.574 E109.12044
G1 X46.096 Y132.097 E109.14743
G1 X45.716 Y132.622 E109.17761
G1 X45.218 Y133.094 E109.20956
G1 X44.729 Y133.407 E109.23659
G1 X44.357 Y133.581 E109.25571
G1 X43.853 Y133.746 E109.28041
G1 X43.337 Y133.842 E109.30485
G1 X15.864 Y133.848 E110.58411
G1 X15.502 Y133.809 E110.60106
G1 X15.249 Y133.841 E110.61293
G1 X13.1 Y133.847 E110.713
G1 X13.1 Y149.4 E111.43721
G1 X117.5 Y149.4 E116.29851
G0 F6000 X117.5 Y149.8
;TYPE:WALL-OUTER
G1 F1200 X222.3 Y149.8 E121.17844
G1 X222.3 Y133.315 E121.94605
G1 X222.114 Y133.375 E121.95515
G1 X221.565 Y133.447 E121.98094
G1 X219.186 Y133.443 E122.09171
G1 X218.899 Y133.406 E122.10519
G1 X218.602 Y133.444 E122.11913
G1 X204.731 Y133.447 E122.76502
G1 X204.199 Y133.38 E122.78999
G1 X203.712 Y133.218 E122.81389
G1 X203.266 Y133.013 E122.83674
G1 X202.762 Y132.642 E122.86588
G1 X202.361 Y132.214 E122.89319
G1 X202.086 Y131.777 E122.91724
G1 X201.921 Y131.419 E122.93559
G1 X201.77 Y130.957 E122.95822
G1 X201.704 Y130.408 E122.98397
G1 X201.705 Y104.53 E124.18896
G1 X201.77 Y104.044 E124.21179
G1 X201.921 Y103.571 E124.23491
G1 X202.132 Y103.123 E124.25797
G1 X202.493 Y102.628 E124.2865
G1 X202.925 Y102.218 E124.31423
G1 X203.349 Y101.95 E124.33759
G1 X203.734 Y101.769 E124.3574
G1 X204.118 Y101.647 E124.37616
G1 X204.597 Y101.556 E124.39886
G1 X218.556 Y101.549 E125.04885
G1 X218.901 Y101.59 E125.06503
G1 X219.195 Y101.556 E125.07881
G1 X221.561 Y101.549 E125.18898
G1 X222.114 Y101.621 E125.21495
G1 X222.3 Y101.681 E125.22405
G1 X222.3 Y85.2 E125.99147
G1 X12.7 Y85.2 E135.75133
G1 X12.7 Y101.547 E136.51251
G1 X15.209 Y101.557 E136.62934
G1 X15.499 Y101.59 E136.64293
G1 X15.791 Y101.557 E136.65662
G1 X43.165 Y101.549 E137.93127
G1 X43.696 Y101.616 E137.95619
G1 X44.167 Y101.769 E137.97925
G1 X44.631 Y101.988 E138.00314
G1 X45.121 Y102.345 E138.03137
G1 X45.526 Y102.772 E138.05877
G1 X45.804 Y103.207 E138.08281
G1 X45.974 Y103.57 E138.10148
G1 X46.134 Y104.058 E138.12539
G1 X46.196 Y104.584 E138.15005
G1 X46.191 Y130.464 E139.35513
G1 X46.132 Y130.947 E139.37779
G1 X45.969 Y131.438 E139.40188
G1 X45.764 Y131.873 E139.42427
G1 X45.407 Y132.368 E139.45269
G1 X44.972 Y132.778 E139.48052
G1 X44.537 Y133.056 E139.50456
G1 X44.189 Y133.218 E139.52244
G1 X43.778 Y133.353 E139.54258
G1 X43.299 Y133.444 E139.56528
G1 X15.84 Y133.447 E140.84389
G1 X15.501 Y133.406 E140.85979
G1 X15.206 Y133.443 E140.87363
G1 X12.7 Y133.447 E140.99032
G1 X12.7 Y149.8 E141.75179
G1 X117.5 Y149.8 E146.63172
G0 F6000 X117.5 Y149.04
;TYPE:SKIN
G1 F1200 X13.46 Y149.04 E151.47625
G1 X13.46 Y134.204 E152.16708
G1 X15.284 Y134.199 E152.25201
G1 X15.506 Y134.17 E152.26244
G1 X15.841 Y134.207 E152.27813
G1 X43.375 Y134.2 E153.56023
G1 X43.909 Y134.101 E153.58552
G1 X44.423 Y133.939 E153.61061
G1 X44.909 Y133.717 E153.63549
G1 X45.44 Y133.374 E153.66493
G1 X45.978 Y132.866 E153.69938
G1 X46.42 Y132.248 E153.73476
G1 X46.683 Y131.699 E153.76311
G1 X46.87 Y131.125 E153.79122
G1 X46.951 Y130.485 E153.82126
G1 X46.956 Y104.551 E155.02885
G1 X46.87 Y103.871 E155.06077
G1 X46.679 Y103.282 E155.0896
G1 X46.472 Y102.843 E155.1122
G1 X46.114 Y102.288 E155.14296
G1 X45.616 Y101.769 E155.17645
G1 X45.004 Y101.327 E155.2116
G1 X44.516 Y101.091 E155.23684
G1 X43.884 Y100.878 E155.2679
G1 X43.214 Y100.789 E155.29937
G1 X15.798 Y100.796 E156.57597
