;FLAVOR:Marlin
;TIME:32576
;Filament used: 32.7835m
;Layer height: 0.28
;MINX:1.5
;MINY:8.5
;MINZ:0.28
;MAXX:233.5
;MAXY:226.5
;MAXZ:19.88
;TARGET_MACHINE.NAME:Creality CR-6 SE
;Generated with Cura_SteamEngine 5.8.1
M140 S60
M105
M190 S60
M104 S200
M105
M109 S200
M82 ;absolute extrusion mode
M201 X500.00 Y500.00 Z100.00 E5000.00 ;Setup machine max acceleration
M203 X500.00 Y500.00 Z10.00 E50.00 ;Setup machine max feedrate
M204 P500.00 R1000.00 T500.00 ;Setup Print/Retract/Travel acceleration
M205 X8.00 Y8.00 Z0.40 E5.00 ;Setup Jerk
M220 S100 ;Reset Feedrate
M221 S100 ;Reset Flowrate

G28 ;Home

G92 E0 ;Reset Extruder
G1 Z2.0 F3000 ;Move Z Axis up
G1 X10.1 Y20 Z0.28 F5000.0 ;Move to start position
G1 X10.1 Y200.0 Z0.28 F1500.0 E15 ;Draw the first line
G1 X10.4 Y200.0 Z0.28 F5000.0 ;Move to side a little
G1 X10.4 Y20 Z0.28 F1500.0 E30 ;Draw the second line
G92 E0 ;Reset Extruder
G1 Z2.0 F3000 ;Move Z Axis up

G92 E0
G92 E0
G1 F1500 E-6.5
;LAYER_COUNT:71
;LAYER:0
M107
G0 F6000 X6.424 Y10.346 Z0.28
;TYPE:SKIRT
G1 F1500 E0
G1 F1200 X7.321 Y9.811 E0.04863
G1 X8.199 Y9.39 E0.09397
G1 X9.112 Y9.048 E0.13937
G1 X10.049 Y8.789 E0.18464
G1 X11.016 Y8.611 E0.23042
G1 X12.155 Y8.515 E0.28365
G1 X12.812 Y8.5 E0.31425
G1 X221.804 Y8.5 E10.04579
G1 X222.684 Y8.513 E10.08677
G1 X223.656 Y8.572 E10.13212
G1 X224.619 Y8.718 E10.17747
G1 X225.566 Y8.949 E10.22286
G1 X226.454 Y9.249 E10.2665
G1 X227.346 Y9.639 E10.31183
G1 X228.229 Y10.126 E10.35879
G1 X228.98 Y10.628 E10.40085
G1 X229.795 Y11.286 E10.44963
G1 X230.493 Y11.964 E10.49494
G1 X231.129 Y12.701 E10.54027
G1 X231.699 Y13.491 E10.58563
G1 X232.161 Y14.267 E10.62768
G1 X232.615 Y15.209 E10.67637
G1 X232.944 Y16.087 E10.72003
G1 X233.213 Y17.059 E10.76699
G1 X233.39 Y18.025 E10.81272
G1 X233.485 Y19.155 E10.86553
G1 X233.5 Y19.83 E10.89697
G1 X233.499 Y214.9 E19.98024
G1 X233.488 Y215.663 E20.01577
G1 X233.431 Y216.636 E20.06116
G1 X233.286 Y217.599 E20.10651
G1 X233.057 Y218.545 E20.15183
G1 X232.746 Y219.469 E20.19722
G1 X232.354 Y220.36 E20.24255
G1 X231.886 Y221.212 E20.28782
G1 X231.364 Y221.993 E20.33156
G1 X230.731 Y222.778 E20.37851
G1 X230.106 Y223.429 E20.42054
G1 X229.317 Y224.117 E20.46928
G1 X228.557 Y224.667 E20.51296
G1 X227.69 Y225.184 E20.55997
G1 X226.812 Y225.606 E20.60533
G1 X225.901 Y225.948 E20.65064
G1 X224.962 Y226.209 E20.69602
G1 X223.996 Y226.387 E20.74176
G1 X222.845 Y226.485 E20.79555
G1 X222.17 Y226.5 E20.82699
G1 X13.064 Y226.499 E30.56384
G1 X12.331 Y226.488 E30.59797
G1 X11.359 Y226.431 E30.64331
G1 X10.396 Y226.285 E30.68867
G1 X9.45 Y226.056 E30.73399
G1 X8.526 Y225.744 E30.7794
G1 X7.636 Y225.352 E30.82468
G1 X6.813 Y224.901 E30.86838
G1 X5.974 Y224.34 E30.91538
G1 X5.27 Y223.774 E30.95744
G1 X4.517 Y223.049 E31.00611
G1 X3.88 Y222.313 E31.05144
G1 X3.35 Y221.582 E31.09348
G1 X2.814 Y220.685 E31.14214
G1 X2.392 Y219.807 E31.1875
G1 X2.05 Y218.895 E31.23285
G1 X1.79 Y217.957 E31.27818
G1 X1.612 Y216.988 E31.32405
G1 X1.514 Y215.809 E31.37914
G1 X1.5 Y215.158 E31.40946
G1 X1.501 Y20.025 E40.49567
G1 X1.512 Y19.325 E40.52827
G1 X1.57 Y18.352 E40.57366
G1 X1.716 Y17.389 E40.61901
G1 X1.946 Y16.443 E40.66434
G1 X2.259 Y15.52 E40.70973
G1 X2.651 Y14.63 E40.75501
G1 X3.121 Y13.777 E40.80036
G1 X3.664 Y12.969 E40.84569
G1 X4.231 Y12.265 E40.88778
G1 X4.956 Y11.513 E40.93642
G1 X5.692 Y10.876 E40.98175
G1 X6.424 Y10.346 E41.02383
G0 F6000 X6.659 Y10.67
G1 F1200 X7.495 Y10.171 E41.06916
G1 X8.34 Y9.764 E41.11284
G1 X9.219 Y9.433 E41.15657
G1 X10.122 Y9.182 E41.20021
G1 X11.05 Y9.01 E41.24416
G1 X12.189 Y8.914 E41.29739
G1 X12.821 Y8.9 E41.32682
G1 X221.798 Y8.9 E51.05767
G1 X222.66 Y8.912 E51.09781
G1 X223.597 Y8.968 E51.14152
G1 X224.525 Y9.107 E51.18521
G1 X225.438 Y9.328 E51.22895
G1 X226.294 Y9.616 E51.27101
G1 X227.186 Y10.006 E51.31634
G1 X228.007 Y10.459 E51.36
G1 X228.758 Y10.961 E51.40206
G1 X229.517 Y11.573 E51.44746
G1 X230.191 Y12.226 E51.49116
G1 X230.805 Y12.935 E51.53483
G1 X231.355 Y13.696 E51.57855
G1 X231.817 Y14.472 E51.62061
G1 X232.24 Y15.349 E51.66595
G1 X232.569 Y16.227 E51.70961
G1 X232.82 Y17.132 E51.75334
G1 X232.991 Y18.059 E51.79723
G1 X233.086 Y19.189 E51.85003
G1 X233.1 Y19.83 E51.87989
G1 X233.099 Y214.895 E60.96293
G1 X233.089 Y215.64 E60.99763
G1 X233.035 Y216.577 E61.04133
G1 X232.897 Y217.506 E61.08506
G1 X232.678 Y218.418 E61.12874
G1 X232.38 Y219.308 E61.17244
G1 X232.003 Y220.168 E61.21616
G1 X231.553 Y220.99 E61.2598
G1 X231.031 Y221.771 E61.30354
G1 X230.442 Y222.501 E61.34722
G1 X229.817 Y223.152 E61.38924
G1 X229.082 Y223.793 E61.43465
G1 X228.322 Y224.343 E61.47833
G1 X227.516 Y224.824 E61.52204
G1 X226.671 Y225.232 E61.56573
G1 X225.793 Y225.563 E61.60943
G1 X224.889 Y225.816 E61.65314
G1 X223.962 Y225.988 E61.69704
G1 X222.811 Y226.086 E61.75083
G1 X222.17 Y226.1 E61.78068
G1 X13.07 Y226.099 E71.51725
G1 X12.354 Y226.089 E71.5506
G1 X11.418 Y226.035 E71.59425
G1 X10.489 Y225.896 E71.63799
G1 X9.577 Y225.677 E71.68167
G1 X8.687 Y225.378 E71.72539
G1 X7.828 Y225.001 E71.76907
G1 X7.005 Y224.55 E71.81277
G1 X6.225 Y224.028 E71.85647
G1 X5.521 Y223.462 E71.89853
G1 X4.819 Y222.787 E71.94388
G1 X4.204 Y222.078 E71.98758
G1 X3.674 Y221.347 E72.02963
G1 X3.174 Y220.511 E72.07499
G1 X2.766 Y219.666 E72.11868
G1 X2.435 Y218.788 E72.16237
G1 X2.183 Y217.884 E72.20607
G1 X2.011 Y216.955 E72.25006
G1 X1.913 Y215.776 E72.30515
G1 X1.9 Y215.158 E72.33393
G1 X1.901 Y20.031 E81.41986
G1 X1.911 Y19.348 E81.45167
G1 X1.966 Y18.411 E81.49538
G1 X2.105 Y17.483 E81.53907
G1 X2.325 Y16.571 E81.58276
G1 X2.625 Y15.681 E81.62649
G1 X3.002 Y14.822 E81.67017
G1 X3.453 Y14 E81.71383
G1 X3.976 Y13.22 E81.75756
G1 X4.543 Y12.516 E81.79965
G1 X5.218 Y11.815 E81.84496
G1 X5.927 Y11.2 E81.88867
G1 X6.659 Y10.67 E81.93075
G0 F6000 X6.894 Y10.994
G1 F1200 X7.669 Y10.531 E81.97278
G1 X8.482 Y10.138 E82.01483
G1 X9.327 Y9.818 E82.05691
G1 X10.196 Y9.575 E82.09892
G1 X11.084 Y9.409 E82.14099
G1 X12.223 Y9.313 E82.19421
G1 X12.83 Y9.3 E82.22248
G1 X221.793 Y9.3 E91.95268
G1 X222.637 Y9.311 E91.99198
G1 X223.539 Y9.364 E92.03405
G1 X224.432 Y9.496 E92.07609
G1 X225.31 Y9.707 E92.11813
G1 X226.166 Y9.995 E92.16019
G1 X226.993 Y10.357 E92.20222
G1 X227.785 Y10.792 E92.2443
G1 X228.536 Y11.294 E92.28636
G1 X229.239 Y11.861 E92.32842
G1 X229.889 Y12.488 E92.37047
G1 X230.481 Y13.17 E92.41252
G1 X231.011 Y13.901 E92.45457
G1 X231.473 Y14.677 E92.49662
G1 X231.866 Y15.49 E92.53867
G1 X232.184 Y16.335 E92.58071
G1 X232.427 Y17.205 E92.62277
G1 X232.592 Y18.093 E92.66483
G1 X232.687 Y19.223 E92.71763
G1 X232.7 Y19.83 E92.7459
G1 X232.699 Y214.89 E101.82871
G1 X232.69 Y215.617 E101.86257
G1 X232.639 Y216.519 E101.90463
G1 X232.508 Y217.413 E101.94671
G1 X232.299 Y218.291 E101.98873
G1 X232.013 Y219.148 E102.0308
G1 X231.652 Y219.976 E102.07286
G1 X231.22 Y220.768 E102.11487
G1 X230.719 Y221.52 E102.15694
G1 X230.153 Y222.224 E102.19901
G1 X229.528 Y222.875 E102.24103
G1 X228.847 Y223.469 E102.28311
G1 X228.116 Y224 E102.32518
G1 X227.342 Y224.464 E102.3672
G1 X226.529 Y224.858 E102.40927
G1 X225.685 Y225.178 E102.4513
G1 X224.815 Y225.423 E102.49338
G1 X223.928 Y225.589 E102.5354
G1 X222.777 Y225.687 E102.58919
G1 X222.17 Y225.7 E102.61746
G1 X13.075 Y225.699 E112.3538
G1 X12.377 Y225.69 E112.38631
G1 X11.476 Y225.639 E112.42833
G1 X10.582 Y225.507 E112.47041
G1 X9.704 Y225.298 E112.51243
G1 X8.847 Y225.011 E112.55452
G1 X8.02 Y224.65 E112.59654
G1 X7.227 Y224.217 E112.63861
G1 X6.476 Y223.716 E112.68064
G1 X5.772 Y223.15 E112.72271
G1 X5.121 Y222.524 E112.76476
G1 X4.528 Y221.843 E112.80681
G1 X3.998 Y221.112 E112.84885
G1 X3.534 Y220.337 E112.89091
G1 X3.14 Y219.524 E112.93298
G1 X2.82 Y218.68 E112.97501
G1 X2.576 Y217.81 E113.01708
G1 X2.41 Y216.922 E113.05915
G1 X2.313 Y215.767 E113.11312
G1 X2.3 Y215.158 E113.14148
G1 X2.301 Y20.036 E122.22718
G1 X2.31 Y19.371 E122.25815
G1 X2.362 Y18.469 E122.30022
G1 X2.494 Y17.576 E122.34225
G1 X2.704 Y16.698 E122.38429
G1 X2.991 Y15.841 E122.42637
G1 X3.353 Y15.014 E122.46841
G1 X3.786 Y14.222 E122.51044
G1 X4.288 Y13.471 E122.5525
G1 X4.855 Y12.767 E122.59459
G1 X5.481 Y12.117 E122.63662
G1 X6.162 Y11.524 E122.67866
G1 X6.894 Y10.994 E122.72074
G1 F1500 E116.22074
;MESH:tm_coins_x1.stl
G0 F6000 X13.3 Y18.835
G0 X117.5 Y214.9
;TYPE:WALL-INNER
G1 F1500 E122.72074
G1 F1200 X221.9 Y214.9 E127.58205
G1 X221.9 Y20.1 E136.65275
G1 X13.1 Y20.1 E146.37535
G1 X13.1 Y214.9 E155.44606
G1 X117.5 Y214.9 E160.30736
G0 F6000 X117.5 Y215.3
;TYPE:WALL-OUTER
G1 F1200 X222.3 Y215.3 E165.18729
G1 X222.3 Y19.7 E174.29524
G1 X12.7 Y19.7 E184.05509
G1 X12.7 Y215.3 E193.16305
G1 X117.5 Y215.3 E198.04298
G0 F6000 X117.5 Y214.54
;TYPE:SKIN
G1 F1200 X13.46 Y214.54 E202.88752
G1 X13.46 Y20.46 E211.92469
G1 X221.54 Y20.46 E221.61377
G1 X221.54 Y214.54 E230.65095
G1 X117.5 Y214.54 E235.49549
G1 F1500 E228.99549
G0 F6000 X117.5 Y214.8
G0 X13.272 Y214.728
G0 X13.2 Y213.913
G0 X13.66 Y213.913
G1 F1500 E235.49549
G1 F1200 X14.087 Y214.34 E235.5236
G0 F6000 X14.653 Y214.34
G1 F1200 X13.66 Y213.347 E235.58899
G0 F6000 X13.66 Y212.781
G1 F1200 X15.218 Y214.34 E235.69162
G0 F6000 X15.784 Y214.34
G1 F1200 X13.66 Y212.215 E235.83153
G0 F6000 X13.66 Y211.65
G1 F1200 X16.35 Y214.34 E236.00867
G0 F6000 X16.915 Y214.34
G1 F1200 X13.66 Y211.084 E236.22305
G0 F6000 X13.66 Y210.518
G1 F1200 X17.481 Y214.34 E236.4747
G0 F6000 X18.047 Y214.34
G1 F1200 X13.66 Y209.953 E236.76359
G0 F6000 X13.66 Y209.387
G1 F1200 X18.612 Y214.34 E237.08972
G0 F6000 X19.178 Y214.34
G1 F1200 X13.66 Y208.821 E237.45312
G0 F6000 X13.66 Y208.256
G1 F1200 X19.744 Y214.34 E237.85377
G0 F6000 X20.31 Y214.34
G1 F1200 X13.66 Y207.69 E238.29168
G0 F6000 X13.66 Y207.124
G1 F1200 X20.875 Y214.34 E238.76683
G0 F6000 X21.441 Y214.34
G1 F1200 X13.66 Y206.559 E239.27923
G0 F6000 X13.66 Y205.993
G1 F1200 X22.007 Y214.34 E239.82889
G0 F6000 X22.572 Y214.34
G1 F1200 X13.66 Y205.427 E240.41579
G0 F6000 X13.66 Y204.862
G1 F1200 X23.138 Y214.34 E241.03994
G0 F6000 X23.704 Y214.34
G1 F1200 X13.66 Y204.296 E241.70135
G0 F6000 X13.66 Y203.73
G1 F1200 X24.269 Y214.34 E242.4
G0 F6000 X24.835 Y214.34
G1 F1200 X13.66 Y203.165 E243.1359
G0 F6000 X13.66 Y202.599
G1 F1200 X25.401 Y214.34 E243.90906
G0 F6000 X25.966 Y214.34
G1 F1200 X13.66 Y202.033 E244.71947
G0 F6000 X13.66 Y201.467
G1 F1200 X26.532 Y214.34 E245.56714
G0 F6000 X27.098 Y214.34
G1 F1200 X13.66 Y200.902 E246.45206
G0 F6000 X13.66 Y200.336
G1 F1200 X27.663 Y214.34 E247.37421
G0 F6000 X28.229 Y214.34
G1 F1200 X13.66 Y199.77 E248.33364
G0 F6000 X13.66 Y199.205
G1 F1200 X28.795 Y214.34 E249.3303
G0 F6000 X29.36 Y214.34
G1 F1200 X13.66 Y198.639 E250.36421
G0 F6000 X13.66 Y198.073
G1 F1200 X29.926 Y214.34 E251.43539
G0 F6000 X30.492 Y214.34
G1 F1200 X13.66 Y197.508 E252.5438
G0 F6000 X13.66 Y196.942
G1 F1200 X31.058 Y214.34 E253.68949
G0 F6000 X31.623 Y214.34
G1 F1200 X13.66 Y196.376 E254.87242
G0 F6000 X13.66 Y195.811
G1 F1200 X32.189 Y214.34 E256.09258
G0 F6000 X32.755 Y214.34
G1 F1200 X13.66 Y195.245 E257.35002
G0 F6000 X13.66 Y194.679
G1 F1200 X33.32 Y214.34 E258.6447
G0 F6000 X33.886 Y214.34
G1 F1200 X13.66 Y194.114 E259.97662
G0 F6000 X13.66 Y193.548
G1 F1200 X34.452 Y214.34 E261.3458
G0 F6000 X35.017 Y214.34
G1 F1200 X13.66 Y192.982 E262.75223
G0 F6000 X13.66 Y192.416
G1 F1200 X35.583 Y214.34 E264.19593
G0 F6000 X36.149 Y214.34
G1 F1200 X13.66 Y191.851 E265.67687
G0 F6000 X13.66 Y191.285
G1 F1200 X36.714 Y214.34 E267.19505
G0 F6000 X37.28 Y214.34
G1 F1200 X13.66 Y190.719 E268.7505
G0 F6000 X13.66 Y190.154
G1 F1200 X37.846 Y214.34 E270.34319
G0 F6000 X38.411 Y214.34
G1 F1200 X13.66 Y189.588 E271.97312
G0 F6000 X13.66 Y189.022
G1 F1200 X38.977 Y214.34 E273.64032
G0 F6000 X39.543 Y214.34
G1 F1200 X13.66 Y188.457 E275.34476
G0 F6000 X13.66 Y187.891
G1 F1200 X40.109 Y214.34 E277.08647
G0 F6000 X40.674 Y214.34
G1 F1200 X13.66 Y187.325 E278.86542
G0 F6000 X13.66 Y186.76
G1 F1200 X41.24 Y214.34 E280.68161
G0 F6000 X41.806 Y214.34
G1 F1200 X13.66 Y186.194 E282.53507
G0 F6000 X13.66 Y185.628
G1 F1200 X42.371 Y214.34 E284.42577
G0 F6000 X42.937 Y214.34
G1 F1200 X13.66 Y185.063 E286.35371
G0 F6000 X13.66 Y184.497
G1 F1200 X43.503 Y214.34 E288.31893
G0 F6000 X44.068 Y214.34
G1 F1200 X13.66 Y183.931 E290.32138
G0 F6000 X13.66 Y183.366
G1 F1200 X44.634 Y214.34 E292.36107
G0 F6000 X45.2 Y214.34
G1 F1200 X13.66 Y182.8 E294.43803
G0 F6000 X13.66 Y182.234
G1 F1200 X45.765 Y214.34 E296.55223
G0 F6000 X46.331 Y214.34
G1 F1200 X13.66 Y181.668 E298.70371
G0 F6000 X13.66 Y181.103
G1 F1200 X46.897 Y214.34 E300.89242
G0 F6000 X47.462 Y214.34
G1 F1200 X13.66 Y180.537 E303.11837
G0 F6000 X13.66 Y179.971
G1 F1200 X48.028 Y214.34 E305.3816
G0 F6000 X48.594 Y214.34
G1 F1200 X13.66 Y179.406 E307.68206
G0 F6000 X13.66 Y178.84
G1 F1200 X49.159 Y214.34 E310.01976
G0 F6000 X49.725 Y214.34
G1 F1200 X13.66 Y178.274 E312.39474
G0 F6000 X13.66 Y177.709
G1 F1200 X50.291 Y214.34 E314.80695
G0 F6000 X50.857 Y214.34
G1 F1200 X13.66 Y177.143 E317.25644
G0 F6000 X13.66 Y176.577
G1 F1200 X51.422 Y214.34 E319.74316
G0 F6000 X51.988 Y214.34
G1 F1200 X13.66 Y176.012 E322.26713
G0 F6000 X13.66 Y175.446
G1 F1200 X52.554 Y214.34 E324.82836
G0 F6000 X53.119 Y214.34
G1 F1200 X13.66 Y174.88 E327.42684
G0 F6000 X13.66 Y174.315
G1 F1200 X53.685 Y214.34 E330.06255
G0 F6000 X54.251 Y214.34
G1 F1200 X13.66 Y173.749 E332.73554
G0 F6000 X13.66 Y173.183
G1 F1200 X54.816 Y214.34 E335.44577
G0 F6000 X55.382 Y214.34
G1 F1200 X13.66 Y172.617 E338.19326
G0 F6000 X13.66 Y172.052
G1 F1200 X55.948 Y214.34 E340.978
G0 F6000 X56.513 Y214.34
G1 F1200 X13.66 Y171.486 E343.79998
G0 F6000 X13.66 Y170.92
G1 F1200 X57.079 Y214.34 E346.65923
G0 F6000 X57.645 Y214.34
G1 F1200 X13.66 Y170.355 E349.55571
G0 F6000 X13.66 Y169.789
G1 F1200 X58.21 Y214.34 E352.48944
G0 F6000 X58.776 Y214.34
G1 F1200 X13.66 Y169.223 E355.46044
G0 F6000 X13.66 Y168.658
G1 F1200 X59.342 Y214.34 E358.46868
G0 F6000 X59.908 Y214.34
G1 F1200 X13.66 Y168.092 E361.51419
G0 F6000 X13.66 Y167.526
G1 F1200 X60.473 Y214.34 E364.59694
G0 F6000 X61.039 Y214.34
G1 F1200 X13.66 Y166.961 E367.71692
G0 F6000 X13.66 Y166.395
G1 F1200 X61.605 Y214.34 E370.87418
G0 F6000 X62.17 Y214.34
G1 F1200 X13.66 Y165.829 E374.06868
G0 F6000 X13.66 Y165.264
G1 F1200 X62.736 Y214.34 E377.30042
G0 F6000 X63.302 Y214.34
G1 F1200 X13.66 Y164.698 E380.56943
G0 F6000 X13.66 Y164.132
G1 F1200 X63.867 Y214.34 E383.87568
G0 F6000 X64.433 Y214.34
G1 F1200 X13.66 Y163.567 E387.21917
G0 F6000 X13.66 Y163.001
G1 F1200 X64.999 Y214.34 E390.59993
G0 F6000 X65.564 Y214.34
G1 F1200 X13.66 Y162.435 E394.01793
G0 F6000 X13.66 Y161.869
G1 F1200 X66.13 Y214.34 E397.4732
G0 F6000 X66.696 Y214.34
G1 F1200 X13.66 Y161.304 E400.96571
G0 F6000 X13.66 Y160.738
G1 F1200 X67.261 Y214.34 E404.49546
G0 F6000 X67.827 Y214.34
G1 F1200 X13.66 Y160.172 E408.06249
G0 F6000 X13.66 Y159.607
G1 F1200 X68.393 Y214.34 E411.66675
G0 F6000 X68.958 Y214.34
G1 F1200 X13.66 Y159.041 E415.30825
G0 F6000 X13.66 Y158.475
G1 F1200 X69.524 Y214.34 E418.98702
G0 F6000 X70.09 Y214.34
G1 F1200 X13.66 Y157.91 E422.70303
G0 F6000 X13.66 Y157.344
G1 F1200 X70.656 Y214.34 E426.45632
G0 F6000 X71.221 Y214.34
G1 F1200 X13.66 Y156.778 E430.24684
G0 F6000 X13.66 Y156.213
G1 F1200 X71.787 Y214.34 E434.0746
G0 F6000 X72.353 Y214.34
G1 F1200 X13.66 Y155.647 E437.93964
G0 F6000 X13.66 Y155.081
G1 F1200 X72.918 Y214.34 E441.84191
G0 F6000 X73.484 Y214.34
G1 F1200 X13.66 Y154.516 E445.78142
G0 F6000 X13.66 Y153.95
G1 F1200 X74.05 Y214.34 E449.75821
G0 F6000 X74.615 Y214.34
G1 F1200 X13.66 Y153.384 E453.77223
G0 F6000 X13.66 Y152.819
G1 F1200 X75.181 Y214.34 E457.82349
G0 F6000 X75.747 Y214.34
G1 F1200 X13.66 Y152.253 E461.91203
G0 F6000 X13.66 Y151.687
G1 F1200 X76.312 Y214.34 E466.0378
G0 F6000 X76.878 Y214.34
G1 F1200 X13.66 Y151.121 E470.20085
G0 F6000 X13.66 Y150.556
G1 F1200 X77.444 Y214.34 E474.40113
G0 F6000 X78.009 Y214.34
G1 F1200 X13.66 Y149.99 E478.63866
G0 F6000 X13.66 Y149.424
G1 F1200 X78.575 Y214.34 E482.91346
G0 F6000 X79.141 Y214.34
G1 F1200 X13.66 Y148.859 E487.22549
G0 F6000 X13.66 Y148.293
G1 F1200 X79.706 Y214.34 E491.57477
G0 F6000 X80.272 Y214.34
G1 F1200 X13.66 Y147.727 E495.96131
