;FLAVOR:Marlin
;TIME:22841
;Filament used: 22.8686m
;Layer height: 0.28
;MINX:1.5
;MINY:43.5
;MINZ:0.28
;MAXX:233.5
;MAXY:191.5
;MAXZ:19.88
;TARGET_MACHINE.NAME:Creality CR-6 SE
;Generated with Cura_SteamEngine 5.8.1
M140 S60
M105
M190 S60
M104 S200
M105
M109 S200
M82 ;absolute extrusion mode
M201 X500.00 Y500.00 Z100.00 E5000.00 ;Setup machine max acceleration
M203 X500.00 Y500.00 Z10.00 E50.00 ;Setup machine max feedrate
M204 P500.00 R1000.00 T500.00 ;Setup Print/Retract/Travel acceleration
M205 X8.00 Y8.00 Z0.40 E5.00 ;Setup Jerk
M220 S100 ;Reset Feedrate
M221 S100 ;Reset Flowrate

G28 ;Home

G92 E0 ;Reset Extruder
G1 Z2.0 F3000 ;Move Z Axis up
G1 X10.1 Y20 Z0.28 F5000.0 ;Move to start position
G1 X10.1 Y200.0 Z0.28 F1500.0 E15 ;Draw the first line
G1 X10.4 Y200.0 Z0.28 F5000.0 ;Move to side a little
G1 X10.4 Y20 Z0.28 F1500.0 E30 ;Draw the second line
G92 E0 ;Reset Extruder
G1 Z2.0 F3000 ;Move Z Axis up

G92 E0
G92 E0
G1 F1500 E-6.5
;LAYER_COUNT:71
;LAYER:0
M107
G0 F6000 X10.049 Y43.789 Z0.28
;TYPE:SKIRT
G1 F1500 E0
G1 F1200 X11.016 Y43.611 E0.04578
G1 X12.155 Y43.515 E0.09901
G1 X12.812 Y43.5 E0.12961
G1 X221.804 Y43.5 E9.86115
G1 X222.684 Y43.513 E9.90213
G1 X223.656 Y43.572 E9.94748
G1 X224.619 Y43.718 E9.99283
G1 X225.566 Y43.949 E10.03822
G1 X226.454 Y44.249 E10.08186
G1 X227.346 Y44.639 E10.1272
G1 X228.229 Y45.126 E10.17415
G1 X228.98 Y45.628 E10.21621
G1 X229.795 Y46.286 E10.26499
G1 X230.493 Y46.964 E10.3103
G1 X231.129 Y47.701 E10.35563
G1 X231.699 Y48.491 E10.40099
G1 X232.161 Y49.267 E10.44304
G1 X232.615 Y50.209 E10.49174
G1 X232.944 Y51.087 E10.53539
G1 X233.213 Y52.059 E10.58236
G1 X233.39 Y53.025 E10.62809
G1 X233.485 Y54.155 E10.68089
G1 X233.5 Y54.83 E10.71233
G1 X233.499 Y179.9 E16.53611
G1 X233.488 Y180.663 E16.57164
G1 X233.431 Y181.636 E16.61703
G1 X233.286 Y182.599 E16.66237
G1 X233.057 Y183.545 E16.7077
G1 X232.746 Y184.469 E16.75309
G1 X232.354 Y185.36 E16.79842
G1 X231.886 Y186.212 E16.84368
G1 X231.364 Y186.993 E16.88743
G1 X230.731 Y187.778 E16.93438
G1 X230.106 Y188.429 E16.9764
G1 X229.317 Y189.117 E17.02515
G1 X228.557 Y189.667 E17.06883
G1 X227.69 Y190.184 E17.11584
G1 X226.812 Y190.606 E17.1612
G1 X225.901 Y190.948 E17.20651
G1 X224.962 Y191.209 E17.25189
G1 X223.996 Y191.387 E17.29763
G1 X222.845 Y191.485 E17.35142
G1 X222.17 Y191.5 E17.38286
G1 X13.064 Y191.499 E27.11971
G1 X12.331 Y191.488 E27.15384
G1 X11.359 Y191.431 E27.19918
G1 X10.396 Y191.285 E27.24453
G1 X9.45 Y191.056 E27.28986
G1 X8.526 Y190.744 E27.33527
G1 X7.636 Y190.352 E27.38055
G1 X6.813 Y189.901 E27.42425
G1 X5.974 Y189.34 E27.47125
G1 X5.27 Y188.774 E27.51331
G1 X4.517 Y188.049 E27.56198
G1 X3.88 Y187.313 E27.60731
G1 X3.35 Y186.582 E27.64935
G1 X2.814 Y185.685 E27.69801
G1 X2.392 Y184.807 E27.74337
G1 X2.05 Y183.895 E27.78872
G1 X1.79 Y182.957 E27.83405
G1 X1.612 Y181.988 E27.87992
G1 X1.514 Y180.809 E27.93501
G1 X1.5 Y180.158 E27.96533
G1 X1.501 Y55.025 E33.79205
G1 X1.512 Y54.325 E33.82465
G1 X1.57 Y53.352 E33.87003
G1 X1.716 Y52.389 E33.91539
G1 X1.946 Y51.443 E33.96072
G1 X2.259 Y50.52 E34.0061
G1 X2.651 Y49.63 E34.05139
G1 X3.121 Y48.777 E34.09674
G1 X3.664 Y47.969 E34.14207
G1 X4.231 Y47.265 E34.18416
G1 X4.956 Y46.513 E34.2328
G1 X5.692 Y45.876 E34.27812
G1 X6.424 Y45.346 E34.3202
G1 X7.321 Y44.811 E34.36884
G1 X8.199 Y44.39 E34.41418
G1 X9.112 Y44.048 E34.45957
G1 X10.049 Y43.789 E34.50484
G0 F6000 X10.122 Y44.182
G1 F1200 X11.05 Y44.01 E34.54879
G1 X12.189 Y43.914 E34.60201
G1 X12.821 Y43.9 E34.63145
G1 X221.798 Y43.9 E44.36229
G1 X222.66 Y43.912 E44.40244
G1 X223.597 Y43.968 E44.44614
G1 X224.525 Y44.107 E44.48984
G1 X225.438 Y44.328 E44.53358
G1 X226.294 Y44.616 E44.57563
G1 X227.186 Y45.006 E44.62097
G1 X228.007 Y45.459 E44.66463
G1 X228.758 Y45.961 E44.70669
G1 X229.517 Y46.573 E44.75209
G1 X230.191 Y47.226 E44.79579
G1 X230.805 Y47.935 E44.83946
G1 X231.355 Y48.696 E44.88318
G1 X231.817 Y49.472 E44.92524
G1 X232.24 Y50.349 E44.97057
G1 X232.569 Y51.227 E45.01423
G1 X232.82 Y52.132 E45.05797
G1 X232.991 Y53.059 E45.10186
G1 X233.086 Y54.189 E45.15466
G1 X233.1 Y54.83 E45.18452
G1 X233.099 Y179.895 E51.00807
G1 X233.089 Y180.64 E51.04276
G1 X233.035 Y181.577 E51.08646
G1 X232.897 Y182.506 E51.1302
G1 X232.678 Y183.418 E51.17387
G1 X232.38 Y184.308 E51.21757
G1 X232.003 Y185.168 E51.2613
G1 X231.553 Y185.99 E51.30493
G1 X231.031 Y186.771 E51.34868
G1 X230.442 Y187.501 E51.39235
G1 X229.817 Y188.152 E51.43437
G1 X229.082 Y188.793 E51.47979
G1 X228.322 Y189.343 E51.52347
G1 X227.516 Y189.824 E51.56718
G1 X226.671 Y190.232 E51.61087
G1 X225.793 Y190.563 E51.65456
G1 X224.889 Y190.816 E51.69827
G1 X223.962 Y190.988 E51.74217
G1 X222.811 Y191.086 E51.79596
G1 X222.17 Y191.1 E51.82582
G1 X13.07 Y191.099 E61.56239
G1 X12.354 Y191.089 E61.59573
G1 X11.418 Y191.035 E61.63939
G1 X10.489 Y190.896 E61.68313
G1 X9.577 Y190.677 E61.7268
G1 X8.687 Y190.378 E61.77052
G1 X7.828 Y190.001 E61.8142
G1 X7.005 Y189.55 E61.8579
G1 X6.225 Y189.028 E61.9016
G1 X5.521 Y188.462 E61.94367
G1 X4.819 Y187.787 E61.98901
G1 X4.204 Y187.078 E62.03272
G1 X3.674 Y186.347 E62.07476
G1 X3.174 Y185.511 E62.12012
G1 X2.766 Y184.666 E62.16381
G1 X2.435 Y183.788 E62.20751
G1 X2.183 Y182.884 E62.2512
G1 X2.011 Y181.955 E62.2952
G1 X1.913 Y180.776 E62.35029
G1 X1.9 Y180.158 E62.37907
G1 X1.901 Y55.031 E68.20551
G1 X1.911 Y54.348 E68.23731
G1 X1.966 Y53.411 E68.28102
G1 X2.105 Y52.483 E68.32471
G1 X2.325 Y51.571 E68.3684
G1 X2.625 Y50.681 E68.41213
G1 X3.002 Y49.822 E68.45581
G1 X3.453 Y49 E68.49947
G1 X3.976 Y48.22 E68.5432
G1 X4.543 Y47.516 E68.58529
G1 X5.218 Y46.815 E68.6306
G1 X5.927 Y46.2 E68.67431
G1 X6.659 Y45.67 E68.71639
G1 X7.495 Y45.171 E68.76172
G1 X8.34 Y44.764 E68.8054
G1 X9.219 Y44.433 E68.84913
G1 X10.122 Y44.182 E68.89277
G0 F6000 X10.196 Y44.575
G1 F1200 X11.084 Y44.409 E68.93484
G1 X12.223 Y44.313 E68.98806
G1 X12.83 Y44.3 E69.01634
G1 X221.793 Y44.3 E78.74653
G1 X222.637 Y44.311 E78.78583
G1 X223.539 Y44.364 E78.8279
G1 X224.432 Y44.496 E78.86994
G1 X225.31 Y44.707 E78.91199
G1 X226.166 Y44.995 E78.95404
G1 X226.993 Y45.357 E78.99608
G1 X227.785 Y45.792 E79.03815
G1 X228.536 Y46.294 E79.08021
G1 X229.239 Y46.861 E79.12227
G1 X229.889 Y47.488 E79.16432
G1 X230.481 Y48.17 E79.20637
G1 X231.011 Y48.901 E79.24842
G1 X231.473 Y49.677 E79.29047
G1 X231.866 Y50.49 E79.33252
G1 X232.184 Y51.335 E79.37456
G1 X232.427 Y52.205 E79.41662
G1 X232.592 Y53.093 E79.45868
G1 X232.687 Y54.223 E79.51148
G1 X232.7 Y54.83 E79.53975
G1 X232.699 Y179.89 E85.36307
G1 X232.69 Y180.617 E85.39692
G1 X232.639 Y181.519 E85.43899
G1 X232.508 Y182.413 E85.48107
G1 X232.299 Y183.291 E85.52309
G1 X232.013 Y184.148 E85.56516
G1 X231.652 Y184.976 E85.60722
G1 X231.22 Y185.768 E85.64923
G1 X230.719 Y186.52 E85.6913
G1 X230.153 Y187.224 E85.73337
G1 X229.528 Y187.875 E85.77539
G1 X228.847 Y188.469 E85.81747
G1 X228.116 Y189 E85.85954
G1 X227.342 Y189.464 E85.90156
G1 X226.529 Y189.858 E85.94363
G1 X225.685 Y190.178 E85.98566
G1 X224.815 Y190.423 E86.02774
G1 X223.928 Y190.589 E86.06976
G1 X222.777 Y190.687 E86.12355
G1 X222.17 Y190.7 E86.15182
G1 X13.075 Y190.699 E95.88816
G1 X12.377 Y190.69 E95.92067
G1 X11.476 Y190.639 E95.96269
G1 X10.582 Y190.507 E96.00477
G1 X9.704 Y190.298 E96.04679
G1 X8.847 Y190.011 E96.08888
G1 X8.02 Y189.65 E96.13089
G1 X7.227 Y189.217 E96.17297
G1 X6.476 Y188.716 E96.215
G1 X5.772 Y188.15 E96.25706
G1 X5.121 Y187.524 E96.29912
G1 X4.528 Y186.843 E96.34117
G1 X3.998 Y186.112 E96.38321
G1 X3.534 Y185.337 E96.42527
G1 X3.14 Y184.524 E96.46734
G1 X2.82 Y183.68 E96.50937
G1 X2.576 Y182.81 E96.55144
G1 X2.41 Y181.922 E96.59351
G1 X2.313 Y180.767 E96.64748
G1 X2.3 Y180.158 E96.67584
G1 X2.301 Y55.036 E102.50205
G1 X2.31 Y54.371 E102.53302
G1 X2.362 Y53.469 E102.57509
G1 X2.494 Y52.576 E102.61712
G1 X2.704 Y51.698 E102.65916
G1 X2.991 Y50.841 E102.70124
G1 X3.353 Y50.014 E102.74328
G1 X3.786 Y49.222 E102.78531
G1 X4.288 Y48.471 E102.82737
G1 X4.855 Y47.767 E102.86946
G1 X5.481 Y47.117 E102.91148
G1 X6.162 Y46.524 E102.95353
G1 X6.894 Y45.994 E102.99561
G1 X7.669 Y45.531 E103.03765
G1 X8.482 Y45.138 E103.07969
G1 X9.327 Y44.818 E103.12177
G1 X10.196 Y44.575 E103.16379
G1 F1500 E96.66379
;MESH:tm_coins_x1.stl
G0 F6000 X13.3 Y53.835
G0 X117.5 Y179.9
;TYPE:WALL-INNER
G1 F1500 E103.16379
G1 F1200 X221.9 Y179.9 E108.02509
G1 X221.9 Y55.1 E113.8363
G1 X13.1 Y55.1 E123.5589
G1 X13.1 Y179.9 E129.37011
G1 X117.5 Y179.9 E134.23141
G0 F6000 X117.5 Y180.3
;TYPE:WALL-OUTER
G1 F1200 X222.3 Y180.3 E139.11134
G1 X222.3 Y54.7 E144.9598
G1 X12.7 Y54.7 E154.71966
G1 X12.7 Y180.3 E160.56812
G1 X117.5 Y180.3 E165.44804
G0 F6000 X117.5 Y179.54
;TYPE:SKIN
G1 F1200 X13.46 Y179.54 E170.29258
G1 X13.46 Y55.46 E176.07027
G1 X221.54 Y55.46 E185.75934
G1 X221.54 Y179.54 E191.53703
G1 X117.5 Y179.54 E196.38157
G1 F1500 E189.88157
G0 F6000 X117.5 Y179.8
G0 X13.272 Y179.728
G0 X13.2 Y178.841
G0 X13.661 Y178.841
G1 F1500 E196.38157
G1 F1200 X14.16 Y179.34 E196.41443
G0 F6000 X14.725 Y179.34
G1 F1200 X13.661 Y178.275 E196.48453
G0 F6000 X13.661 Y177.709
G1 F1200 X15.291 Y179.34 E196.5919
G0 F6000 X15.857 Y179.34
G1 F1200 X13.661 Y177.144 E196.73651
G0 F6000 X13.661 Y176.578
G1 F1200 X16.423 Y179.34 E196.91839
G0 F6000 X16.988 Y179.34
G1 F1200 X13.661 Y176.012 E197.13751
G0 F6000 X13.661 Y175.447
G1 F1200 X17.554 Y179.34 E197.39387
G0 F6000 X18.12 Y179.34
G1 F1200 X13.661 Y174.881 E197.6875
G0 F6000 X13.661 Y174.315
G1 F1200 X18.685 Y179.34 E198.01838
G0 F6000 X19.251 Y179.34
G1 F1200 X13.661 Y173.75 E198.38649
G0 F6000 X13.661 Y173.184
G1 F1200 X19.817 Y179.34 E198.79187
G0 F6000 X20.382 Y179.34
G1 F1200 X13.661 Y172.618 E199.23449
G0 F6000 X13.661 Y172.053
G1 F1200 X20.948 Y179.34 E199.71435
G0 F6000 X21.514 Y179.34
G1 F1200 X13.661 Y171.487 E200.23149
G0 F6000 X13.661 Y170.921
G1 F1200 X22.079 Y179.34 E200.78586
G0 F6000 X22.645 Y179.34
G1 F1200 X13.661 Y170.355 E201.37751
G0 F6000 X13.661 Y169.79
G1 F1200 X23.211 Y179.34 E202.00639
G0 F6000 X23.776 Y179.34
G1 F1200 X13.661 Y169.224 E202.67251
G0 F6000 X13.661 Y168.658
G1 F1200 X24.342 Y179.34 E203.37591
G0 F6000 X24.908 Y179.34
G1 F1200 X13.661 Y168.093 E204.11654
G0 F6000 X13.661 Y167.527
G1 F1200 X25.474 Y179.34 E204.89445
G0 F6000 X26.039 Y179.34
G1 F1200 X13.661 Y166.961 E205.70959
G0 F6000 X13.661 Y166.396
G1 F1200 X26.605 Y179.34 E206.56198
G0 F6000 X27.171 Y179.34
G1 F1200 X13.661 Y165.83 E207.45163
G0 F6000 X13.661 Y165.264
G1 F1200 X27.736 Y179.34 E208.37853
G0 F6000 X28.302 Y179.34
G1 F1200 X13.661 Y164.699 E209.34266
G0 F6000 X13.661 Y164.133
G1 F1200 X28.868 Y179.34 E210.34407
G0 F6000 X29.433 Y179.34
G1 F1200 X13.661 Y163.567 E211.38272
G0 F6000 X13.661 Y163.002
G1 F1200 X29.999 Y179.34 E212.4586
G0 F6000 X30.565 Y179.34
G1 F1200 X13.661 Y162.436 E213.57176
G0 F6000 X13.661 Y161.87
G1 F1200 X31.13 Y179.34 E214.72216
G0 F6000 X31.696 Y179.34
G1 F1200 X13.661 Y161.304 E215.90982
G0 F6000 X13.661 Y160.739
G1 F1200 X32.262 Y179.34 E217.13473
G0 F6000 X32.827 Y179.34
G1 F1200 X13.661 Y160.173 E218.39688
G0 F6000 X13.661 Y159.607
G1 F1200 X33.393 Y179.34 E219.6963
G0 F6000 X33.959 Y179.34
G1 F1200 X13.661 Y159.042 E221.03296
G0 F6000 X13.661 Y158.476
G1 F1200 X34.524 Y179.34 E222.40685
G0 F6000 X35.09 Y179.34
G1 F1200 X13.661 Y157.91 E223.81802
G0 F6000 X13.661 Y157.345
G1 F1200 X35.656 Y179.34 E225.26643
G0 F6000 X36.222 Y179.34
G1 F1200 X13.661 Y156.779 E226.75211
G0 F6000 X13.661 Y156.213
G1 F1200 X36.787 Y179.34 E228.27503
G0 F6000 X37.353 Y179.34
G1 F1200 X13.661 Y155.648 E229.83519
G0 F6000 X13.661 Y155.082
G1 F1200 X37.919 Y179.34 E231.43262
G0 F6000 X38.484 Y179.34
G1 F1200 X13.661 Y154.516 E233.06729
G0 F6000 X13.661 Y153.951
G1 F1200 X39.05 Y179.34 E234.7392
G0 F6000 X39.616 Y179.34
G1 F1200 X13.661 Y153.385 E236.44838
G0 F6000 X13.661 Y152.819
G1 F1200 X40.181 Y179.34 E238.1948
G0 F6000 X40.747 Y179.34
G1 F1200 X13.661 Y152.254 E239.97846
G0 F6000 X13.661 Y151.688
G1 F1200 X41.313 Y179.34 E241.79939
G0 F6000 X41.878 Y179.34
G1 F1200 X13.661 Y151.122 E243.65756
G0 F6000 X13.661 Y150.556
G1 F1200 X42.444 Y179.34 E245.553
G0 F6000 X43.01 Y179.34
G1 F1200 X13.661 Y149.991 E247.48569
G0 F6000 X13.661 Y149.425
G1 F1200 X43.575 Y179.34 E249.45561
G0 F6000 X44.141 Y179.34
G1 F1200 X13.661 Y148.859 E251.4628
G0 F6000 X13.661 Y148.294
G1 F1200 X44.707 Y179.34 E253.50723
G0 F6000 X45.273 Y179.34
G1 F1200 X13.661 Y147.728 E255.58894
G0 F6000 X13.661 Y147.162
G1 F1200 X45.838 Y179.34 E257.70788
G0 F6000 X46.404 Y179.34
G1 F1200 X13.661 Y146.597 E259.86406
G0 F6000 X13.661 Y146.031
G1 F1200 X46.97 Y179.34 E262.05752
G0 F6000 X47.535 Y179.34
G1 F1200 X13.661 Y145.465 E264.28821
G0 F6000 X13.661 Y144.9
G1 F1200 X48.101 Y179.34 E266.55614
G0 F6000 X48.667 Y179.34
G1 F1200 X13.661 Y144.334 E268.86135
G0 F6000 X13.661 Y143.768
G1 F1200 X49.232 Y179.34 E271.20379
G0 F6000 X49.798 Y179.34
G1 F1200 X13.661 Y143.203 E273.58347
G0 F6000 X13.661 Y142.637
G1 F1200 X50.364 Y179.34 E276.00043
G0 F6000 X50.929 Y179.34
G1 F1200 X13.661 Y142.071 E278.45462
G0 F6000 X13.661 Y141.506
G1 F1200 X51.495 Y179.34 E280.94606
G0 F6000 X52.061 Y179.34
G1 F1200 X13.661 Y140.94 E283.47476
G0 F6000 X13.661 Y140.374
G1 F1200 X52.626 Y179.34 E286.04071
G0 F6000 X53.192 Y179.34
G1 F1200 X13.661 Y139.808 E288.64392
G0 F6000 X13.661 Y139.243
G1 F1200 X53.758 Y179.34 E291.28438
G0 F6000 X54.323 Y179.34
G1 F1200 X13.661 Y138.677 E293.96208
G0 F6000 X13.661 Y138.111
G1 F1200 X54.889 Y179.34 E296.67704
G0 F6000 X55.455 Y179.34
G1 F1200 X13.661 Y137.546 E299.42925
G0 F6000 X13.661 Y136.98
G1 F1200 X56.021 Y179.34 E302.21873
G0 F6000 X56.586 Y179.34
G1 F1200 X13.661 Y136.414 E305.04544
G0 F6000 X13.661 Y135.849
G1 F1200 X57.152 Y179.34 E307.9094
G0 F6000 X57.718 Y179.34
G1 F1200 X13.661 Y135.283 E310.81063
G0 F6000 X13.661 Y134.717
G1 F1200 X58.283 Y179.34 E313.7491
G0 F6000 X58.849 Y179.34
G1 F1200 X13.661 Y134.152 E316.72481
G0 F6000 X13.661 Y133.586
G1 F1200 X59.415 Y179.34 E319.73778
G0 F6000 X59.98 Y179.34
G1 F1200 X13.661 Y133.02 E322.788
G0 F6000 X13.661 Y132.455
G1 F1200 X60.546 Y179.34 E325.87546
G0 F6000 X61.112 Y179.34
G1 F1200 X13.661 Y131.889 E329.00019
G0 F6000 X13.661 Y131.323
G1 F1200 X61.677 Y179.34 E332.16216
G0 F6000 X62.243 Y179.34
G1 F1200 X13.661 Y130.757 E335.3614
G0 F6000 X13.661 Y130.192
G1 F1200 X62.809 Y179.34 E338.59788
G0 F6000 X63.374 Y179.34
G1 F1200 X13.661 Y129.626 E341.8716
G0 F6000 X13.661 Y129.06
G1 F1200 X63.94 Y179.34 E345.18259
G0 F6000 X64.506 Y179.34
G1 F1200 X13.661 Y128.495 E348.53082
G0 F6000 X13.661 Y127.929
G1 F1200 X65.072 Y179.34 E351.91632
G0 F6000 X65.637 Y179.34
G1 F1200 X13.661 Y127.363 E355.33906
G0 F6000 X13.661 Y126.798
G1 F1200 X66.203 Y179.34 E358.79904
G0 F6000 X66.769 Y179.34
G1 F1200 X13.661 Y126.232 E362.29629
G0 F6000 X13.661 Y125.666
G1 F1200 X67.334 Y179.34 E365.83079
G0 F6000 X67.9 Y179.34
G1 F1200 X13.661 Y125.101 E369.40252
G0 F6000 X13.661 Y124.535
G1 F1200 X68.466 Y179.34 E373.01152
G0 F6000 X69.031 Y179.34
G1 F1200 X13.661 Y123.969 E376.65776
G0 F6000 X13.661 Y123.404
G1 F1200 X69.597 Y179.34 E380.34124
G0 F6000 X70.163 Y179.34
G1 F1200 X13.661 Y122.838 E384.062
G0 F6000 X13.661 Y122.272
G1 F1200 X70.728 Y179.34 E387.81999
G0 F6000 X71.294 Y179.34
G1 F1200 X13.661 Y121.707 E391.61522
G0 F6000 X13.661 Y121.141
G1 F1200 X71.86 Y179.34 E395.44772
G0 F6000 X72.425 Y179.34
G1 F1200 X13.661 Y120.575 E399.31747
G0 F6000 X13.661 Y120.009
G1 F1200 X72.991 Y179.34 E403.22448
G0 F6000 X73.557 Y179.34
G1 F1200 X13.661 Y119.444 E407.16873
G0 F6000 X13.661 Y118.878
G1 F1200 X74.122 Y179.34 E411.15023
G0 F6000 X74.688 Y179.34
G1 F1200 X13.661 Y118.312 E415.16899
G0 F6000 X13.661 Y117.747
G1 F1200 X75.254 Y179.34 E419.225
G0 F6000 X75.82 Y179.34
G1 F1200 X13.661 Y117.181 E423.31827
G0 F6000 X13.661 Y116.615
G1 F1200 X76.385 Y179.34 E427.44879
G0 F6000 X76.951 Y179.34
G1 F1200 X13.661 Y116.05 E431.61654
G0 F6000 X13.661 Y115.484
G1 F1200 X77.517 Y179.34 E435.82157
G0 F6000 X78.082 Y179.34
G1 F1200 X13.661 Y114.918 E440.06384
G0 F6000 X13.661 Y114.353
G1 F1200 X78.648 Y179.34 E444.34334
G0 F6000 X79.214 Y179.34
G1 F1200 X13.661 Y113.787 E448.66012
G0 F6000 X13.661 Y113.221
