;FLAVOR:Marlin
;TIME:17751
;Filament used: 17.5955m
;Layer height: 0.28
;MINX:1.5
;MINY:41.5
;MINZ:0.28
;MAXX:233.5
;MAXY:193.5
;MAXZ:15.96
;TARGET_MACHINE.NAME:Creality CR-6 SE
;Generated with Cura_SteamEngine 5.8.1
M140 S60
M105
M190 S60
M104 S200
M105
M109 S200
M82 ;absolute extrusion mode
M201 X500.00 Y500.00 Z100.00 E5000.00 ;Setup machine max acceleration
M203 X500.00 Y500.00 Z10.00 E50.00 ;Setup machine max feedrate
M204 P500.00 R1000.00 T500.00 ;Setup Print/Retract/Travel acceleration
M205 X8.00 Y8.00 Z0.40 E5.00 ;Setup Jerk
M220 S100 ;Reset Feedrate
M221 S100 ;Reset Flowrate

G28 ;Home

G92 E0 ;Reset Extruder
G1 Z2.0 F3000 ;Move Z Axis up
G1 X10.1 Y20 Z0.28 F5000.0 ;Move to start position
G1 X10.1 Y200.0 Z0.28 F1500.0 E15 ;Draw the first line
G1 X10.4 Y200.0 Z0.28 F5000.0 ;Move to side a little
G1 X10.4 Y20 Z0.28 F1500.0 E30 ;Draw the second line
G92 E0 ;Reset Extruder
G1 Z2.0 F3000 ;Move Z Axis up

G92 E0
G92 E0
G1 F1500 E-6.5
;LAYER_COUNT:57
;LAYER:0
M107
G0 F6000 X10.049 Y41.789 Z0.28
;TYPE:SKIRT
G1 F1500 E0
G1 F1200 X11.016 Y41.611 E0.04578
G1 X12.155 Y41.515 E0.09901
G1 X12.812 Y41.5 E0.12961
G1 X23.304 Y41.5 E0.61816
G1 X24.184 Y41.513 E0.65914
G1 X25.066 Y41.564 E0.70028
G1 X28.22 Y41.838 E0.8477
G1 X30.715 Y41.978 E0.96406
G1 X33.258 Y42.05 E1.08252
G1 X35.746 Y42.05 E1.19837
G1 X38.305 Y41.978 E1.31757
G1 X40.758 Y41.838 E1.43198
G1 X44.071 Y41.55 E1.58683
G1 X44.687 Y41.514 E1.61556
G1 X45.345 Y41.5 E1.64621
G1 X66.451 Y41.501 E2.62899
G1 X67.184 Y41.513 E2.66313
G1 X68.066 Y41.564 E2.70427
G1 X71.22 Y41.838 E2.85168
G1 X73.715 Y41.978 E2.96804
G1 X76.258 Y42.05 E3.0865
G1 X78.746 Y42.05 E3.20236
G1 X81.305 Y41.978 E3.32156
G1 X83.758 Y41.838 E3.43597
G1 X87.071 Y41.55 E3.59082
G1 X87.687 Y41.514 E3.61955
G1 X88.345 Y41.5 E3.6502
G1 X109.451 Y41.501 E4.63298
G1 X110.184 Y41.513 E4.66712
G1 X111.066 Y41.564 E4.70825
G1 X114.22 Y41.838 E4.85567
G1 X116.715 Y41.978 E4.97203
G1 X119.258 Y42.05 E5.09049
G1 X121.746 Y42.05 E5.20634
G1 X124.305 Y41.978 E5.32555
G1 X126.758 Y41.838 E5.43996
G1 X130.071 Y41.55 E5.59481
G1 X130.687 Y41.514 E5.62354
G1 X131.345 Y41.5 E5.65418
G1 X152.451 Y41.501 E6.63697
G1 X153.184 Y41.513 E6.6711
G1 X154.066 Y41.564 E6.71224
G1 X157.22 Y41.838 E6.85966
G1 X159.715 Y41.978 E6.97602
G1 X162.258 Y42.05 E7.09448
G1 X164.746 Y42.05 E7.21033
G1 X167.305 Y41.978 E7.32954
G1 X169.758 Y41.838 E7.44394
G1 X173.071 Y41.55 E7.59879
G1 X173.687 Y41.514 E7.62753
G1 X174.345 Y41.5 E7.65817
G1 X221.936 Y41.501 E9.87421
G1 X222.669 Y41.512 E9.90834
G1 X223.641 Y41.569 E9.95368
G1 X224.604 Y41.715 E9.99903
G1 X225.55 Y41.944 E10.04436
G1 X226.474 Y42.256 E10.08977
G1 X227.364 Y42.648 E10.13505
G1 X228.187 Y43.099 E10.17875
G1 X229.026 Y43.66 E10.22575
G1 X229.73 Y44.226 E10.26781
G1 X230.483 Y44.951 E10.31648
G1 X231.12 Y45.687 E10.36181
G1 X231.65 Y46.418 E10.40385
G1 X232.186 Y47.315 E10.45251
G1 X232.608 Y48.193 E10.49787
G1 X232.95 Y49.105 E10.54322
G1 X233.21 Y50.043 E10.58855
G1 X233.388 Y51.01 E10.63433
G1 X233.485 Y52.155 E10.68784
G1 X233.5 Y52.83 E10.71928
G1 X233.499 Y60.779 E11.08942
G1 X233.489 Y61.502 E11.12308
G1 X233.463 Y62.098 E11.15086
G1 X233.416 Y62.766 E11.18205
G1 X233.27 Y65.347 E11.30242
G1 X233.198 Y67.88 E11.42041
G1 X233.198 Y70.392 E11.53738
G1 X233.27 Y72.903 E11.65435
G1 X233.485 Y76.604 E11.82698
G1 X233.5 Y77.261 E11.85758
G1 X233.499 Y93.029 E12.5918
G1 X233.489 Y93.753 E12.62552
G1 X233.463 Y94.35 E12.65334
G1 X233.416 Y95.021 E12.68467
G1 X233.27 Y97.597 E12.80481
G1 X233.198 Y100.13 E12.9228
G1 X233.198 Y102.642 E13.03977
G1 X233.27 Y105.153 E13.15674
G1 X233.485 Y108.854 E13.32937
G1 X233.5 Y109.511 E13.35997
G1 X233.499 Y125.278 E14.09414
G1 X233.489 Y126.008 E14.12814
G1 X233.462 Y126.607 E14.15606
G1 X233.417 Y127.243 E14.18575
G1 X233.271 Y129.795 E14.30478
G1 X233.198 Y132.359 E14.42421
G1 X233.198 Y134.871 E14.54118
G1 X233.269 Y137.383 E14.6582
G1 X233.415 Y139.977 E14.77918
G1 X233.464 Y140.656 E14.81088
G1 X233.487 Y141.148 E14.83381
G1 X233.5 Y141.817 E14.86497
G1 X233.499 Y157.528 E15.59654
G1 X233.489 Y158.258 E15.63053
G1 X233.462 Y158.857 E15.65845
G1 X233.417 Y159.493 E15.68814
G1 X233.271 Y162.045 E15.80717
G1 X233.198 Y164.609 E15.92661
G1 X233.198 Y167.121 E16.04358
G1 X233.269 Y169.633 E16.16059
G1 X233.415 Y172.227 E16.28157
G1 X233.464 Y172.906 E16.31327
G1 X233.487 Y173.398 E16.33621
G1 X233.5 Y174.067 E16.36736
G1 X233.499 Y181.916 E16.73285
G1 X233.487 Y182.677 E16.76829
G1 X233.429 Y183.65 E16.81367
G1 X233.283 Y184.613 E16.85903
G1 X233.052 Y185.56 E16.90442
G1 X232.739 Y186.482 E16.94975
G1 X232.347 Y187.373 E16.99508
G1 X231.895 Y188.195 E17.03876
G1 X231.333 Y189.033 E17.08575
G1 X230.743 Y189.763 E17.12945
G1 X230.04 Y190.489 E17.17651
G1 X229.304 Y191.125 E17.2218
G1 X228.514 Y191.695 E17.26716
G1 X227.738 Y192.158 E17.30924
G1 X226.798 Y192.611 E17.35783
G1 X225.885 Y192.953 E17.40323
G1 X224.947 Y193.212 E17.44854
G1 X223.981 Y193.389 E17.49427
G1 X222.845 Y193.485 E17.54735
G1 X222.17 Y193.5 E17.57879
G1 X174.55 Y193.499 E19.79618
G1 X173.812 Y193.487 E19.83055
G1 X172.917 Y193.436 E19.87229
G1 X169.772 Y193.161 E20.01929
G1 X167.285 Y193.022 E20.13528
G1 X164.742 Y192.95 E20.25374
G1 X162.254 Y192.95 E20.36959
G1 X159.695 Y193.022 E20.4888
G1 X157.242 Y193.162 E20.6032
G1 X153.929 Y193.45 E20.75805
G1 X153.313 Y193.486 E20.78678
G1 X152.655 Y193.5 E20.81743
G1 X131.55 Y193.499 E21.80017
G1 X130.812 Y193.487 E21.83454
G1 X129.917 Y193.436 E21.87628
G1 X126.772 Y193.161 E22.02328
G1 X124.285 Y193.022 E22.13927
G1 X121.742 Y192.95 E22.25773
G1 X119.254 Y192.95 E22.37358
G1 X116.695 Y193.022 E22.49279
G1 X114.242 Y193.162 E22.60719
G1 X110.929 Y193.45 E22.76204
G1 X110.313 Y193.486 E22.79077
G1 X109.655 Y193.5 E22.82142
G1 X88.549 Y193.499 E23.8042
G1 X87.816 Y193.487 E23.83834
G1 X86.934 Y193.436 E23.87948
G1 X83.78 Y193.162 E24.0269
G1 X81.285 Y193.022 E24.14326
G1 X78.742 Y192.95 E24.26172
G1 X76.254 Y192.95 E24.37757
G1 X73.695 Y193.022 E24.49677
G1 X71.242 Y193.162 E24.61118
G1 X67.929 Y193.45 E24.76603
G1 X67.313 Y193.486 E24.79476
G1 X66.655 Y193.5 E24.82541
G1 X45.549 Y193.499 E25.80819
G1 X44.816 Y193.487 E25.84233
G1 X43.934 Y193.436 E25.88347
G1 X40.78 Y193.162 E26.03088
G1 X38.285 Y193.022 E26.14724
G1 X35.742 Y192.95 E26.2657
G1 X33.254 Y192.95 E26.38156
G1 X30.695 Y193.022 E26.50076
G1 X28.242 Y193.162 E26.61517
G1 X24.929 Y193.45 E26.77002
G1 X24.313 Y193.486 E26.79875
G1 X23.655 Y193.5 E26.8294
G1 X13.064 Y193.499 E27.32256
G1 X12.331 Y193.488 E27.35669
G1 X11.359 Y193.431 E27.40203
G1 X10.396 Y193.285 E27.44738
G1 X9.45 Y193.056 E27.49271
G1 X8.526 Y192.744 E27.53812
G1 X7.636 Y192.352 E27.5834
G1 X6.813 Y191.901 E27.6271
G1 X5.974 Y191.34 E27.6741
G1 X5.27 Y190.774 E27.71616
G1 X4.517 Y190.049 E27.76483
G1 X3.88 Y189.313 E27.81016
G1 X3.35 Y188.582 E27.8522
G1 X2.814 Y187.685 E27.90086
G1 X2.392 Y186.807 E27.94622
G1 X2.05 Y185.895 E27.99157
G1 X1.79 Y184.957 E28.0369
G1 X1.612 Y183.988 E28.08277
G1 X1.514 Y182.809 E28.13786
G1 X1.5 Y182.158 E28.16818
G1 X1.501 Y53.025 E34.18115
G1 X1.512 Y52.325 E34.21375
G1 X1.57 Y51.352 E34.25914
G1 X1.716 Y50.389 E34.30449
G1 X1.946 Y49.443 E34.34983
G1 X2.259 Y48.52 E34.39521
G1 X2.651 Y47.63 E34.44049
G1 X3.121 Y46.777 E34.48584
G1 X3.664 Y45.969 E34.53117
G1 X4.231 Y45.265 E34.57327
G1 X4.956 Y44.513 E34.6219
G1 X5.692 Y43.876 E34.66723
G1 X6.424 Y43.346 E34.70931
G1 X7.321 Y42.811 E34.75794
G1 X8.199 Y42.39 E34.80328
G1 X9.112 Y42.048 E34.84868
G1 X10.049 Y41.789 E34.89395
G0 F6000 X10.122 Y42.182
G1 F1200 X11.05 Y42.01 E34.9379
G1 X12.189 Y41.914 E34.99112
G1 X12.821 Y41.9 E35.02056
G1 X23.298 Y41.9 E35.50841
G1 X24.161 Y41.912 E35.5486
G1 X25.031 Y41.962 E35.58918
G1 X28.194 Y42.237 E35.73701
G1 X30.704 Y42.378 E35.85407
G1 X33.247 Y42.45 E35.97254
G1 X35.757 Y42.45 E36.08941
G1 X38.316 Y42.378 E36.20862
G1 X40.781 Y42.237 E36.32358
G1 X44.094 Y41.949 E36.47843
G1 X44.696 Y41.914 E36.50651
G1 X45.345 Y41.9 E36.53674
G1 X66.445 Y41.901 E37.51924
G1 X67.161 Y41.912 E37.55259
G1 X68.031 Y41.962 E37.59317
G1 X71.194 Y42.237 E37.741
G1 X73.704 Y42.378 E37.85806
G1 X76.247 Y42.45 E37.97652
G1 X78.757 Y42.45 E38.0934
G1 X81.316 Y42.378 E38.21261
G1 X83.781 Y42.237 E38.32757
G1 X87.094 Y41.949 E38.48242
G1 X87.696 Y41.914 E38.5105
G1 X88.345 Y41.9 E38.54073
G1 X109.445 Y41.901 E39.52323
G1 X110.161 Y41.912 E39.55658
G1 X111.031 Y41.962 E39.59715
G1 X114.194 Y42.237 E39.74499
G1 X116.704 Y42.378 E39.86205
G1 X119.247 Y42.45 E39.98051
G1 X121.757 Y42.45 E40.09739
G1 X124.316 Y42.378 E40.21659
G1 X126.781 Y42.237 E40.33156
G1 X130.094 Y41.949 E40.48641
G1 X130.696 Y41.914 E40.51449
G1 X131.345 Y41.9 E40.54472
G1 X152.445 Y41.901 E41.52722
G1 X153.161 Y41.912 E41.56057
G1 X154.031 Y41.962 E41.60114
G1 X157.194 Y42.237 E41.74898
G1 X159.704 Y42.378 E41.86604
G1 X162.247 Y42.45 E41.9845
G1 X164.757 Y42.45 E42.10138
G1 X167.316 Y42.378 E42.22058
G1 X169.781 Y42.237 E42.33555
G1 X173.094 Y41.949 E42.4904
G1 X173.696 Y41.914 E42.51848
G1 X174.345 Y41.9 E42.54871
G1 X221.93 Y41.901 E44.76446
G1 X222.646 Y41.911 E44.79781
G1 X223.582 Y41.965 E44.84146
G1 X224.511 Y42.104 E44.8852
G1 X225.423 Y42.323 E44.92888
G1 X226.313 Y42.622 E44.9726
G1 X227.172 Y42.999 E45.01628
G1 X227.995 Y43.45 E45.05998
G1 X228.775 Y43.972 E45.10368
G1 X229.479 Y44.538 E45.14574
G1 X230.181 Y45.213 E45.19109
G1 X230.796 Y45.922 E45.23479
G1 X231.326 Y46.653 E45.27684
G1 X231.826 Y47.489 E45.32219
G1 X232.234 Y48.334 E45.36589
G1 X232.565 Y49.212 E45.40958
G1 X232.817 Y50.116 E45.45328
G1 X232.989 Y51.044 E45.49723
G1 X233.086 Y52.189 E45.55073
G1 X233.1 Y52.83 E45.58059
G1 X233.099 Y60.773 E45.95045
G1 X233.089 Y61.485 E45.9836
G1 X233.064 Y62.07 E46.01087
G1 X233.017 Y62.738 E46.04205
G1 X232.87 Y65.336 E46.16322
G1 X232.798 Y67.869 E46.28121
G1 X232.798 Y70.392 E46.39869
G1 X232.87 Y72.914 E46.51618
G1 X233.085 Y76.613 E46.68871
G1 X233.1 Y77.261 E46.71889
G1 X233.099 Y93.023 E47.45284
G1 X233.089 Y93.736 E47.48604
G1 X233.064 Y94.322 E47.51335
G1 X233.017 Y94.993 E47.54467
G1 X232.87 Y97.586 E47.66561
G1 X232.798 Y100.119 E47.7836
G1 X232.798 Y102.642 E47.90108
G1 X232.87 Y105.164 E48.01857
G1 X233.085 Y108.863 E48.1911
G1 X233.1 Y109.511 E48.22128
G1 X233.099 Y125.272 E48.95518
G1 X233.089 Y125.99 E48.98861
G1 X233.063 Y126.579 E49.01607
G1 X233.018 Y127.215 E49.04575
G1 X232.871 Y129.784 E49.16557
G1 X232.798 Y132.348 E49.28501
G1 X232.798 Y134.871 E49.40249
G1 X232.869 Y137.394 E49.52002
G1 X233.016 Y140.006 E49.64184
G1 X233.064 Y140.675 E49.67307
G1 X233.087 Y141.156 E49.69549
G1 X233.1 Y141.817 E49.72628
G1 X233.099 Y157.522 E50.45757
G1 X233.089 Y158.24 E50.49101
G1 X233.063 Y158.829 E50.51846
G1 X233.018 Y159.465 E50.54815
G1 X232.871 Y162.034 E50.66797
G1 X232.798 Y164.598 E50.78741
G1 X232.798 Y167.121 E50.90489
G1 X232.869 Y169.644 E51.02242
G1 X233.016 Y172.256 E51.14423
G1 X233.064 Y172.925 E51.17547
G1 X233.087 Y173.406 E51.19789
G1 X233.1 Y174.067 E51.22867
G1 X233.099 Y181.91 E51.59388
G1 X233.088 Y182.654 E51.62852
G1 X233.033 Y183.591 E51.67223
G1 X232.894 Y184.519 E51.71592
G1 X232.673 Y185.432 E51.75966
G1 X232.373 Y186.321 E51.80335
G1 X231.996 Y187.18 E51.84703
G1 X231.544 Y188.002 E51.89072
G1 X231.021 Y188.782 E51.93444
G1 X230.455 Y189.485 E51.97647
G1 X229.778 Y190.187 E52.02188
G1 X229.07 Y190.801 E52.06552
G1 X228.309 Y191.351 E52.10924
G1 X227.533 Y191.814 E52.15132
G1 X226.657 Y192.237 E52.19662
G1 X225.778 Y192.568 E52.24035
G1 X224.874 Y192.819 E52.28404
G1 X223.947 Y192.99 E52.32793
G1 X222.811 Y193.086 E52.38102
G1 X222.17 Y193.1 E52.41087
G1 X174.556 Y193.099 E54.62798
G1 X173.835 Y193.088 E54.66155
G1 X172.952 Y193.038 E54.70274
G1 X169.798 Y192.762 E54.85016
G1 X167.296 Y192.622 E54.96685
G1 X164.753 Y192.55 E55.08531
G1 X162.243 Y192.55 E55.20218
G1 X159.684 Y192.622 E55.32139
G1 X157.219 Y192.763 E55.43636
G1 X153.906 Y193.051 E55.59121
G1 X153.304 Y193.086 E55.61928
G1 X152.655 Y193.1 E55.64951
G1 X131.556 Y193.099 E56.63197
G1 X130.835 Y193.088 E56.66555
G1 X129.952 Y193.038 E56.70673
G1 X126.798 Y192.762 E56.85415
G1 X124.296 Y192.622 E56.97084
G1 X121.753 Y192.55 E57.0893
G1 X119.243 Y192.55 E57.20618
G1 X116.684 Y192.622 E57.32538
G1 X114.219 Y192.763 E57.44035
G1 X110.906 Y193.051 E57.5952
G1 X110.304 Y193.086 E57.62328
G1 X109.655 Y193.1 E57.6535
G1 X88.555 Y193.099 E58.63601
G1 X87.839 Y193.088 E58.66935
G1 X86.969 Y193.038 E58.70993
G1 X83.806 Y192.763 E58.85777
G1 X81.296 Y192.622 E58.97483
G1 X78.753 Y192.55 E59.09329
G1 X76.243 Y192.55 E59.21016
G1 X73.684 Y192.622 E59.32937
G1 X71.219 Y192.763 E59.44434
G1 X67.906 Y193.051 E59.59919
G1 X67.304 Y193.086 E59.62727
G1 X66.655 Y193.1 E59.65749
G1 X45.555 Y193.099 E60.64
G1 X44.839 Y193.088 E60.67334
G1 X43.969 Y193.038 E60.71392
G1 X40.806 Y192.763 E60.86176
G1 X38.296 Y192.622 E60.97882
G1 X35.753 Y192.55 E61.09728
G1 X33.243 Y192.55 E61.21415
G1 X30.684 Y192.622 E61.33336
G1 X28.219 Y192.763 E61.44833
G1 X24.906 Y193.051 E61.60318
G1 X24.304 Y193.086 E61.63125
G1 X23.655 Y193.1 E61.66148
G1 X13.07 Y193.099 E62.15436
G1 X12.354 Y193.089 E62.18771
G1 X11.418 Y193.035 E62.23136
G1 X10.489 Y192.896 E62.2751
G1 X9.577 Y192.677 E62.31878
G1 X8.687 Y192.378 E62.3625
G1 X7.828 Y192.001 E62.40618
G1 X7.005 Y191.55 E62.44988
G1 X6.225 Y191.028 E62.49358
G1 X5.521 Y190.462 E62.53564
G1 X4.819 Y189.787 E62.58099
G1 X4.204 Y189.078 E62.62469
G1 X3.674 Y188.347 E62.66674
G1 X3.174 Y187.511 E62.71209
G1 X2.766 Y186.666 E62.75579
G1 X2.435 Y185.788 E62.79948
G1 X2.183 Y184.884 E62.84318
G1 X2.011 Y183.955 E62.88717
G1 X1.913 Y182.776 E62.94226
G1 X1.9 Y182.158 E62.97104
G1 X1.901 Y53.031 E68.98374
G1 X1.911 Y52.348 E69.01554
G1 X1.966 Y51.411 E69.05925
G1 X2.105 Y50.483 E69.10294
G1 X2.325 Y49.571 E69.14663
G1 X2.625 Y48.681 E69.19036
G1 X3.002 Y47.822 E69.23404
G1 X3.453 Y47 E69.2777
G1 X3.976 Y46.22 E69.32143
G1 X4.543 Y45.516 E69.36352
G1 X5.218 Y44.815 E69.40884
G1 X5.927 Y44.2 E69.45254
G1 X6.659 Y43.67 E69.49462
G1 X7.495 Y43.171 E69.53996
G1 X8.34 Y42.764 E69.58363
G1 X9.219 Y42.433 E69.62736
G1 X10.122 Y42.182 E69.67101
G0 F6000 X10.196 Y42.575
G1 F1200 X11.084 Y42.409 E69.71307
G1 X12.223 Y42.313 E69.7663
G1 X12.83 Y42.3 E69.79457
G1 X23.293 Y42.3 E70.28177
G1 X24.138 Y42.311 E70.32112
G1 X24.996 Y42.36 E70.36113
G1 X28.168 Y42.636 E70.50939
G1 X30.693 Y42.778 E70.62715
G1 X33.236 Y42.85 E70.74562
G1 X35.768 Y42.85 E70.86352
G1 X38.327 Y42.778 E70.98272
G1 X40.804 Y42.636 E71.09825
G1 X44.117 Y42.348 E71.2531
G1 X44.705 Y42.314 E71.28052
G1 X45.345 Y42.3 E71.31033
G1 X66.439 Y42.301 E72.29256
G1 X67.138 Y42.311 E72.32511
G1 X67.996 Y42.36 E72.36513
G1 X71.168 Y42.636 E72.51339
G1 X73.693 Y42.778 E72.63115
G1 X76.236 Y42.85 E72.74961
G1 X78.768 Y42.85 E72.86751
G1 X81.327 Y42.778 E72.98671
G1 X83.804 Y42.636 E73.10224
G1 X87.117 Y42.348 E73.25709
G1 X87.705 Y42.314 E73.28451
G1 X88.345 Y42.3 E73.31432
G1 X109.439 Y42.301 E74.29655
G1 X110.138 Y42.311 E74.3291
G1 X110.996 Y42.36 E74.36912
G1 X114.168 Y42.636 E74.51738
G1 X116.693 Y42.778 E74.63514
G1 X119.236 Y42.85 E74.7536
G1 X121.768 Y42.85 E74.8715
G1 X124.327 Y42.778 E74.9907
G1 X126.804 Y42.636 E75.10623
G1 X130.117 Y42.348 E75.26108
G1 X130.705 Y42.314 E75.28851
G1 X131.345 Y42.3 E75.31831
G1 X152.439 Y42.301 E76.30054
G1 X153.138 Y42.311 E76.33309
G1 X153.996 Y42.36 E76.37311
G1 X157.168 Y42.636 E76.52137
G1 X159.693 Y42.778 E76.63913
G1 X162.236 Y42.85 E76.75759
G1 X164.768 Y42.85 E76.87549
G1 X167.327 Y42.778 E76.99469
G1 X169.804 Y42.636 E77.11022
G1 X173.117 Y42.348 E77.26507
G1 X173.705 Y42.314 E77.2925
G1 X174.345 Y42.3 E77.32231
G1 X221.925 Y42.301 E79.53783
G1 X222.623 Y42.31 E79.57033
G1 X223.524 Y42.361 E79.61236
G1 X224.418 Y42.493 E79.65444
G1 X225.296 Y42.702 E79.69646
G1 X226.153 Y42.989 E79.73854
G1 X226.98 Y43.35 E79.78056
G1 X227.773 Y43.783 E79.82263
G1 X228.524 Y44.284 E79.86467
G1 X229.228 Y44.85 E79.90673
G1 X229.879 Y45.476 E79.94879
G1 X230.472 Y46.157 E79.99083
G1 X231.002 Y46.888 E80.03288
G1 X231.466 Y47.663 E80.07494
G1 X231.86 Y48.476 E80.11701
G1 X232.18 Y49.32 E80.15904
G1 X232.424 Y50.19 E80.20111
