;FLAVOR:Marlin
;TIME:12280
;Filament used: 12.3161m
;Layer height: 0.28
;MINX:1.5
;MINY:82.5
;MINZ:0.28
;MAXX:233.5
;MAXY:152.5
;MAXZ:24.08
;TARGET_MACHINE.NAME:Creality CR-6 SE
;Generated with Cura_SteamEngine 5.8.1
M140 S60
M105
M190 S60
M104 S200
M105
M109 S200
M82 ;absolute extrusion mode
M201 X500.00 Y500.00 Z100.00 E5000.00 ;Setup machine max acceleration
M203 X500.00 Y500.00 Z10.00 E50.00 ;Setup machine max feedrate
M204 P500.00 R1000.00 T500.00 ;Setup Print/Retract/Travel acceleration
M205 X8.00 Y8.00 Z0.40 E5.00 ;Setup Jerk
M220 S100 ;Reset Feedrate
M221 S100 ;Reset Flowrate

G28 ;Home

G92 E0 ;Reset Extruder
G1 Z2.0 F3000 ;Move Z Axis up
G1 X10.1 Y20 Z0.28 F5000.0 ;Move to start position
G1 X10.1 Y200.0 Z0.28 F1500.0 E15 ;Draw the first line
G1 X10.4 Y200.0 Z0.28 F5000.0 ;Move to side a little
G1 X10.4 Y20 Z0.28 F1500.0 E30 ;Draw the second line
G92 E0 ;Reset Extruder
G1 Z2.0 F3000 ;Move Z Axis up

G92 E0
G92 E0
G1 F1500 E-6.5
;LAYER_COUNT:86
;LAYER:0
M107
G0 F6000 X11.016 Y82.611 Z0.28
;TYPE:SKIRT
G1 F1500 E0
G1 F1200 X12.155 Y82.515 E0.05322
G1 X12.812 Y82.5 E0.08383
G1 X221.804 Y82.5 E9.81537
G1 X222.684 Y82.513 E9.85635
G1 X223.656 Y82.572 E9.90169
G1 X224.619 Y82.718 E9.94705
G1 X225.566 Y82.949 E9.99244
G1 X226.454 Y83.249 E10.03608
G1 X227.346 Y83.639 E10.08141
G1 X228.229 Y84.126 E10.12837
G1 X228.98 Y84.628 E10.17043
G1 X229.795 Y85.286 E10.2192
G1 X230.493 Y85.964 E10.26452
G1 X231.129 Y86.701 E10.30985
G1 X231.699 Y87.491 E10.35521
G1 X232.161 Y88.267 E10.39726
G1 X232.615 Y89.209 E10.44595
G1 X232.944 Y90.087 E10.48961
G1 X233.213 Y91.059 E10.53657
G1 X233.39 Y92.025 E10.5823
G1 X233.485 Y93.155 E10.63511
G1 X233.5 Y93.83 E10.66654
G1 X233.499 Y140.9 E12.85832
G1 X233.488 Y141.663 E12.89385
G1 X233.431 Y142.636 E12.93924
G1 X233.286 Y143.599 E12.98458
G1 X233.057 Y144.545 E13.02991
G1 X232.746 Y145.469 E13.0753
G1 X232.354 Y146.36 E13.12063
G1 X231.886 Y147.212 E13.16589
G1 X231.364 Y147.993 E13.20963
G1 X230.731 Y148.778 E13.25659
G1 X230.106 Y149.429 E13.29861
G1 X229.317 Y150.117 E13.34736
G1 X228.557 Y150.667 E13.39104
G1 X227.69 Y151.184 E13.43805
G1 X226.812 Y151.606 E13.48341
G1 X225.901 Y151.948 E13.52872
G1 X224.962 Y152.209 E13.5741
G1 X223.996 Y152.387 E13.61984
G1 X222.845 Y152.485 E13.67363
G1 X222.17 Y152.5 E13.70506
G1 X13.064 Y152.499 E23.44192
G1 X12.331 Y152.488 E23.47605
G1 X11.359 Y152.431 E23.52139
G1 X10.396 Y152.285 E23.56674
G1 X9.45 Y152.056 E23.61207
G1 X8.526 Y151.744 E23.65748
G1 X7.636 Y151.352 E23.70276
G1 X6.813 Y150.901 E23.74646
G1 X5.974 Y150.34 E23.79346
G1 X5.27 Y149.774 E23.83552
G1 X4.517 Y149.049 E23.88419
G1 X3.88 Y148.313 E23.92952
G1 X3.35 Y147.582 E23.97156
G1 X2.814 Y146.685 E24.02022
G1 X2.392 Y145.807 E24.06558
G1 X2.05 Y144.895 E24.11093
G1 X1.79 Y143.957 E24.15626
G1 X1.612 Y142.988 E24.20213
G1 X1.514 Y141.809 E24.25722
G1 X1.5 Y141.158 E24.28754
G1 X1.501 Y94.025 E26.48225
G1 X1.512 Y93.325 E26.51485
G1 X1.57 Y92.352 E26.56024
G1 X1.716 Y91.389 E26.60559
G1 X1.946 Y90.443 E26.65092
G1 X2.259 Y89.52 E26.69631
G1 X2.651 Y88.63 E26.74159
G1 X3.121 Y87.777 E26.78694
G1 X3.664 Y86.969 E26.83227
G1 X4.231 Y86.265 E26.87436
G1 X4.956 Y85.513 E26.923
G1 X5.692 Y84.876 E26.96832
G1 X6.424 Y84.346 E27.01041
G1 X7.321 Y83.811 E27.05904
G1 X8.199 Y83.39 E27.10438
G1 X9.112 Y83.048 E27.14978
G1 X10.049 Y82.789 E27.19504
G1 X11.016 Y82.611 E27.24083
G0 F6000 X11.05 Y83.01
G1 F1200 X12.189 Y82.914 E27.29405
G1 X12.821 Y82.9 E27.32349
G1 X221.798 Y82.9 E37.05433
G1 X222.66 Y82.912 E37.09448
G1 X223.597 Y82.968 E37.13818
G1 X224.525 Y83.107 E37.18188
G1 X225.438 Y83.328 E37.22562
G1 X226.294 Y83.616 E37.26767
G1 X227.186 Y84.006 E37.313
G1 X228.007 Y84.459 E37.35667
G1 X228.758 Y84.961 E37.39873
G1 X229.517 Y85.573 E37.44413
G1 X230.191 Y86.226 E37.48783
G1 X230.805 Y86.935 E37.5315
G1 X231.355 Y87.696 E37.57522
G1 X231.817 Y88.472 E37.61728
G1 X232.24 Y89.349 E37.66261
G1 X232.569 Y90.227 E37.70627
G1 X232.82 Y91.132 E37.75
G1 X232.991 Y92.059 E37.7939
G1 X233.086 Y93.189 E37.8467
G1 X233.1 Y93.83 E37.87656
G1 X233.099 Y140.895 E40.0681
G1 X233.089 Y141.64 E40.10279
G1 X233.035 Y142.577 E40.1465
G1 X232.897 Y143.506 E40.19023
G1 X232.678 Y144.418 E40.2339
G1 X232.38 Y145.308 E40.27761
G1 X232.003 Y146.168 E40.32133
G1 X231.553 Y146.99 E40.36497
G1 X231.031 Y147.771 E40.40871
G1 X230.442 Y148.501 E40.45238
G1 X229.817 Y149.152 E40.49441
G1 X229.082 Y149.793 E40.53982
G1 X228.322 Y150.343 E40.5835
G1 X227.516 Y150.824 E40.62721
G1 X226.671 Y151.232 E40.6709
G1 X225.793 Y151.563 E40.71459
G1 X224.889 Y151.816 E40.7583
G1 X223.962 Y151.988 E40.80221
G1 X222.811 Y152.086 E40.856
G1 X222.17 Y152.1 E40.88585
G1 X13.07 Y152.099 E50.62242
G1 X12.354 Y152.089 E50.65577
G1 X11.418 Y152.035 E50.69942
G1 X10.489 Y151.896 E50.74316
G1 X9.577 Y151.677 E50.78684
G1 X8.687 Y151.378 E50.83055
G1 X7.828 Y151.001 E50.87423
G1 X7.005 Y150.55 E50.91793
G1 X6.225 Y150.028 E50.96164
G1 X5.521 Y149.462 E51.0037
G1 X4.819 Y148.787 E51.04905
G1 X4.204 Y148.078 E51.09275
G1 X3.674 Y147.347 E51.13479
G1 X3.174 Y146.511 E51.18015
G1 X2.766 Y145.666 E51.22385
G1 X2.435 Y144.788 E51.26754
G1 X2.183 Y143.884 E51.31124
G1 X2.011 Y142.955 E51.35523
G1 X1.913 Y141.776 E51.41032
G1 X1.9 Y141.158 E51.4391
G1 X1.901 Y94.031 E53.63353
G1 X1.911 Y93.348 E53.66534
G1 X1.966 Y92.411 E53.70904
G1 X2.105 Y91.483 E53.75274
G1 X2.325 Y90.571 E53.79642
G1 X2.625 Y89.681 E53.84016
G1 X3.002 Y88.822 E53.88384
G1 X3.453 Y88 E53.9275
G1 X3.976 Y87.22 E53.97122
G1 X4.543 Y86.516 E54.01332
G1 X5.218 Y85.815 E54.05863
G1 X5.927 Y85.2 E54.10233
G1 X6.659 Y84.67 E54.14441
G1 X7.495 Y84.171 E54.18975
G1 X8.34 Y83.764 E54.23342
G1 X9.219 Y83.433 E54.27716
G1 X10.122 Y83.182 E54.3208
G1 X11.05 Y83.01 E54.36475
G0 F6000 X11.084 Y83.409
G1 F1200 X12.223 Y83.313 E54.41797
G1 X12.83 Y83.3 E54.44624
G1 X221.793 Y83.3 E64.17644
G1 X222.637 Y83.311 E64.21574
G1 X223.539 Y83.364 E64.25781
G1 X224.432 Y83.496 E64.29985
G1 X225.31 Y83.707 E64.34189
G1 X226.166 Y83.995 E64.38395
G1 X226.993 Y84.357 E64.42598
G1 X227.785 Y84.792 E64.46806
G1 X228.536 Y85.294 E64.51012
G1 X229.239 Y85.861 E64.55218
G1 X229.889 Y86.488 E64.59423
G1 X230.481 Y87.17 E64.63628
G1 X231.011 Y87.901 E64.67833
G1 X231.473 Y88.677 E64.72038
G1 X231.866 Y89.49 E64.76243
G1 X232.184 Y90.335 E64.80447
G1 X232.427 Y91.205 E64.84653
G1 X232.592 Y92.093 E64.88859
G1 X232.687 Y93.223 E64.94139
G1 X232.7 Y93.83 E64.96966
G1 X232.699 Y140.89 E67.16097
G1 X232.69 Y141.617 E67.19483
G1 X232.639 Y142.519 E67.23689
G1 X232.508 Y143.413 E67.27897
G1 X232.299 Y144.291 E67.32099
G1 X232.013 Y145.148 E67.36306
G1 X231.652 Y145.976 E67.40512
G1 X231.22 Y146.768 E67.44713
G1 X230.719 Y147.52 E67.48921
G1 X230.153 Y148.224 E67.53127
G1 X229.528 Y148.875 E67.57329
G1 X228.847 Y149.469 E67.61537
G1 X228.116 Y150 E67.65744
G1 X227.342 Y150.464 E67.69946
G1 X226.529 Y150.858 E67.74153
G1 X225.685 Y151.178 E67.78356
G1 X224.815 Y151.423 E67.82564
G1 X223.928 Y151.589 E67.86766
G1 X222.777 Y151.687 E67.92145
G1 X222.17 Y151.7 E67.94972
G1 X13.075 Y151.699 E77.68606
G1 X12.377 Y151.69 E77.71857
G1 X11.476 Y151.639 E77.76059
G1 X10.582 Y151.507 E77.80267
G1 X9.704 Y151.298 E77.84469
G1 X8.847 Y151.011 E77.88678
G1 X8.02 Y150.65 E77.9288
G1 X7.227 Y150.217 E77.97087
G1 X6.476 Y149.716 E78.0129
G1 X5.772 Y149.15 E78.05497
G1 X5.121 Y148.524 E78.09702
G1 X4.528 Y147.843 E78.13907
G1 X3.998 Y147.112 E78.18111
G1 X3.534 Y146.337 E78.22317
G1 X3.14 Y145.524 E78.26524
G1 X2.82 Y144.68 E78.30727
G1 X2.576 Y143.81 E78.34934
G1 X2.41 Y142.922 E78.39141
G1 X2.313 Y141.767 E78.44538
G1 X2.3 Y141.158 E78.47374
G1 X2.301 Y94.036 E80.66794
G1 X2.31 Y93.371 E80.69891
G1 X2.362 Y92.469 E80.74098
G1 X2.494 Y91.576 E80.78301
G1 X2.704 Y90.698 E80.82505
G1 X2.991 Y89.841 E80.86713
G1 X3.353 Y89.014 E80.90917
G1 X3.786 Y88.222 E80.9512
G1 X4.288 Y87.471 E80.99326
G1 X4.855 Y86.767 E81.03536
G1 X5.481 Y86.117 E81.07738
G1 X6.162 Y85.524 E81.11942
G1 X6.894 Y84.994 E81.1615
G1 X7.669 Y84.531 E81.20354
G1 X8.482 Y84.138 E81.24559
G1 X9.327 Y83.818 E81.28766
G1 X10.196 Y83.575 E81.32968
G1 X11.084 Y83.409 E81.37174
G1 F1500 E74.87174
;MESH:tm_misc_x1.stl
G0 F6000 X13.3 Y92.835
G0 X117.5 Y140.9
;TYPE:WALL-INNER
G1 F1500 E81.37174
G1 F1200 X221.9 Y140.9 E86.23305
G1 X221.9 Y94.1 E88.41225
G1 X13.1 Y94.1 E98.13485
G1 X13.1 Y140.9 E100.31406
G1 X117.5 Y140.9 E105.17536
G0 F6000 X117.5 Y141.3
;TYPE:WALL-OUTER
G1 F1200 X222.3 Y141.3 E110.05529
G1 X222.3 Y93.7 E112.27174
G1 X12.7 Y93.7 E122.03159
G1 X12.7 Y141.3 E124.24805
G1 X117.5 Y141.3 E129.12798
G0 F6000 X117.5 Y140.54
;TYPE:SKIN
G1 F1200 X13.46 Y140.54 E133.97252
G1 X13.46 Y94.46 E136.11819
G1 X221.54 Y94.46 E145.80727
G1 X221.54 Y140.54 E147.95295
G1 X117.5 Y140.54 E152.79749
G1 F1500 E146.29749
G0 F6000 X117.5 Y140.8
G0 X13.272 Y140.728
G0 X13.2 Y139.808
G0 X13.66 Y139.808
G1 F1500 E152.79749
G1 F1200 X14.192 Y140.339 E152.83249
G0 F6000 X14.757 Y140.339
G1 F1200 X13.66 Y139.242 E152.90473
G0 F6000 X13.66 Y138.676
G1 F1200 X15.323 Y140.339 E153.01424
G0 F6000 X15.889 Y140.339
G1 F1200 X13.66 Y138.111 E153.16099
G0 F6000 X13.66 Y137.545
G1 F1200 X16.454 Y140.339 E153.34498
G0 F6000 X17.02 Y140.339
G1 F1200 X13.66 Y136.979 E153.56624
G0 F6000 X13.66 Y136.414
G1 F1200 X17.586 Y140.339 E153.82474
G0 F6000 X18.151 Y140.339
G1 F1200 X13.66 Y135.848 E154.12048
G0 F6000 X13.66 Y135.282
G1 F1200 X18.717 Y140.339 E154.45349
G0 F6000 X19.283 Y140.339
G1 F1200 X13.66 Y134.717 E154.82374
G0 F6000 X13.66 Y134.151
G1 F1200 X19.848 Y140.339 E155.23123
G0 F6000 X20.414 Y140.339
G1 F1200 X13.66 Y133.585 E155.676
G0 F6000 X13.66 Y133.02
G1 F1200 X20.98 Y140.339 E156.158
G0 F6000 X21.546 Y140.339
G1 F1200 X13.66 Y132.454 E156.67727
G0 F6000 X13.66 Y131.888
G1 F1200 X22.111 Y140.339 E157.23378
G0 F6000 X22.677 Y140.339
G1 F1200 X13.66 Y131.322 E157.82757
G0 F6000 X13.66 Y130.757
G1 F1200 X23.243 Y140.339 E158.45859
G0 F6000 X23.808 Y140.339
G1 F1200 X13.66 Y130.191 E159.12686
G0 F6000 X13.66 Y129.625
G1 F1200 X24.374 Y140.339 E159.83239
G0 F6000 X24.94 Y140.339
G1 F1200 X13.66 Y129.06 E160.57516
G0 F6000 X13.66 Y128.494
G1 F1200 X25.505 Y140.339 E161.35518
G0 F6000 X26.071 Y140.339
G1 F1200 X13.66 Y127.928 E162.17246
G0 F6000 X13.66 Y127.363
G1 F1200 X26.637 Y140.339 E163.02699
G0 F6000 X27.202 Y140.339
G1 F1200 X13.66 Y126.797 E163.91875
G0 F6000 X13.66 Y126.231
G1 F1200 X27.768 Y140.339 E164.84779
G0 F6000 X28.334 Y140.339
G1 F1200 X13.66 Y125.666 E165.81406
G0 F6000 X13.66 Y125.1
G1 F1200 X28.899 Y140.339 E166.81758
G0 F6000 X29.465 Y140.339
G1 F1200 X13.66 Y124.534 E167.85836
G0 F6000 X13.66 Y123.969
G1 F1200 X30.031 Y140.339 E168.93639
G0 F6000 X30.597 Y140.339
G1 F1200 X13.66 Y123.403 E170.05169
G0 F6000 X13.66 Y122.837
G1 F1200 X31.162 Y140.339 E171.20422
G0 F6000 X31.728 Y140.339
G1 F1200 X13.66 Y122.271 E172.39403
G0 F6000 X13.66 Y121.706
G1 F1200 X32.294 Y140.339 E173.62108
G0 F6000 X32.859 Y140.339
G1 F1200 X13.66 Y121.14 E174.88537
G0 F6000 X13.66 Y120.574
G1 F1200 X33.425 Y140.339 E176.18693
G0 F6000 X33.991 Y140.339
G1 F1200 X13.66 Y120.009 E177.52572
G0 F6000 X13.66 Y119.443
G1 F1200 X34.556 Y140.339 E178.90176
G0 F6000 X35.122 Y140.339
G1 F1200 X13.66 Y118.877 E180.31507
G0 F6000 X13.66 Y118.312
G1 F1200 X35.688 Y140.339 E181.76562
G0 F6000 X36.253 Y140.339
G1 F1200 X13.66 Y117.746 E183.25341
G0 F6000 X13.66 Y117.18
G1 F1200 X36.819 Y140.339 E184.77847
G0 F6000 X37.385 Y140.339
G1 F1200 X13.66 Y116.615 E186.34077
G0 F6000 X13.66 Y116.049
G1 F1200 X37.95 Y140.339 E187.9403
G0 F6000 X38.516 Y140.339
G1 F1200 X13.66 Y115.483 E189.57711
G0 F6000 X13.66 Y114.918
G1 F1200 X39.082 Y140.339 E191.25116
G0 F6000 X39.647 Y140.339
G1 F1200 X13.66 Y114.352 E192.96245
G0 F6000 X13.66 Y113.786
G1 F1200 X40.213 Y140.339 E194.71101
G0 F6000 X40.779 Y140.339
G1 F1200 X13.66 Y113.221 E196.49681
G0 F6000 X13.66 Y112.655
G1 F1200 X41.345 Y140.339 E198.31988
G0 F6000 X41.91 Y140.339
G1 F1200 X13.66 Y112.089 E200.18019
G0 F6000 X13.66 Y111.523
G1 F1200 X42.476 Y140.339 E202.07778
G0 F6000 X43.042 Y140.339
G1 F1200 X13.66 Y110.958 E204.0126
G0 F6000 X13.66 Y110.392
G1 F1200 X43.607 Y140.339 E205.98466
G0 F6000 X44.173 Y140.339
G1 F1200 X13.66 Y109.826 E207.99399
G0 F6000 X13.66 Y109.261
G1 F1200 X44.739 Y140.339 E210.04056
G0 F6000 X45.304 Y140.339
G1 F1200 X13.66 Y108.695 E212.12438
G0 F6000 X13.66 Y108.129
G1 F1200 X45.87 Y140.339 E214.24546
G0 F6000 X46.436 Y140.339
G1 F1200 X13.66 Y107.564 E216.40378
G0 F6000 X13.66 Y106.998
G1 F1200 X47.001 Y140.339 E218.59934
G0 F6000 X47.567 Y140.339
G1 F1200 X13.66 Y106.432 E220.83218
G0 F6000 X13.66 Y105.867
G1 F1200 X48.133 Y140.339 E223.10225
G0 F6000 X48.698 Y140.339
G1 F1200 X13.66 Y105.301 E225.40956
G0 F6000 X13.66 Y104.735
G1 F1200 X49.264 Y140.339 E227.75415
G0 F6000 X49.83 Y140.339
G1 F1200 X13.66 Y104.17 E230.13597
G0 F6000 X13.66 Y103.604
G1 F1200 X50.396 Y140.339 E232.55507
G0 F6000 X50.961 Y140.339
G1 F1200 X13.66 Y103.038 E235.0114
G0 F6000 X13.66 Y102.473
G1 F1200 X51.527 Y140.339 E237.50497
G0 F6000 X52.093 Y140.339
G1 F1200 X13.66 Y101.907 E240.03582
G0 F6000 X13.66 Y101.341
G1 F1200 X52.658 Y140.339 E242.6039
G0 F6000 X53.224 Y140.339
G1 F1200 X13.66 Y100.775 E245.20926
G0 F6000 X13.66 Y100.21
G1 F1200 X53.79 Y140.339 E247.85186
G0 F6000 X54.355 Y140.339
G1 F1200 X13.66 Y99.644 E250.53169
G0 F6000 X13.66 Y99.078
G1 F1200 X54.921 Y140.339 E253.2488
G0 F6000 X55.487 Y140.339
G1 F1200 X13.66 Y98.513 E256.00315
G0 F6000 X13.66 Y97.947
G1 F1200 X56.052 Y140.339 E258.79473
G0 F6000 X56.618 Y140.339
G1 F1200 X13.66 Y97.381 E261.62359
G0 F6000 X13.66 Y96.816
G1 F1200 X57.184 Y140.339 E264.48969
G0 F6000 X57.749 Y140.339
G1 F1200 X13.66 Y96.25 E267.39302
G0 F6000 X13.66 Y95.684
G1 F1200 X58.315 Y140.339 E270.33363
G0 F6000 X58.881 Y140.339
G1 F1200 X13.66 Y95.119 E273.31148
G0 F6000 X13.767 Y94.66
G1 F1200 X59.446 Y140.339 E276.31952
G0 F6000 X60.012 Y140.339
G1 F1200 X14.333 Y94.66 E279.32756
G0 F6000 X14.899 Y94.66
G1 F1200 X60.578 Y140.339 E282.3356
G0 F6000 X61.144 Y140.339
G1 F1200 X15.464 Y94.66 E285.34367
G0 F6000 X16.03 Y94.66
G1 F1200 X61.709 Y140.339 E288.35171
G0 F6000 X62.275 Y140.339
G1 F1200 X16.596 Y94.66 E291.35975
G0 F6000 X17.161 Y94.66
G1 F1200 X62.841 Y140.339 E294.36782
G0 F6000 X63.406 Y140.339
G1 F1200 X17.727 Y94.66 E297.37586
G0 F6000 X18.293 Y94.66
G1 F1200 X63.972 Y140.339 E300.3839
G0 F6000 X64.538 Y140.339
G1 F1200 X18.859 Y94.66 E303.39195
G0 F6000 X19.424 Y94.66
G1 F1200 X65.103 Y140.339 E306.39999
G0 F6000 X65.669 Y140.339
G1 F1200 X19.99 Y94.66 E309.40803
G0 F6000 X20.556 Y94.66
G1 F1200 X66.235 Y140.339 E312.41607
G0 F6000 X66.8 Y140.339
G1 F1200 X21.121 Y94.66 E315.42411
G0 F6000 X21.687 Y94.66
G1 F1200 X67.366 Y140.339 E318.43215
G0 F6000 X67.932 Y140.339
G1 F1200 X22.253 Y94.66 E321.44019
G0 F6000 X22.818 Y94.66
G1 F1200 X68.497 Y140.339 E324.44823
G0 F6000 X69.063 Y140.339
G1 F1200 X23.384 Y94.66 E327.45627
G0 F6000 X23.95 Y94.66
G1 F1200 X69.629 Y140.339 E330.46431
G0 F6000 X70.194 Y140.339
G1 F1200 X24.515 Y94.66 E333.47235
G0 F6000 X25.081 Y94.66
G1 F1200 X70.76 Y140.339 E336.48039
G0 F6000 X71.326 Y140.339
G1 F1200 X25.647 Y94.66 E339.48843
G0 F6000 X26.212 Y94.66
G1 F1200 X71.892 Y140.339 E342.4965
G0 F6000 X72.457 Y140.339
G1 F1200 X26.778 Y94.66 E345.50454
G0 F6000 X27.344 Y94.66
G1 F1200 X73.023 Y140.339 E348.51258
G0 F6000 X73.589 Y140.339
G1 F1200 X27.91 Y94.66 E351.52062
G0 F6000 X28.475 Y94.66
G1 F1200 X74.154 Y140.339 E354.52866
G0 F6000 X74.72 Y140.339
G1 F1200 X29.041 Y94.66 E357.5367
G0 F6000 X29.607 Y94.66
G1 F1200 X75.286 Y140.339 E360.54474
G0 F6000 X75.851 Y140.339
G1 F1200 X30.172 Y94.66 E363.55278
G0 F6000 X30.738 Y94.66
G1 F1200 X76.417 Y140.339 E366.56082
G0 F6000 X76.983 Y140.339
G1 F1200 X31.304 Y94.66 E369.56886
G0 F6000 X31.869 Y94.66
G1 F1200 X77.548 Y140.339 E372.5769
G0 F6000 X78.114 Y140.339
G1 F1200 X32.435 Y94.66 E375.58494
G0 F6000 X33.001 Y94.66
G1 F1200 X78.68 Y140.339 E378.59298
G0 F6000 X79.245 Y140.339
G1 F1200 X33.566 Y94.66 E381.60102
G0 F6000 X34.132 Y94.66
G1 F1200 X79.811 Y140.339 E384.60906
G0 F6000 X80.377 Y140.339
