;FLAVOR:Marlin
;TIME:12000
;Filament used: 12.3527m
;Layer height: 0.28
;MINX:1.5
;MINY:71.5
;MINZ:0.28
;MAXX:233.5
;MAXY:163.5
;MAXZ:24.08
;TARGET_MACHINE.NAME:Creality CR-6 SE
;Generated with Cura_SteamEngine 5.8.1
M140 S60
M105
M190 S60
M104 S200
M105
M109 S200
M82 ;absolute extrusion mode
M201 X500.00 Y500.00 Z100.00 E5000.00 ;Setup machine max acceleration
M203 X500.00 Y500.00 Z10.00 E50.00 ;Setup machine max feedrate
M204 P500.00 R1000.00 T500.00 ;Setup Print/Retract/Travel acceleration
M205 X8.00 Y8.00 Z0.40 E5.00 ;Setup Jerk
M220 S100 ;Reset Feedrate
M221 S100 ;Reset Flowrate

G28 ;Home

G92 E0 ;Reset Extruder
G1 Z2.0 F3000 ;Move Z Axis up
G1 X10.1 Y20 Z0.28 F5000.0 ;Move to start position
G1 X10.1 Y200.0 Z0.28 F1500.0 E15 ;Draw the first line
G1 X10.4 Y200.0 Z0.28 F5000.0 ;Move to side a little
G1 X10.4 Y20 Z0.28 F1500.0 E30 ;Draw the second line
G92 E0 ;Reset Extruder
G1 Z2.0 F3000 ;Move Z Axis up

G92 E0
G92 E0
G1 F1500 E-6.5
;LAYER_COUNT:86
;LAYER:0
M107
G0 F6000 X11.016 Y71.611 Z0.28
;TYPE:SKIRT
G1 F1500 E0
G1 F1200 X12.155 Y71.515 E0.05322
G1 X12.812 Y71.5 E0.08383
G1 X221.804 Y71.5 E9.81537
G1 X222.684 Y71.513 E9.85635
G1 X223.656 Y71.572 E9.90169
G1 X224.619 Y71.718 E9.94705
G1 X225.566 Y71.949 E9.99244
G1 X226.454 Y72.249 E10.03608
G1 X227.346 Y72.639 E10.08141
G1 X228.229 Y73.126 E10.12837
G1 X228.98 Y73.628 E10.17043
G1 X229.795 Y74.286 E10.2192
G1 X230.493 Y74.964 E10.26452
G1 X231.129 Y75.701 E10.30985
G1 X231.699 Y76.491 E10.35521
G1 X232.161 Y77.267 E10.39726
G1 X232.615 Y78.209 E10.44595
G1 X232.944 Y79.087 E10.48961
G1 X233.213 Y80.059 E10.53657
G1 X233.39 Y81.025 E10.5823
G1 X233.485 Y82.155 E10.63511
G1 X233.5 Y82.83 E10.66654
G1 X233.499 Y151.9 E13.88273
G1 X233.488 Y152.663 E13.91826
G1 X233.431 Y153.636 E13.96365
G1 X233.286 Y154.599 E14.009
G1 X233.057 Y155.545 E14.05432
G1 X232.746 Y156.469 E14.09971
G1 X232.354 Y157.36 E14.14504
G1 X231.886 Y158.212 E14.19031
G1 X231.364 Y158.993 E14.23405
G1 X230.731 Y159.778 E14.281
G1 X230.106 Y160.429 E14.32303
G1 X229.317 Y161.117 E14.37177
G1 X228.557 Y161.667 E14.41545
G1 X227.69 Y162.184 E14.46246
G1 X226.812 Y162.606 E14.50782
G1 X225.901 Y162.948 E14.55313
G1 X224.962 Y163.209 E14.59851
G1 X223.996 Y163.387 E14.64425
G1 X222.845 Y163.485 E14.69804
G1 X222.17 Y163.5 E14.72948
G1 X13.064 Y163.499 E24.46633
G1 X12.331 Y163.488 E24.50046
G1 X11.359 Y163.431 E24.5458
G1 X10.396 Y163.285 E24.59116
G1 X9.45 Y163.056 E24.63648
G1 X8.526 Y162.744 E24.68189
G1 X7.636 Y162.352 E24.72717
G1 X6.813 Y161.901 E24.77087
G1 X5.974 Y161.34 E24.81787
G1 X5.27 Y160.774 E24.85993
G1 X4.517 Y160.049 E24.9086
G1 X3.88 Y159.313 E24.95393
G1 X3.35 Y158.582 E24.99597
G1 X2.814 Y157.685 E25.04463
G1 X2.392 Y156.807 E25.08999
G1 X2.05 Y155.895 E25.13534
G1 X1.79 Y154.957 E25.18067
G1 X1.612 Y153.988 E25.22654
G1 X1.514 Y152.809 E25.28163
G1 X1.5 Y152.158 E25.31195
G1 X1.501 Y134.993 E26.11123
G1 X1.514 Y134.248 E26.14592
G1 X1.572 Y133.289 E26.19066
G1 X1.646 Y132.739 E26.2165
G1 X1.925 Y130.969 E26.29994
G1 X2.276 Y128.427 E26.41943
G1 X2.548 Y125.94 E26.53592
G1 X2.758 Y123.384 E26.65534
G1 X2.885 Y120.913 E26.77055
G1 X2.947 Y118.371 E26.88895
G1 X2.938 Y115.865 E27.00564
G1 X2.854 Y113.313 E27.12454
G1 X2.705 Y110.844 E27.23972
G1 X2.478 Y108.302 E27.35855
G1 X2.188 Y105.842 E27.47389
G1 X1.818 Y103.314 E27.59286
G1 X1.655 Y102.328 E27.6394
G1 X1.516 Y100.897 E27.70635
G1 X1.502 Y100.299 E27.7342
G1 X1.5 Y83.165 E28.53203
G1 X1.512 Y82.325 E28.57115
G1 X1.57 Y81.352 E28.61653
G1 X1.716 Y80.389 E28.66189
G1 X1.946 Y79.443 E28.70722
G1 X2.259 Y78.52 E28.7526
G1 X2.651 Y77.63 E28.79789
G1 X3.121 Y76.777 E28.84324
G1 X3.664 Y75.969 E28.88857
G1 X4.231 Y75.265 E28.93066
G1 X4.956 Y74.513 E28.9793
G1 X5.692 Y73.876 E29.02462
G1 X6.424 Y73.346 E29.0667
G1 X7.321 Y72.811 E29.11534
G1 X8.199 Y72.39 E29.16068
G1 X9.112 Y72.048 E29.20608
G1 X10.049 Y71.789 E29.25134
G1 X11.016 Y71.611 E29.29713
G0 F6000 X11.05 Y72.01
G1 F1200 X12.189 Y71.914 E29.35035
G1 X12.821 Y71.9 E29.37979
G1 X221.798 Y71.9 E39.11063
G1 X222.66 Y71.912 E39.15077
G1 X223.597 Y71.968 E39.19448
G1 X224.525 Y72.107 E39.23818
G1 X225.438 Y72.328 E39.28192
G1 X226.294 Y72.616 E39.32397
G1 X227.186 Y73.006 E39.3693
G1 X228.007 Y73.459 E39.41297
G1 X228.758 Y73.961 E39.45503
G1 X229.517 Y74.573 E39.50043
G1 X230.191 Y75.226 E39.54413
G1 X230.805 Y75.935 E39.5878
G1 X231.355 Y76.696 E39.63152
G1 X231.817 Y77.472 E39.67357
G1 X232.24 Y78.349 E39.71891
G1 X232.569 Y79.227 E39.76257
G1 X232.82 Y80.132 E39.8063
G1 X232.991 Y81.059 E39.8502
G1 X233.086 Y82.189 E39.903
G1 X233.1 Y82.83 E39.93285
G1 X233.099 Y151.895 E43.14881
G1 X233.089 Y152.64 E43.1835
G1 X233.035 Y153.577 E43.22721
G1 X232.897 Y154.506 E43.27094
G1 X232.678 Y155.418 E43.31461
G1 X232.38 Y156.308 E43.35832
G1 X232.003 Y157.168 E43.40204
G1 X231.553 Y157.99 E43.44568
G1 X231.031 Y158.771 E43.48942
G1 X230.442 Y159.501 E43.53309
G1 X229.817 Y160.152 E43.57512
G1 X229.082 Y160.793 E43.62053
G1 X228.322 Y161.343 E43.66421
G1 X227.516 Y161.824 E43.70792
G1 X226.671 Y162.232 E43.75161
G1 X225.793 Y162.563 E43.7953
G1 X224.889 Y162.816 E43.83901
G1 X223.962 Y162.988 E43.88292
G1 X222.811 Y163.086 E43.93671
G1 X222.17 Y163.1 E43.96656
G1 X13.07 Y163.099 E53.70313
G1 X12.354 Y163.089 E53.73648
G1 X11.418 Y163.035 E53.78013
G1 X10.489 Y162.896 E53.82387
G1 X9.577 Y162.677 E53.86755
G1 X8.687 Y162.378 E53.91126
G1 X7.828 Y162.001 E53.95495
G1 X7.005 Y161.55 E53.99864
G1 X6.225 Y161.028 E54.04235
G1 X5.521 Y160.462 E54.08441
G1 X4.819 Y159.787 E54.12976
G1 X4.204 Y159.078 E54.17346
G1 X3.674 Y158.347 E54.2155
G1 X3.174 Y157.511 E54.26086
G1 X2.766 Y156.666 E54.30456
G1 X2.435 Y155.788 E54.34825
G1 X2.183 Y154.884 E54.39195
G1 X2.011 Y153.955 E54.43594
G1 X1.913 Y152.776 E54.49103
G1 X1.9 Y152.158 E54.51981
G1 X1.901 Y135 E55.31876
G1 X1.913 Y134.272 E55.35266
G1 X1.969 Y133.342 E55.39605
G1 X2.041 Y132.801 E55.42146
G1 X2.32 Y131.031 E55.5049
G1 X2.674 Y128.47 E55.62528
G1 X2.946 Y125.983 E55.74178
G1 X3.156 Y123.417 E55.86166
G1 X3.285 Y120.923 E55.97795
G1 X3.347 Y118.381 E56.09635
G1 X3.338 Y115.864 E56.21355
G1 X3.254 Y113.3 E56.33301
G1 X3.104 Y110.82 E56.4487
G1 X2.876 Y108.266 E56.56809
G1 X2.584 Y105.784 E56.68446
G1 X2.214 Y103.256 E56.80343
G1 X2.05 Y102.263 E56.8503
G1 X1.916 Y100.887 E56.91467
G1 X1.902 Y100.299 E56.94206
G1 X1.9 Y83.17 E57.73966
G1 X1.911 Y82.348 E57.77794
G1 X1.966 Y81.411 E57.82164
G1 X2.105 Y80.483 E57.86534
G1 X2.325 Y79.571 E57.90902
G1 X2.625 Y78.681 E57.95275
G1 X3.002 Y77.822 E57.99643
G1 X3.453 Y77 E58.04009
G1 X3.976 Y76.22 E58.08382
G1 X4.543 Y75.516 E58.12591
G1 X5.218 Y74.815 E58.17123
G1 X5.927 Y74.2 E58.21493
G1 X6.659 Y73.67 E58.25701
G1 X7.495 Y73.171 E58.30235
G1 X8.34 Y72.764 E58.34602
G1 X9.219 Y72.433 E58.38976
G1 X10.122 Y72.182 E58.4334
G1 X11.05 Y72.01 E58.47734
G0 F6000 X11.084 Y72.409
G1 F1200 X12.223 Y72.313 E58.53057
G1 X12.83 Y72.3 E58.55884
G1 X221.793 Y72.3 E68.28903
G1 X222.637 Y72.311 E68.32834
G1 X223.539 Y72.364 E68.37041
G1 X224.432 Y72.496 E68.41244
G1 X225.31 Y72.707 E68.45449
G1 X226.166 Y72.995 E68.49654
G1 X226.993 Y73.357 E68.53858
G1 X227.785 Y73.792 E68.58066
G1 X228.536 Y74.294 E68.62272
G1 X229.239 Y74.861 E68.66477
G1 X229.889 Y75.488 E68.70683
G1 X230.481 Y76.17 E68.74888
G1 X231.011 Y76.901 E68.79092
G1 X231.473 Y77.677 E68.83298
G1 X231.866 Y78.49 E68.87502
G1 X232.184 Y79.335 E68.91706
G1 X232.427 Y80.205 E68.95913
G1 X232.592 Y81.093 E69.00118
G1 X232.687 Y82.223 E69.05399
G1 X232.7 Y82.83 E69.08226
G1 X232.699 Y151.89 E72.29798
G1 X232.69 Y152.617 E72.33183
G1 X232.639 Y153.519 E72.3739
G1 X232.508 Y154.413 E72.41598
G1 X232.299 Y155.291 E72.458
G1 X232.013 Y156.148 E72.50007
G1 X231.652 Y156.976 E72.54213
G1 X231.22 Y157.768 E72.58414
G1 X230.719 Y158.52 E72.62621
G1 X230.153 Y159.224 E72.66828
G1 X229.528 Y159.875 E72.7103
G1 X228.847 Y160.469 E72.75238
G1 X228.116 Y161 E72.79445
G1 X227.342 Y161.464 E72.83647
G1 X226.529 Y161.858 E72.87854
G1 X225.685 Y162.178 E72.92057
G1 X224.815 Y162.423 E72.96265
G1 X223.928 Y162.589 E73.00467
G1 X222.777 Y162.687 E73.05846
G1 X222.17 Y162.7 E73.08673
G1 X13.075 Y162.699 E82.82307
G1 X12.377 Y162.69 E82.85558
G1 X11.476 Y162.639 E82.8976
G1 X10.582 Y162.507 E82.93968
G1 X9.704 Y162.298 E82.9817
G1 X8.847 Y162.011 E83.02379
G1 X8.02 Y161.65 E83.0658
G1 X7.227 Y161.217 E83.10788
G1 X6.476 Y160.716 E83.14991
G1 X5.772 Y160.15 E83.19197
G1 X5.121 Y159.524 E83.23403
G1 X4.528 Y158.843 E83.27608
G1 X3.998 Y158.112 E83.31812
G1 X3.534 Y157.337 E83.36018
G1 X3.14 Y156.524 E83.40225
G1 X2.82 Y155.68 E83.44428
G1 X2.576 Y154.81 E83.48635
G1 X2.41 Y153.922 E83.52842
G1 X2.313 Y152.767 E83.58239
G1 X2.3 Y152.158 E83.61075
G1 X2.301 Y135.006 E84.40942
G1 X2.312 Y134.296 E84.44249
G1 X2.366 Y133.394 E84.48456
G1 X2.436 Y132.863 E84.5095
G1 X2.715 Y131.093 E84.59294
G1 X3.072 Y128.513 E84.71422
G1 X3.344 Y126.026 E84.83071
G1 X3.554 Y123.449 E84.95111
G1 X3.685 Y120.933 E85.06842
G1 X3.747 Y118.391 E85.18682
G1 X3.738 Y115.863 E85.30454
G1 X3.654 Y113.287 E85.42455
G1 X3.503 Y110.796 E85.54076
G1 X3.274 Y108.23 E85.66071
G1 X2.98 Y105.726 E85.77811
G1 X2.61 Y103.198 E85.89708
G1 X2.445 Y102.198 E85.94427
G1 X2.316 Y100.877 E86.00608
G1 X2.302 Y100.299 E86.033
G1 X2.3 Y83.175 E86.83037
G1 X2.31 Y82.371 E86.86781
G1 X2.362 Y81.469 E86.90988
G1 X2.494 Y80.576 E86.95191
G1 X2.704 Y79.698 E86.99395
G1 X2.991 Y78.841 E87.03603
G1 X3.353 Y78.014 E87.07807
G1 X3.786 Y77.222 E87.1201
G1 X4.288 Y76.471 E87.16216
G1 X4.855 Y75.767 E87.20425
G1 X5.481 Y75.117 E87.24627
G1 X6.162 Y74.524 E87.28832
G1 X6.894 Y73.994 E87.3304
G1 X7.669 Y73.531 E87.37244
G1 X8.482 Y73.138 E87.41449
G1 X9.327 Y72.818 E87.45656
G1 X10.196 Y72.575 E87.49858
G1 X11.084 Y72.409 E87.54064
G1 F1500 E81.04064
;MESH:tm_merch_x1.stl
G0 F6000 X13.3 Y81.835
G0 X117.5 Y151.9
;TYPE:WALL-INNER
G1 F1500 E87.54064
G1 F1200 X221.9 Y151.9 E92.40194
G1 X221.9 Y83.1 E95.60556
G1 X13.1 Y83.1 E105.32816
G1 X13.1 Y99.9 E106.11044
G1 X15.255 Y99.907 E106.21079
G1 X15.499 Y99.936 E106.22223
G1 X15.749 Y99.907 E106.23395
G1 X56.715 Y99.904 E108.1415
G1 X57.282 Y99.978 E108.16812
G1 X57.824 Y100.149 E108.19459
G1 X58.335 Y100.392 E108.22093
G1 X58.885 Y100.793 E108.25263
G1 X59.335 Y101.265 E108.28299
G1 X59.655 Y101.767 E108.31071
G1 X59.846 Y102.169 E108.33144
G1 X60.016 Y102.687 E108.35682
G1 X60.095 Y103.292 E108.38523
G1 X60.091 Y131.736 E109.70971
G1 X60.016 Y132.309 E109.73662
G1 X59.846 Y132.826 E109.76196
G1 X59.615 Y133.317 E109.78722
G1 X59.216 Y133.87 E109.81898
G1 X58.733 Y134.333 E109.85013
G1 X58.198 Y134.67 E109.87957
G1 X57.825 Y134.846 E109.89878
G1 X57.353 Y134.994 E109.92181
G1 X56.837 Y135.09 E109.94625
G1 X15.865 Y135.1 E111.85408
G1 X15.498 Y135.061 E111.87126
G1 X15.187 Y135.092 E111.88582
G1 X13.1 Y135.1 E111.983
G1 X13.1 Y151.9 E112.76528
G1 X117.5 Y151.9 E117.62658
G0 F6000 X117.5 Y152.3
;TYPE:WALL-OUTER
G1 F1200 X222.3 Y152.3 E122.5065
G1 X222.3 Y82.7 E125.74737
G1 X12.7 Y82.7 E135.50723
G1 X12.7 Y100.3 E136.32676
G1 X15.209 Y100.305 E136.44359
G1 X15.499 Y100.338 E136.45718
G1 X15.791 Y100.305 E136.47086
G1 X56.665 Y100.301 E138.37412
G1 X57.196 Y100.368 E138.39905
G1 X57.678 Y100.521 E138.42259
G1 X58.131 Y100.736 E138.44594
G1 X58.621 Y101.093 E138.47417
G1 X59.027 Y101.52 E138.50161
G1 X59.304 Y101.959 E138.52578
G1 X59.479 Y102.329 E138.54484
G1 X59.63 Y102.791 E138.56747
G1 X59.696 Y103.332 E138.59285
G1 X59.691 Y131.712 E139.91434
G1 X59.63 Y132.205 E139.93747
G1 X59.479 Y132.667 E139.9601
G1 X59.264 Y133.125 E139.98366
G1 X58.907 Y133.616 E140.01193
G1 X58.477 Y134.026 E140.0396
G1 X58.047 Y134.298 E140.06329
G1 X57.678 Y134.474 E140.08233
G1 X57.278 Y134.601 E140.10187
G1 X56.799 Y134.692 E140.12457
G1 X15.824 Y134.698 E142.03254
G1 X15.499 Y134.658 E142.04779
G1 X15.205 Y134.691 E142.06156
G1 X12.7 Y134.699 E142.17821
G1 X12.7 Y152.3 E142.99778
G1 X117.5 Y152.3 E147.87771
G0 F6000 X117.5 Y151.54
;TYPE:SKIN
G1 F1200 X13.46 Y151.54 E152.72225
G1 X13.46 Y135.456 E153.47119
G1 X15.177 Y135.452 E153.55114
G1 X15.495 Y135.422 E153.56601
G1 X15.842 Y135.459 E153.58226
G1 X56.885 Y135.451 E155.49339
G1 X57.534 Y135.319 E155.52423
G1 X57.942 Y135.187 E155.5442
G1 X58.37 Y134.987 E155.5662
G1 X58.922 Y134.643 E155.59648
G1 X59.478 Y134.119 E155.63206
G1 X59.916 Y133.521 E155.66657
G1 X60.187 Y132.946 E155.69617
G1 X60.374 Y132.368 E155.72446
G1 X60.451 Y131.736 E155.75411
G1 X60.456 Y103.308 E157.07783
G1 X60.374 Y102.623 E157.10996
G1 X60.187 Y102.049 E157.13807
G1 X59.973 Y101.601 E157.16119
G1 X59.61 Y101.031 E157.19265
G1 X59.103 Y100.506 E157.22664
G1 X58.519 Y100.08 E157.2603
G1 X57.97 Y99.819 E157.2886
G1 X57.36 Y99.624 E157.31842
G1 X56.718 Y99.541 E157.34857
G1 X15.711 Y99.549 E159.25802
G1 X15.494 Y99.571 E159.26818
G1 X15.194 Y99.544 E159.28221
G1 X13.46 Y99.536 E159.36295
G1 X13.46 Y83.46 E160.11152
G1 X221.54 Y83.46 E169.80059
G1 X221.54 Y151.54 E172.97068
G1 X117.5 Y151.54 E177.81522
G1 F1500 E171.31522
G0 F6000 X117.5 Y151.8
G0 X13.878 Y151.8
G0 X13.878 Y151.34
G1 F1500 E177.81522
G1 F1200 X13.66 Y151.121 E177.82961
G0 F6000 X13.66 Y150.556
G1 F1200 X14.444 Y151.34 E177.88124
G0 F6000 X15.01 Y151.34
G1 F1200 X13.66 Y149.99 E177.97014
G0 F6000 X13.66 Y149.424
G1 F1200 X15.575 Y151.34 E178.09628
G0 F6000 X16.141 Y151.34
G1 F1200 X13.66 Y148.859 E178.25965
G0 F6000 X13.66 Y148.293
G1 F1200 X16.707 Y151.34 E178.4603
G0 F6000 X17.272 Y151.34
G1 F1200 X13.66 Y147.727 E178.69819
G0 F6000 X13.66 Y147.162
G1 F1200 X17.838 Y151.34 E178.97332
G0 F6000 X18.404 Y151.34
G1 F1200 X13.66 Y146.596 E179.28572
G0 F6000 X13.66 Y146.03
G1 F1200 X18.97 Y151.34 E179.63539
G0 F6000 X19.535 Y151.34
G1 F1200 X13.66 Y145.465 E180.02227
G0 F6000 X13.66 Y144.899
G1 F1200 X20.101 Y151.34 E180.44642
G0 F6000 X20.667 Y151.34
G1 F1200 X13.66 Y144.333 E180.90785
G0 F6000 X13.66 Y143.768
G1 F1200 X21.232 Y151.34 E181.40648
G0 F6000 X21.798 Y151.34
G1 F1200 X13.66 Y143.202 E181.94238
G0 F6000 X13.66 Y142.636
G1 F1200 X22.364 Y151.34 E182.51555
G0 F6000 X22.929 Y151.34
G1 F1200 X13.66 Y142.07 E183.12596
G0 F6000 X13.66 Y141.505
G1 F1200 X23.495 Y151.34 E183.77361
G0 F6000 X24.061 Y151.34
G1 F1200 X13.66 Y140.939 E184.45854
G0 F6000 X13.66 Y140.373
G1 F1200 X24.626 Y151.34 E185.1807
G0 F6000 X25.192 Y151.34
G1 F1200 X13.66 Y139.808 E185.9401
G0 F6000 X13.66 Y139.242
G1 F1200 X25.758 Y151.34 E186.73678
G0 F6000 X26.323 Y151.34
G1 F1200 X13.66 Y138.676 E187.57069
G0 F6000 X13.66 Y138.111
G1 F1200 X26.889 Y151.34 E188.44184
G0 F6000 X27.455 Y151.34
G1 F1200 X13.66 Y137.545 E189.35027
G0 F6000 X13.66 Y136.979
G1 F1200 X28.021 Y151.34 E190.29596
G0 F6000 X28.586 Y151.34
G1 F1200 X13.66 Y136.414 E191.27887
G0 F6000 X13.66 Y135.848
G1 F1200 X29.152 Y151.34 E192.29904
G0 F6000 X29.718 Y151.34
G1 F1200 X14.033 Y135.655 E193.33192
G0 F6000 X14.597 Y135.653
G1 F1200 X30.283 Y151.34 E194.36491
G0 F6000 X30.849 Y151.34
G1 F1200 X15.162 Y135.653 E195.39792
G0 F6000 X15.723 Y135.648
G1 F1200 X31.415 Y151.34 E196.43127
G0 F6000 X31.98 Y151.34
G1 F1200 X16.298 Y135.658 E197.46395
G0 F6000 X16.864 Y135.658
G1 F1200 X32.546 Y151.34 E198.49664
G0 F6000 X33.112 Y151.34
G1 F1200 X17.429 Y135.658 E199.52936
G0 F6000 X17.995 Y135.658
G1 F1200 X33.677 Y151.34 E200.56205
G0 F6000 X34.243 Y151.34
G1 F1200 X18.561 Y135.658 E201.59473
G0 F6000 X19.127 Y135.658
G1 F1200 X34.809 Y151.34 E202.62742
G0 F6000 X35.374 Y151.34
G1 F1200 X19.692 Y135.657 E203.66014
G0 F6000 X20.257 Y135.657
G1 F1200 X35.94 Y151.34 E204.69289
G0 F6000 X36.506 Y151.34
G1 F1200 X20.823 Y135.657 E205.72564
G0 F6000 X21.389 Y135.657
G1 F1200 X37.071 Y151.34 E206.75836
G0 F6000 X37.637 Y151.34
G1 F1200 X21.954 Y135.657 E207.79112
G0 F6000 X22.52 Y135.657
G1 F1200 X38.203 Y151.34 E208.82387
G0 F6000 X38.769 Y151.34
G1 F1200 X23.086 Y135.657 E209.85662
G0 F6000 X23.651 Y135.656
G1 F1200 X39.334 Y151.34 E210.88941
G0 F6000 X39.9 Y151.34
G1 F1200 X24.216 Y135.656 E211.92222
G0 F6000 X24.782 Y135.656
G1 F1200 X40.466 Y151.34 E212.95504
G0 F6000 X41.031 Y151.34
G1 F1200 X25.348 Y135.656 E213.98783
G0 F6000 X25.913 Y135.656
