;FLAVOR:Marlin
;TIME:6582
;Filament used: 6.68959m
;Layer height: 0.28
;MINX:54
;MINY:76.5
;MINZ:0.28
;MAXX:181
;MAXY:158.5
;MAXZ:28
;TARGET_MACHINE.NAME:Creality CR-6 SE
;Generated with Cura_SteamEngine 5.8.1
M140 S60
M105
M190 S60
M104 S200
M105
M109 S200
M82 ;absolute extrusion mode
M201 X500.00 Y500.00 Z100.00 E5000.00 ;Setup machine max acceleration
M203 X500.00 Y500.00 Z10.00 E50.00 ;Setup machine max feedrate
M204 P500.00 R1000.00 T500.00 ;Setup Print/Retract/Travel acceleration
M205 X8.00 Y8.00 Z0.40 E5.00 ;Setup Jerk
M220 S100 ;Reset Feedrate
M221 S100 ;Reset Flowrate

G28 ;Home

G92 E0 ;Reset Extruder
G1 Z2.0 F3000 ;Move Z Axis up
G1 X10.1 Y20 Z0.28 F5000.0 ;Move to start position
G1 X10.1 Y200.0 Z0.28 F1500.0 E15 ;Draw the first line
G1 X10.4 Y200.0 Z0.28 F5000.0 ;Move to side a little
G1 X10.4 Y20 Z0.28 F1500.0 E30 ;Draw the second line
G92 E0 ;Reset Extruder
G1 Z2.0 F3000 ;Move Z Axis up

G92 E0
G92 E0
G1 F1500 E-6.5
;LAYER_COUNT:100
;LAYER:0
M107
G0 F6000 X58.192 Y78.876 Z0.28
;TYPE:SKIRT
G1 F1500 E0
G1 F1200 X58.924 Y78.346 E0.04208
G1 X59.821 Y77.811 E0.09071
G1 X60.699 Y77.39 E0.13605
G1 X61.612 Y77.048 E0.18145
G1 X62.549 Y76.789 E0.22672
G1 X63.516 Y76.611 E0.2725
G1 X64.655 Y76.515 E0.32573
G1 X65.312 Y76.5 E0.35633
G1 X169.304 Y76.5 E5.19863
G1 X170.184 Y76.513 E5.23961
G1 X171.156 Y76.572 E5.28496
G1 X172.119 Y76.718 E5.33031
G1 X173.066 Y76.949 E5.3757
G1 X173.954 Y77.249 E5.41934
G1 X174.846 Y77.639 E5.46468
G1 X175.729 Y78.126 E5.51163
G1 X176.48 Y78.628 E5.55369
G1 X177.295 Y79.286 E5.60247
G1 X177.993 Y79.964 E5.64778
G1 X178.629 Y80.701 E5.69311
G1 X179.199 Y81.491 E5.73847
G1 X179.661 Y82.267 E5.78052
G1 X180.115 Y83.209 E5.82921
G1 X180.444 Y84.087 E5.87287
G1 X180.713 Y85.059 E5.91984
G1 X180.89 Y86.025 E5.96557
G1 X180.985 Y87.155 E6.01837
G1 X181 Y87.83 E6.04981
G1 X180.999 Y146.9 E8.80035
G1 X180.988 Y147.663 E8.83589
G1 X180.931 Y148.636 E8.88127
G1 X180.786 Y149.599 E8.92662
G1 X180.557 Y150.545 E8.97194
G1 X180.246 Y151.469 E9.01734
G1 X179.854 Y152.36 E9.06266
G1 X179.386 Y153.212 E9.10793
G1 X178.864 Y153.993 E9.15167
G1 X178.231 Y154.778 E9.19862
G1 X177.606 Y155.429 E9.24065
G1 X176.817 Y156.117 E9.28939
G1 X176.057 Y156.667 E9.33308
G1 X175.19 Y157.184 E9.38008
G1 X174.312 Y157.606 E9.42544
G1 X173.401 Y157.948 E9.47075
G1 X172.462 Y158.209 E9.51613
G1 X171.496 Y158.387 E9.56187
G1 X170.345 Y158.485 E9.61566
G1 X169.67 Y158.5 E9.6471
G1 X65.564 Y158.499 E14.49471
G1 X64.831 Y158.488 E14.52885
G1 X63.859 Y158.431 E14.57418
G1 X62.896 Y158.285 E14.61954
G1 X61.95 Y158.056 E14.66486
G1 X61.026 Y157.744 E14.71027
G1 X60.136 Y157.352 E14.75555
G1 X59.313 Y156.901 E14.79925
G1 X58.474 Y156.34 E14.84625
G1 X57.77 Y155.774 E14.88831
G1 X57.017 Y155.049 E14.93699
G1 X56.38 Y154.313 E14.98231
G1 X55.85 Y153.582 E15.02435
G1 X55.314 Y152.685 E15.07301
G1 X54.892 Y151.807 E15.11837
G1 X54.55 Y150.895 E15.16373
G1 X54.29 Y149.957 E15.20905
G1 X54.112 Y148.988 E15.25493
G1 X54.014 Y147.809 E15.31001
G1 X54 Y147.158 E15.34033
G1 X54.001 Y88.025 E18.09381
G1 X54.012 Y87.325 E18.12641
G1 X54.07 Y86.352 E18.1718
G1 X54.216 Y85.389 E18.21715
G1 X54.446 Y84.443 E18.26249
G1 X54.759 Y83.52 E18.30787
G1 X55.151 Y82.63 E18.35315
G1 X55.621 Y81.777 E18.3985
G1 X56.164 Y80.969 E18.44383
G1 X56.731 Y80.265 E18.48592
G1 X57.456 Y79.513 E18.53456
G1 X58.192 Y78.876 E18.57989
G0 F6000 X58.427 Y79.2
G1 F1200 X59.159 Y78.67 E18.62197
G1 X59.995 Y78.171 E18.66731
G1 X60.84 Y77.764 E18.71098
G1 X61.719 Y77.433 E18.75471
G1 X62.622 Y77.182 E18.79836
G1 X63.55 Y77.01 E18.8423
G1 X64.689 Y76.914 E18.89553
G1 X65.321 Y76.9 E18.92496
G1 X169.298 Y76.9 E23.76657
G1 X170.16 Y76.912 E23.80671
G1 X171.097 Y76.968 E23.85042
G1 X172.025 Y77.107 E23.89411
G1 X172.938 Y77.328 E23.93785
G1 X173.794 Y77.616 E23.97991
G1 X174.686 Y78.006 E24.02524
G1 X175.507 Y78.459 E24.0689
G1 X176.258 Y78.961 E24.11096
G1 X177.017 Y79.573 E24.15636
G1 X177.691 Y80.226 E24.20006
G1 X178.305 Y80.935 E24.24374
G1 X178.855 Y81.696 E24.28746
G1 X179.317 Y82.472 E24.32951
G1 X179.74 Y83.349 E24.37485
G1 X180.069 Y84.227 E24.41851
G1 X180.32 Y85.132 E24.46224
G1 X180.491 Y86.059 E24.50613
G1 X180.586 Y87.189 E24.55894
G1 X180.6 Y87.83 E24.58879
G1 X180.599 Y146.895 E27.3391
G1 X180.589 Y147.64 E27.3738
G1 X180.535 Y148.577 E27.4175
G1 X180.397 Y149.506 E27.46123
G1 X180.178 Y150.418 E27.50491
G1 X179.88 Y151.308 E27.54861
G1 X179.503 Y152.168 E27.59234
G1 X179.053 Y152.99 E27.63597
G1 X178.531 Y153.771 E27.67971
G1 X177.942 Y154.501 E27.72339
G1 X177.317 Y155.152 E27.76541
G1 X176.582 Y155.793 E27.81082
G1 X175.822 Y156.343 E27.85451
G1 X175.016 Y156.824 E27.89821
G1 X174.171 Y157.232 E27.94191
G1 X173.293 Y157.563 E27.9856
G1 X172.389 Y157.816 E28.02931
G1 X171.462 Y157.988 E28.07321
G1 X170.311 Y158.086 E28.127
G1 X169.67 Y158.1 E28.15686
G1 X65.57 Y158.099 E33.00419
G1 X64.854 Y158.089 E33.03753
G1 X63.918 Y158.035 E33.08119
G1 X62.989 Y157.896 E33.12493
G1 X62.077 Y157.677 E33.1686
G1 X61.187 Y157.378 E33.21232
G1 X60.328 Y157.001 E33.256
G1 X59.505 Y156.55 E33.2997
G1 X58.725 Y156.028 E33.3434
G1 X58.021 Y155.462 E33.38546
G1 X57.319 Y154.787 E33.43081
G1 X56.704 Y154.078 E33.47452
G1 X56.174 Y153.347 E33.51656
G1 X55.674 Y152.511 E33.56192
G1 X55.266 Y151.666 E33.60561
G1 X54.935 Y150.788 E33.6493
G1 X54.683 Y149.884 E33.693
G1 X54.511 Y148.955 E33.737
G1 X54.413 Y147.776 E33.79208
G1 X54.4 Y147.158 E33.82087
G1 X54.401 Y88.031 E36.57407
G1 X54.411 Y87.348 E36.60587
G1 X54.466 Y86.411 E36.64958
G1 X54.605 Y85.483 E36.69327
G1 X54.825 Y84.571 E36.73696
G1 X55.125 Y83.681 E36.78069
G1 X55.502 Y82.822 E36.82437
G1 X55.953 Y82 E36.86803
G1 X56.476 Y81.22 E36.91176
G1 X57.043 Y80.516 E36.95385
G1 X57.718 Y79.815 E36.99917
G1 X58.427 Y79.2 E37.04287
G0 F6000 X58.662 Y79.524
G1 F1200 X59.394 Y78.994 E37.08495
G1 X60.169 Y78.531 E37.12699
G1 X60.982 Y78.138 E37.16904
G1 X61.827 Y77.818 E37.21111
G1 X62.696 Y77.575 E37.25313
G1 X63.584 Y77.409 E37.29519
G1 X64.723 Y77.313 E37.34842
G1 X65.33 Y77.3 E37.37669
G1 X169.293 Y77.3 E42.21764
G1 X170.137 Y77.311 E42.25694
G1 X171.039 Y77.364 E42.29902
G1 X171.932 Y77.496 E42.34105
G1 X172.81 Y77.707 E42.3831
G1 X173.666 Y77.995 E42.42515
G1 X174.493 Y78.357 E42.46719
G1 X175.285 Y78.792 E42.50926
G1 X176.036 Y79.294 E42.55133
G1 X176.739 Y79.861 E42.59338
G1 X177.389 Y80.488 E42.63543
G1 X177.981 Y81.17 E42.67749
G1 X178.511 Y81.901 E42.71953
G1 X178.973 Y82.677 E42.76158
G1 X179.366 Y83.49 E42.80363
G1 X179.684 Y84.335 E42.84567
G1 X179.927 Y85.205 E42.88773
G1 X180.092 Y86.093 E42.92979
G1 X180.187 Y87.223 E42.98259
G1 X180.2 Y87.83 E43.01086
G1 X180.199 Y146.89 E45.76094
G1 X180.19 Y147.617 E45.7948
G1 X180.139 Y148.519 E45.83687
G1 X180.008 Y149.413 E45.87894
G1 X179.799 Y150.291 E45.92097
G1 X179.513 Y151.148 E45.96303
G1 X179.152 Y151.976 E46.00509
G1 X178.72 Y152.768 E46.0471
G1 X178.219 Y153.52 E46.08918
G1 X177.653 Y154.224 E46.13124
G1 X177.028 Y154.875 E46.17326
G1 X176.347 Y155.469 E46.21534
G1 X175.616 Y156 E46.25741
G1 X174.842 Y156.464 E46.29943
G1 X174.029 Y156.858 E46.3415
G1 X173.185 Y157.178 E46.38353
G1 X172.315 Y157.423 E46.42562
G1 X171.428 Y157.589 E46.46764
G1 X170.277 Y157.687 E46.52143
G1 X169.67 Y157.7 E46.5497
G1 X65.575 Y157.699 E51.3968
G1 X64.877 Y157.69 E51.4293
G1 X63.976 Y157.639 E51.47132
G1 X63.082 Y157.507 E51.5134
G1 X62.204 Y157.298 E51.55543
G1 X61.347 Y157.011 E51.59751
G1 X60.52 Y156.65 E51.63953
G1 X59.727 Y156.217 E51.6816
G1 X58.976 Y155.716 E51.72364
G1 X58.272 Y155.15 E51.7657
G1 X57.621 Y154.524 E51.80775
G1 X57.028 Y153.843 E51.8498
G1 X56.498 Y153.112 E51.89184
G1 X56.034 Y152.337 E51.93391
G1 X55.64 Y151.524 E51.97597
G1 X55.32 Y150.68 E52.018
G1 X55.076 Y149.81 E52.06008
G1 X54.91 Y148.922 E52.10214
G1 X54.813 Y147.767 E52.15611
G1 X54.8 Y147.158 E52.18448
G1 X54.801 Y88.036 E54.93745
G1 X54.81 Y87.371 E54.96841
G1 X54.862 Y86.469 E55.01048
G1 X54.994 Y85.576 E55.05252
G1 X55.204 Y84.698 E55.09455
G1 X55.491 Y83.841 E55.13664
G1 X55.853 Y83.014 E55.17867
G1 X56.286 Y82.222 E55.2207
G1 X56.788 Y81.471 E55.26277
G1 X57.355 Y80.767 E55.30486
G1 X57.981 Y80.117 E55.34688
G1 X58.662 Y79.524 E55.38893
G1 F1500 E48.88893
;MESH:tm_player_x10.stl
G0 F6000 X65.42 Y86.835
G0 X117.5 Y146.9
;TYPE:WALL-INNER
G1 F1500 E55.38893
G1 F1200 X169.4 Y146.9 E57.80561
G1 X169.4 Y88.1 E60.54358
G1 X65.6 Y88.1 E65.37695
G1 X65.6 Y146.9 E68.11492
G1 X117.5 Y146.9 E70.5316
G0 F6000 X117.5 Y147.3
;TYPE:WALL-OUTER
G1 F1200 X169.8 Y147.3 E72.96691
G1 X169.8 Y87.7 E75.74213
G1 X65.2 Y87.7 E80.61275
G1 X65.2 Y147.3 E83.38797
G1 X117.5 Y147.3 E85.82328
G0 F6000 X117.5 Y146.54
;TYPE:SKIN
G1 F1200 X65.96 Y146.54 E88.2232
G1 X65.96 Y88.46 E90.92765
G1 X169.04 Y88.46 E95.72748
G1 X169.04 Y146.54 E98.43193
G1 X117.5 Y146.54 E100.83185
G1 F1500 E94.33185
G0 F6000 X117.5 Y146.8
G0 X66.578 Y146.8
G0 X66.578 Y146.34
G1 F1500 E100.83185
G1 F1200 X66.16 Y145.921 E100.85941
G0 F6000 X66.16 Y145.356
G1 F1200 X67.144 Y146.34 E100.92421
G0 F6000 X67.71 Y146.34
G1 F1200 X66.16 Y144.79 E101.02628
G0 F6000 X66.16 Y144.224
G1 F1200 X68.275 Y146.34 E101.16559
G0 F6000 X68.841 Y146.34
G1 F1200 X66.16 Y143.659 E101.34214
G0 F6000 X66.16 Y143.093
G1 F1200 X69.407 Y146.34 E101.55596
G0 F6000 X69.972 Y146.34
G1 F1200 X66.16 Y142.527 E101.80702
G0 F6000 X66.16 Y141.962
G1 F1200 X70.538 Y146.34 E102.09531
G0 F6000 X71.104 Y146.34
G1 F1200 X66.16 Y141.396 E102.42089
G0 F6000 X66.16 Y140.83
G1 F1200 X71.67 Y146.34 E102.78373
G0 F6000 X72.235 Y146.34
G1 F1200 X66.16 Y140.265 E103.18378
G0 F6000 X66.16 Y139.699
G1 F1200 X72.801 Y146.34 E103.6211
G0 F6000 X73.367 Y146.34
G1 F1200 X66.16 Y139.133 E104.09569
G0 F6000 X66.16 Y138.567
G1 F1200 X73.932 Y146.34 E104.60752
G0 F6000 X74.498 Y146.34
G1 F1200 X66.16 Y138.002 E105.1566
G0 F6000 X66.16 Y137.436
G1 F1200 X75.064 Y146.34 E105.74294
G0 F6000 X75.629 Y146.34
G1 F1200 X66.16 Y136.87 E106.36652
G0 F6000 X66.16 Y136.305
G1 F1200 X76.195 Y146.34 E107.02734
G0 F6000 X76.761 Y146.34
G1 F1200 X66.16 Y135.739 E107.72544
G0 F6000 X66.16 Y135.173
G1 F1200 X77.326 Y146.34 E108.46077
G0 F6000 X77.892 Y146.34
G1 F1200 X66.16 Y134.608 E109.23334
G0 F6000 X66.16 Y134.042
G1 F1200 X78.458 Y146.34 E110.04319
G0 F6000 X79.023 Y146.34
G1 F1200 X66.16 Y133.476 E110.89027
G0 F6000 X66.16 Y132.911
G1 F1200 X79.589 Y146.34 E111.77459
G0 F6000 X80.155 Y146.34
G1 F1200 X66.16 Y132.345 E112.69619
G0 F6000 X66.16 Y131.779
G1 F1200 X80.72 Y146.34 E113.65502
G0 F6000 X81.286 Y146.34
G1 F1200 X66.16 Y131.214 E114.65109
G0 F6000 X66.16 Y130.648
G1 F1200 X81.852 Y146.34 E115.68444
G0 F6000 X82.418 Y146.34
G1 F1200 X66.16 Y130.082 E116.75506
G0 F6000 X66.16 Y129.517
G1 F1200 X82.983 Y146.34 E117.86288
G0 F6000 X83.549 Y146.34
G1 F1200 X66.16 Y128.951 E119.00798
G0 F6000 X66.16 Y128.385
G1 F1200 X84.115 Y146.34 E120.19034
G0 F6000 X84.68 Y146.34
G1 F1200 X66.16 Y127.819 E121.40995
G0 F6000 X66.16 Y127.254
G1 F1200 X85.246 Y146.34 E122.6668
G0 F6000 X85.812 Y146.34
G1 F1200 X66.16 Y126.688 E123.96091
G0 F6000 X66.16 Y126.122
G1 F1200 X86.377 Y146.34 E125.29227
G0 F6000 X86.943 Y146.34
G1 F1200 X66.16 Y125.557 E126.66087
G0 F6000 X66.16 Y124.991
G1 F1200 X87.509 Y146.34 E128.06673
G0 F6000 X88.074 Y146.34
G1 F1200 X66.16 Y124.425 E129.50984
G0 F6000 X66.16 Y123.86
G1 F1200 X88.64 Y146.34 E130.99019
G0 F6000 X89.206 Y146.34
G1 F1200 X66.16 Y123.294 E132.50781
G0 F6000 X66.16 Y122.728
G1 F1200 X89.771 Y146.34 E134.06266
G0 F6000 X90.337 Y146.34
G1 F1200 X66.16 Y122.163 E135.65476
G0 F6000 X66.16 Y121.597
G1 F1200 X90.903 Y146.34 E137.28413
G0 F6000 X91.469 Y146.34
G1 F1200 X66.16 Y121.031 E138.95077
G0 F6000 X66.16 Y120.466
G1 F1200 X92.034 Y146.34 E140.65462
G0 F6000 X92.6 Y146.34
G1 F1200 X66.16 Y119.9 E142.39574
G0 F6000 X66.16 Y119.334
G1 F1200 X93.166 Y146.34 E144.17413
G0 F6000 X93.731 Y146.34
G1 F1200 X66.16 Y118.768 E145.98976
G0 F6000 X66.16 Y118.203
G1 F1200 X94.297 Y146.34 E147.84263
G0 F6000 X94.863 Y146.34
G1 F1200 X66.16 Y117.637 E149.73277
G0 F6000 X66.16 Y117.071
G1 F1200 X95.428 Y146.34 E151.66015
G0 F6000 X95.994 Y146.34
G1 F1200 X66.16 Y116.506 E153.62477
G0 F6000 X66.16 Y115.94
G1 F1200 X96.56 Y146.34 E155.62666
G0 F6000 X97.125 Y146.34
G1 F1200 X66.16 Y115.374 E157.66579
G0 F6000 X66.16 Y114.809
G1 F1200 X97.691 Y146.34 E159.74216
G0 F6000 X98.257 Y146.34
G1 F1200 X66.16 Y114.243 E161.8558
G0 F6000 X66.16 Y113.677
G1 F1200 X98.822 Y146.34 E164.00669
G0 F6000 X99.388 Y146.34
G1 F1200 X66.16 Y113.112 E166.19481
G0 F6000 X66.16 Y112.546
G1 F1200 X99.954 Y146.34 E168.4202
G0 F6000 X100.519 Y146.34
G1 F1200 X66.16 Y111.98 E170.68283
G0 F6000 X66.16 Y111.415
G1 F1200 X101.085 Y146.34 E172.9827
G0 F6000 X101.651 Y146.34
G1 F1200 X66.16 Y110.849 E175.31985
G0 F6000 X66.16 Y110.283
G1 F1200 X102.217 Y146.34 E177.69426
G0 F6000 X102.782 Y146.34
G1 F1200 X66.16 Y109.718 E180.10588
G0 F6000 X66.16 Y109.152
G1 F1200 X103.348 Y146.34 E182.55477
G0 F6000 X103.914 Y146.34
G1 F1200 X66.16 Y108.586 E185.04094
G0 F6000 X66.16 Y108.02
G1 F1200 X104.479 Y146.34 E187.56434
G0 F6000 X105.045 Y146.34
G1 F1200 X66.16 Y107.455 E190.12499
G0 F6000 X66.16 Y106.889
G1 F1200 X105.611 Y146.34 E192.7229
G0 F6000 X106.176 Y146.34
G1 F1200 X66.16 Y106.323 E195.35806
G0 F6000 X66.16 Y105.758
G1 F1200 X106.742 Y146.34 E198.03045
G0 F6000 X107.308 Y146.34
G1 F1200 X66.16 Y105.192 E200.74012
G0 F6000 X66.16 Y104.626
G1 F1200 X107.873 Y146.34 E203.48702
G0 F6000 X108.439 Y146.34
G1 F1200 X66.16 Y104.061 E206.27117
G0 F6000 X66.16 Y103.495
G1 F1200 X109.005 Y146.34 E209.09258
G0 F6000 X109.57 Y146.34
G1 F1200 X66.16 Y102.929 E211.95124
G0 F6000 X66.16 Y102.364
G1 F1200 X110.136 Y146.34 E214.84714
G0 F6000 X110.702 Y146.34
G1 F1200 X66.16 Y101.798 E217.7803
G0 F6000 X66.16 Y101.232
G1 F1200 X111.267 Y146.34 E220.75071
G0 F6000 X111.833 Y146.34
G1 F1200 X66.16 Y100.667 E223.75835
G0 F6000 X66.16 Y100.101
G1 F1200 X112.399 Y146.34 E226.80327
G0 F6000 X112.965 Y146.34
G1 F1200 X66.16 Y99.535 E229.88546
G0 F6000 X66.16 Y98.969
G1 F1200 X113.53 Y146.34 E233.00489
G0 F6000 X114.096 Y146.34
G1 F1200 X66.16 Y98.404 E236.16155
G0 F6000 X66.16 Y97.838
G1 F1200 X114.662 Y146.34 E239.35549
G0 F6000 X115.227 Y146.34
G1 F1200 X66.16 Y97.272 E242.58667
G0 F6000 X66.16 Y96.707
G1 F1200 X115.793 Y146.34 E245.85509
G0 F6000 X116.359 Y146.34
G1 F1200 X66.16 Y96.141 E249.16078
G0 F6000 X66.16 Y95.575
G1 F1200 X116.924 Y146.34 E252.50371
G0 F6000 X117.49 Y146.34
G1 F1200 X66.16 Y95.01 E255.88388
G0 F6000 X66.16 Y94.444
G1 F1200 X118.056 Y146.34 E259.30132
G0 F6000 X118.621 Y146.34
G1 F1200 X66.16 Y93.878 E262.756
G0 F6000 X66.16 Y93.313
G1 F1200 X119.187 Y146.34 E266.24792
G0 F6000 X119.753 Y146.34
G1 F1200 X66.16 Y92.747 E269.77711
G0 F6000 X66.16 Y92.181
G1 F1200 X120.318 Y146.34 E273.34354
G0 F6000 X120.884 Y146.34
G1 F1200 X66.16 Y91.616 E276.94721
G0 F6000 X66.16 Y91.05
G1 F1200 X121.45 Y146.34 E280.58815
G0 F6000 X122.016 Y146.34
G1 F1200 X66.16 Y90.484 E284.26636
G0 F6000 X66.16 Y89.919
G1 F1200 X122.581 Y146.34 E287.98178
G0 F6000 X123.147 Y146.34
G1 F1200 X66.16 Y89.353 E291.73447
G0 F6000 X66.16 Y88.787
G1 F1200 X123.713 Y146.34 E295.52443
G0 F6000 X124.278 Y146.34
G1 F1200 X66.598 Y88.66 E299.32276
G0 F6000 X67.164 Y88.66
G1 F1200 X124.844 Y146.34 E303.12109
G0 F6000 X125.41 Y146.34
G1 F1200 X67.73 Y88.66 E306.91941
G0 F6000 X68.295 Y88.66
G1 F1200 X125.975 Y146.34 E310.71774
G0 F6000 X126.541 Y146.34
G1 F1200 X68.861 Y88.66 E314.51607
G0 F6000 X69.427 Y88.66
G1 F1200 X127.107 Y146.34 E318.31439
G0 F6000 X127.672 Y146.34
G1 F1200 X69.992 Y88.66 E322.11272
G0 F6000 X70.558 Y88.66
G1 F1200 X128.238 Y146.34 E325.91104
G0 F6000 X128.804 Y146.34
G1 F1200 X71.124 Y88.66 E329.70937
G0 F6000 X71.689 Y88.66
G1 F1200 X129.369 Y146.34 E333.5077
G0 F6000 X129.935 Y146.34
G1 F1200 X72.255 Y88.66 E337.30602
G0 F6000 X72.821 Y88.66
G1 F1200 X130.501 Y146.34 E341.10435
G0 F6000 X131.066 Y146.34
G1 F1200 X73.386 Y88.66 E344.90268
G0 F6000 X73.952 Y88.66
G1 F1200 X131.632 Y146.34 E348.701
G0 F6000 X132.198 Y146.34
G1 F1200 X74.518 Y88.66 E352.49933
G0 F6000 X75.083 Y88.66
G1 F1200 X132.764 Y146.34 E356.29769
