;FLAVOR:Marlin
;TIME:15312
;Filament used: 15.8072m
;Layer height: 0.28
;MINX:1.5
;MINY:68.5
;MINZ:0.28
;MAXX:233.5
;MAXY:166.5
;MAXZ:24.08
;TARGET_MACHINE.NAME:Creality CR-6 SE
;Generated with Cura_SteamEngine 5.8.1
M140 S60
M105
M190 S60
M104 S200
M105
M109 S200
M82 ;absolute extrusion mode
M201 X500.00 Y500.00 Z100.00 E5000.00 ;Setup machine max acceleration
M203 X500.00 Y500.00 Z10.00 E50.00 ;Setup machine max feedrate
M204 P500.00 R1000.00 T500.00 ;Setup Print/Retract/Travel acceleration
M205 X8.00 Y8.00 Z0.40 E5.00 ;Setup Jerk
M220 S100 ;Reset Feedrate
M221 S100 ;Reset Flowrate

G28 ;Home

G92 E0 ;Reset Extruder
G1 Z2.0 F3000 ;Move Z Axis up
G1 X10.1 Y20 Z0.28 F5000.0 ;Move to start position
G1 X10.1 Y200.0 Z0.28 F1500.0 E15 ;Draw the first line
G1 X10.4 Y200.0 Z0.28 F5000.0 ;Move to side a little
G1 X10.4 Y20 Z0.28 F1500.0 E30 ;Draw the second line
G92 E0 ;Reset Extruder
G1 Z2.0 F3000 ;Move Z Axis up

G92 E0
G92 E0
G1 F1500 E-6.5
;LAYER_COUNT:86
;LAYER:0
M107
G0 F6000 X11.016 Y68.611 Z0.28
;TYPE:SKIRT
G1 F1500 E0
G1 F1200 X12.155 Y68.515 E0.05322
G1 X12.812 Y68.5 E0.08383
G1 X136.746 Y68.5 E5.85471
G1 X137.614 Y68.511 E5.89513
G1 X138.211 Y68.537 E5.92296
G1 X139.416 Y68.622 E5.97921
G1 X141.485 Y68.75 E6.07573
G1 X143.986 Y68.84 E6.19226
G1 X146.517 Y68.86 E6.31012
G1 X149.02 Y68.808 E6.4267
G1 X151.573 Y68.683 E6.54572
G1 X153.553 Y68.539 E6.63816
G1 X154.627 Y68.501 E6.6882
G1 X171.745 Y68.5 E7.48529
G1 X172.614 Y68.511 E7.52575
G1 X173.211 Y68.537 E7.55358
G1 X174.416 Y68.622 E7.60983
G1 X176.485 Y68.75 E7.70635
G1 X178.986 Y68.84 E7.82289
G1 X181.517 Y68.86 E7.94074
G1 X184.02 Y68.808 E8.05732
G1 X186.573 Y68.683 E8.17634
G1 X188.583 Y68.537 E8.27018
G1 X189.628 Y68.501 E8.31887
G1 X221.804 Y68.5 E9.81712
G1 X222.684 Y68.513 E9.8581
G1 X223.656 Y68.572 E9.90344
G1 X224.619 Y68.718 E9.9488
G1 X225.566 Y68.949 E9.99419
G1 X226.454 Y69.249 E10.03783
G1 X227.346 Y69.639 E10.08316
G1 X228.229 Y70.126 E10.13012
G1 X228.98 Y70.628 E10.17218
G1 X229.795 Y71.286 E10.22095
G1 X230.493 Y71.964 E10.26627
G1 X231.129 Y72.701 E10.31159
G1 X231.699 Y73.491 E10.35696
G1 X232.161 Y74.267 E10.39901
G1 X232.615 Y75.209 E10.4477
G1 X232.944 Y76.087 E10.49136
G1 X233.213 Y77.059 E10.53832
G1 X233.39 Y78.025 E10.58405
G1 X233.485 Y79.155 E10.63686
G1 X233.5 Y79.83 E10.66829
G1 X233.499 Y154.9 E14.16387
G1 X233.488 Y155.663 E14.1994
G1 X233.431 Y156.636 E14.24478
G1 X233.286 Y157.599 E14.29013
G1 X233.057 Y158.545 E14.33545
G1 X232.746 Y159.469 E14.38085
G1 X232.354 Y160.36 E14.42618
G1 X231.886 Y161.212 E14.47144
G1 X231.364 Y161.993 E14.51518
G1 X230.731 Y162.778 E14.56214
G1 X230.106 Y163.429 E14.60416
G1 X229.317 Y164.117 E14.65291
G1 X228.557 Y164.667 E14.69659
G1 X227.69 Y165.184 E14.74359
G1 X226.812 Y165.606 E14.78895
G1 X225.901 Y165.948 E14.83426
G1 X224.962 Y166.209 E14.87965
G1 X223.996 Y166.387 E14.92538
G1 X222.845 Y166.485 E14.97917
G1 X222.17 Y166.5 E15.01061
G1 X13.064 Y166.499 E24.74746
G1 X12.331 Y166.488 E24.7816
G1 X11.359 Y166.431 E24.82694
G1 X10.396 Y166.285 E24.87229
G1 X9.45 Y166.056 E24.91761
G1 X8.526 Y165.744 E24.96302
G1 X7.636 Y165.352 E25.00831
G1 X6.813 Y164.901 E25.05201
G1 X5.974 Y164.34 E25.099
G1 X5.27 Y163.774 E25.14107
G1 X4.517 Y163.049 E25.18974
G1 X3.88 Y162.313 E25.23506
G1 X3.35 Y161.582 E25.27711
G1 X2.814 Y160.685 E25.32576
G1 X2.392 Y159.807 E25.37112
G1 X2.05 Y158.895 E25.41648
G1 X1.79 Y157.957 E25.4618
G1 X1.612 Y156.988 E25.50768
G1 X1.514 Y155.809 E25.56277
G1 X1.5 Y155.158 E25.59309
G1 X1.501 Y135.743 E26.49713
G1 X1.514 Y134.998 E26.53183
G1 X1.574 Y134.034 E26.5768
G1 X1.669 Y133.349 E26.609
G1 X2.106 Y130.795 E26.72966
G1 X2.459 Y128.311 E26.84648
G1 X2.741 Y125.823 E26.96308
G1 X2.959 Y123.287 E27.0816
G1 X3.098 Y120.826 E27.19638
G1 X3.17 Y118.268 E27.31553
G1 X3.17 Y115.756 E27.4325
G1 X3.098 Y113.238 E27.5498
G1 X2.956 Y110.731 E27.66672
G1 X2.745 Y108.229 E27.78364
G1 X2.462 Y105.744 E27.9001
G1 X2.103 Y103.213 E28.01913
G1 X1.659 Y100.594 E28.14283
G1 X1.548 Y99.698 E28.18487
G1 X1.516 Y99.147 E28.21057
G1 X1.502 Y98.549 E28.23842
G1 X1.5 Y80.165 E29.09446
G1 X1.512 Y79.325 E29.13357
G1 X1.57 Y78.352 E29.17896
G1 X1.716 Y77.389 E29.22432
G1 X1.946 Y76.443 E29.26965
G1 X2.259 Y75.52 E29.31503
G1 X2.651 Y74.63 E29.36031
G1 X3.121 Y73.777 E29.40566
G1 X3.664 Y72.969 E29.45099
G1 X4.231 Y72.265 E29.49309
G1 X4.956 Y71.513 E29.54173
G1 X5.692 Y70.876 E29.58705
G1 X6.424 Y70.346 E29.62913
G1 X7.321 Y69.811 E29.67776
G1 X8.199 Y69.39 E29.7231
G1 X9.112 Y69.048 E29.7685
G1 X10.049 Y68.789 E29.81377
G1 X11.016 Y68.611 E29.85955
G0 F6000 X11.05 Y69.01
G1 F1200 X12.189 Y68.914 E29.91278
G1 X12.821 Y68.9 E29.94221
G1 X136.741 Y68.9 E35.71245
G1 X137.597 Y68.911 E35.75231
G1 X138.183 Y68.936 E35.77962
G1 X139.388 Y69.021 E35.83587
G1 X141.471 Y69.15 E35.93305
G1 X143.972 Y69.24 E36.04958
G1 X146.522 Y69.26 E36.16833
G1 X149.04 Y69.208 E36.2856
G1 X151.593 Y69.083 E36.40462
G1 X153.582 Y68.938 E36.49748
G1 X154.627 Y68.901 E36.54617
G1 X171.74 Y68.9 E37.34302
G1 X172.597 Y68.911 E37.38293
G1 X173.183 Y68.936 E37.41024
G1 X174.388 Y69.021 E37.46649
G1 X176.471 Y69.15 E37.56367
G1 X178.972 Y69.24 E37.68021
G1 X181.522 Y69.26 E37.79895
G1 X184.04 Y69.208 E37.91622
G1 X186.593 Y69.083 E38.03524
G1 X188.597 Y68.937 E38.1288
G1 X189.628 Y68.901 E38.17684
G1 X221.798 Y68.9 E39.67481
G1 X222.66 Y68.912 E39.71495
G1 X223.597 Y68.968 E39.75866
G1 X224.525 Y69.107 E39.80236
G1 X225.438 Y69.328 E39.8461
G1 X226.294 Y69.616 E39.88815
G1 X227.186 Y70.006 E39.93348
G1 X228.007 Y70.459 E39.97714
G1 X228.758 Y70.961 E40.01921
G1 X229.517 Y71.573 E40.06461
G1 X230.191 Y72.226 E40.10831
G1 X230.805 Y72.935 E40.15198
G1 X231.355 Y73.696 E40.1957
G1 X231.817 Y74.472 E40.23775
G1 X232.24 Y75.349 E40.28309
G1 X232.569 Y76.227 E40.32675
G1 X232.82 Y77.132 E40.37048
G1 X232.991 Y78.059 E40.41438
G1 X233.086 Y79.189 E40.46718
G1 X233.1 Y79.83 E40.49703
G1 X233.099 Y154.895 E43.99237
G1 X233.089 Y155.64 E44.02707
G1 X233.035 Y156.577 E44.07077
G1 X232.897 Y157.506 E44.1145
G1 X232.678 Y158.418 E44.15818
G1 X232.38 Y159.308 E44.20188
G1 X232.003 Y160.168 E44.24561
G1 X231.553 Y160.99 E44.28924
G1 X231.031 Y161.771 E44.33298
G1 X230.442 Y162.501 E44.37666
G1 X229.817 Y163.152 E44.41868
G1 X229.082 Y163.793 E44.46409
G1 X228.322 Y164.343 E44.50778
G1 X227.516 Y164.824 E44.55148
G1 X226.671 Y165.232 E44.59518
G1 X225.793 Y165.563 E44.63887
G1 X224.889 Y165.816 E44.68258
G1 X223.962 Y165.988 E44.72648
G1 X222.811 Y166.086 E44.78027
G1 X222.17 Y166.1 E44.81013
G1 X13.07 Y166.099 E54.5467
G1 X12.354 Y166.089 E54.58004
G1 X11.418 Y166.035 E54.6237
G1 X10.489 Y165.896 E54.66744
G1 X9.577 Y165.677 E54.71111
G1 X8.687 Y165.378 E54.75483
G1 X7.828 Y165.001 E54.79851
G1 X7.005 Y164.55 E54.84221
G1 X6.225 Y164.028 E54.88591
G1 X5.521 Y163.462 E54.92797
G1 X4.819 Y162.787 E54.97332
G1 X4.204 Y162.078 E55.01703
G1 X3.674 Y161.347 E55.05907
G1 X3.174 Y160.511 E55.10443
G1 X2.766 Y159.666 E55.14812
G1 X2.435 Y158.788 E55.19181
G1 X2.183 Y157.884 E55.23551
G1 X2.011 Y156.955 E55.27951
G1 X1.913 Y155.776 E55.33459
G1 X1.9 Y155.158 E55.36338
G1 X1.901 Y135.75 E56.26709
G1 X1.913 Y135.022 E56.301
G1 X1.97 Y134.089 E56.34452
G1 X2.063 Y133.416 E56.37616
G1 X2.5 Y130.862 E56.49681
G1 X2.855 Y128.367 E56.61416
G1 X3.14 Y125.857 E56.73179
G1 X3.357 Y123.321 E56.85031
G1 X3.498 Y120.837 E56.96616
G1 X3.57 Y118.279 E57.08532
G1 X3.57 Y115.756 E57.2028
G1 X3.498 Y113.227 E57.32061
G1 X3.355 Y110.697 E57.4386
G1 X3.143 Y108.195 E57.55552
G1 X2.858 Y105.688 E57.67301
G1 X2.499 Y103.157 E57.79204
G1 X2.056 Y100.545 E57.91541
G1 X1.945 Y99.649 E57.95745
G1 X1.916 Y99.137 E57.98133
G1 X1.902 Y98.549 E58.00871
G1 X1.9 Y80.17 E58.86452
G1 X1.911 Y79.348 E58.9028
G1 X1.966 Y78.411 E58.9465
G1 X2.105 Y77.483 E58.99019
G1 X2.325 Y76.571 E59.03388
G1 X2.625 Y75.681 E59.07761
G1 X3.002 Y74.822 E59.12129
G1 X3.453 Y74 E59.16495
G1 X3.976 Y73.22 E59.20868
G1 X4.543 Y72.516 E59.25077
G1 X5.218 Y71.815 E59.29609
G1 X5.927 Y71.2 E59.33979
G1 X6.659 Y70.67 E59.38187
G1 X7.495 Y70.171 E59.42721
G1 X8.34 Y69.764 E59.47088
G1 X9.219 Y69.433 E59.51462
G1 X10.122 Y69.182 E59.55826
G1 X11.05 Y69.01 E59.6022
G0 F6000 X11.084 Y69.409
G1 F1200 X12.223 Y69.313 E59.65543
G1 X12.83 Y69.3 E59.6837
G1 X136.736 Y69.3 E65.45328
G1 X137.58 Y69.311 E65.49259
G1 X138.155 Y69.335 E65.51938
G1 X139.36 Y69.42 E65.57563
G1 X141.457 Y69.55 E65.67347
G1 X143.958 Y69.64 E65.79
G1 X146.527 Y69.66 E65.90962
G1 X149.06 Y69.608 E66.0276
G1 X151.613 Y69.483 E66.14662
G1 X153.611 Y69.337 E66.2399
G1 X154.627 Y69.301 E66.28724
G1 X171.735 Y69.3 E67.08386
G1 X172.58 Y69.311 E67.12321
G1 X173.155 Y69.335 E67.15001
G1 X174.36 Y69.42 E67.20626
G1 X176.457 Y69.55 E67.30409
G1 X178.958 Y69.64 E67.42062
G1 X181.527 Y69.66 E67.54025
G1 X184.06 Y69.608 E67.65822
G1 X186.613 Y69.483 E67.77724
G1 X188.611 Y69.337 E67.87052
G1 X189.628 Y69.301 E67.91791
G1 X221.793 Y69.3 E69.41565
G1 X222.637 Y69.311 E69.45495
G1 X223.539 Y69.364 E69.49702
G1 X224.432 Y69.496 E69.53906
G1 X225.31 Y69.707 E69.58111
G1 X226.166 Y69.995 E69.62316
G1 X226.993 Y70.357 E69.6652
G1 X227.785 Y70.792 E69.70727
G1 X228.536 Y71.294 E69.74933
G1 X229.239 Y71.861 E69.79139
G1 X229.889 Y72.488 E69.83344
G1 X230.481 Y73.17 E69.87549
G1 X231.011 Y73.901 E69.91754
G1 X231.473 Y74.677 E69.95959
G1 X231.866 Y75.49 E70.00164
G1 X232.184 Y76.335 E70.04368
G1 X232.427 Y77.205 E70.08574
G1 X232.592 Y78.093 E70.1278
G1 X232.687 Y79.223 E70.1806
G1 X232.7 Y79.83 E70.20887
G1 X232.699 Y154.89 E73.70398
G1 X232.69 Y155.617 E73.73783
G1 X232.639 Y156.519 E73.7799
G1 X232.508 Y157.413 E73.82198
G1 X232.299 Y158.291 E73.864
G1 X232.013 Y159.148 E73.90607
G1 X231.652 Y159.976 E73.94813
G1 X231.22 Y160.768 E73.99014
G1 X230.719 Y161.52 E74.03221
G1 X230.153 Y162.224 E74.07428
G1 X229.528 Y162.875 E74.1163
G1 X228.847 Y163.469 E74.15838
G1 X228.116 Y164 E74.20045
G1 X227.342 Y164.464 E74.24247
G1 X226.529 Y164.858 E74.28454
G1 X225.685 Y165.178 E74.32657
G1 X224.815 Y165.423 E74.36865
G1 X223.928 Y165.589 E74.41067
G1 X222.777 Y165.687 E74.46446
G1 X222.17 Y165.7 E74.49273
G1 X13.075 Y165.699 E84.22907
G1 X12.377 Y165.69 E84.26158
G1 X11.476 Y165.639 E84.3036
G1 X10.582 Y165.507 E84.34568
G1 X9.704 Y165.298 E84.3877
G1 X8.847 Y165.011 E84.42979
G1 X8.02 Y164.65 E84.4718
G1 X7.227 Y164.217 E84.51388
G1 X6.476 Y163.716 E84.55591
G1 X5.772 Y163.15 E84.59797
G1 X5.121 Y162.524 E84.64003
G1 X4.528 Y161.843 E84.68208
G1 X3.998 Y161.112 E84.72412
G1 X3.534 Y160.337 E84.76618
G1 X3.14 Y159.524 E84.80825
G1 X2.82 Y158.68 E84.85028
G1 X2.576 Y157.81 E84.89235
G1 X2.41 Y156.922 E84.93442
G1 X2.313 Y155.767 E84.98839
G1 X2.3 Y155.158 E85.01675
G1 X2.301 Y135.756 E85.92019
G1 X2.312 Y135.046 E85.95326
G1 X2.366 Y134.144 E85.99533
G1 X2.457 Y133.483 E86.0264
G1 X2.894 Y130.929 E86.14705
G1 X3.251 Y128.423 E86.26492
G1 X3.539 Y125.891 E86.38358
G1 X3.755 Y123.355 E86.5021
G1 X3.898 Y120.848 E86.61902
G1 X3.97 Y118.29 E86.73818
G1 X3.97 Y115.756 E86.85618
G1 X3.898 Y113.216 E86.9745
G1 X3.754 Y110.663 E87.09356
G1 X3.541 Y108.161 E87.21049
G1 X3.254 Y105.632 E87.32901
G1 X2.895 Y103.101 E87.44804
G1 X2.453 Y100.496 E87.57107
G1 X2.342 Y99.6 E87.61311
G1 X2.316 Y99.127 E87.63517
G1 X2.302 Y98.549 E87.66209
G1 X2.3 Y80.175 E88.51766
G1 X2.31 Y79.371 E88.5551
G1 X2.362 Y78.469 E88.59717
G1 X2.494 Y77.576 E88.63921
G1 X2.704 Y76.698 E88.68124
G1 X2.991 Y75.841 E88.72333
G1 X3.353 Y75.014 E88.76536
G1 X3.786 Y74.222 E88.8074
G1 X4.288 Y73.471 E88.84946
G1 X4.855 Y72.767 E88.89155
G1 X5.481 Y72.117 E88.93357
G1 X6.162 Y71.524 E88.97562
G1 X6.894 Y70.994 E89.0177
G1 X7.669 Y70.531 E89.05974
G1 X8.482 Y70.138 E89.10178
G1 X9.327 Y69.818 E89.14386
G1 X10.196 Y69.575 E89.18587
G1 X11.084 Y69.409 E89.22794
G1 F1500 E82.72794
;MESH:tm_solo_x1.stl
G0 F6000 X13.3 Y78.835
G0 X117.5 Y154.9
;TYPE:WALL-INNER
G1 F1500 E89.22794
G1 F1200 X221.9 Y154.9 E94.08924
G1 X221.9 Y80.1 E97.57224
G1 X190 Y80.101 E99.05764
G1 X189.989 Y82.253 E99.15785
G1 X189.96 Y82.495 E99.1692
G1 X189.996 Y82.841 E99.18539
G1 X189.991 Y95.979 E99.79715
G1 X189.928 Y96.508 E99.82196
G1 X189.75 Y97.064 E99.84914
G1 X189.49 Y97.606 E99.87714
G1 X189.11 Y98.129 E99.90724
G1 X188.607 Y98.602 E99.93939
G1 X188.146 Y98.897 E99.96487
G1 X187.741 Y99.088 E99.98573
G1 X187.281 Y99.241 E100.0083
G1 X186.729 Y99.343 E100.03444
G1 X175.237 Y99.348 E100.56955
G1 X174.587 Y99.264 E100.60007
G1 X174.056 Y99.087 E100.62613
G1 X173.547 Y98.848 E100.65232
G1 X173.009 Y98.456 E100.68331
G1 X172.543 Y97.956 E100.71514
G1 X172.223 Y97.445 E100.74321
G1 X172.054 Y97.078 E100.76203
G1 X171.878 Y96.536 E100.78856
G1 X171.805 Y95.946 E100.81625
G1 X171.807 Y82.743 E101.43103
G1 X171.836 Y82.493 E101.44275
G1 X171.807 Y82.22 E101.45554
G1 X171.804 Y80.1 E101.55425
G1 X155 Y80.101 E102.33672
G1 X154.989 Y82.253 E102.43692
G1 X154.96 Y82.495 E102.44827
G1 X154.996 Y82.841 E102.46447
G1 X154.99 Y95.992 E103.07684
G1 X154.922 Y96.536 E103.10237
G1 X154.746 Y97.074 E103.12872
G1 X154.515 Y97.564 E103.15395
G1 X154.117 Y98.121 E103.18582
G1 X153.62 Y98.592 E103.21771
G1 X153.143 Y98.899 E103.24412
G1 X152.735 Y99.091 E103.26512
G1 X152.304 Y99.235 E103.28628
G1 X151.729 Y99.343 E103.31352
G1 X140.237 Y99.348 E103.84864
G1 X139.587 Y99.264 E103.87916
G1 X139.061 Y99.089 E103.90497
G1 X138.563 Y98.858 E103.93053
G1 X138.02 Y98.463 E103.9618
G1 X137.537 Y97.948 E103.99467
G1 X137.245 Y97.488 E104.02004
G1 X137.047 Y97.061 E104.04196
G1 X136.871 Y96.502 E104.06925
G1 X136.804 Y95.934 E104.09588
G1 X136.807 Y82.743 E104.71011
G1 X136.836 Y82.493 E104.72183
G1 X136.807 Y82.22 E104.73461
G1 X136.804 Y80.1 E104.83333
G1 X13.1 Y80.1 E110.59351
G1 X13.1 Y98.148 E111.4339
G1 X15.255 Y98.159 E111.53424
G1 X15.499 Y98.188 E111.54568
G1 X15.749 Y98.159 E111.5574
G1 X39.178 Y98.149 E112.64836
G1 X39.784 Y98.226 E112.6768
G1 X40.326 Y98.402 E112.70334
G1 X40.852 Y98.654 E112.73049
G1 X41.398 Y99.057 E112.76209
G1 X41.834 Y99.516 E112.79157
G1 X42.155 Y100.015 E112.8192
G1 X42.346 Y100.422 E112.84014
G1 X42.523 Y100.963 E112.86664
G1 X42.595 Y101.545 E112.89395
G1 X42.591 Y132.488 E114.33478
G1 X42.514 Y133.068 E114.36203
G1 X42.346 Y133.574 E114.38685
G1 X42.096 Y134.097 E114.41385
G1 X41.716 Y134.622 E114.44402
G1 X41.203 Y135.105 E114.47683
G1 X40.729 Y135.407 E114.503
G1 X40.357 Y135.581 E114.52213
G1 X39.891 Y135.737 E114.54501
G1 X39.337 Y135.842 E114.57126
G1 X15.865 Y135.848 E115.66422
G1 X15.502 Y135.809 E115.68122
G1 X15.249 Y135.841 E115.69309
G1 X13.1 Y135.847 E115.79316
G1 X13.1 Y154.9 E116.68035
G1 X117.5 Y154.9 E121.54165
G0 F6000 X117.5 Y155.3
;TYPE:WALL-OUTER
G1 F1200 X222.3 Y155.3 E126.42158
G1 X222.3 Y79.7 E129.94183
G1 X189.601 Y79.7 E131.46443
G1 X189.593 Y82.185 E131.58014
G1 X189.558 Y82.495 E131.59467
G1 X189.596 Y82.841 E131.61088
G1 X189.591 Y95.964 E132.22194
G1 X189.532 Y96.448 E132.24464
G1 X189.373 Y96.93 E132.26828
G1 X189.161 Y97.378 E132.29136
G1 X188.8 Y97.876 E132.32
G1 X188.368 Y98.281 E132.34757
G1 X187.925 Y98.562 E132.372
G1 X187.568 Y98.726 E132.39029
G1 X187.182 Y98.853 E132.40921
G1 X186.697 Y98.944 E132.43219
G1 X175.237 Y98.948 E132.96582
G1 X174.691 Y98.878 E132.99145
G1 X174.212 Y98.718 E133.01497
G1 X173.753 Y98.505 E133.03853
G1 X173.272 Y98.152 E133.06631
G1 X172.855 Y97.704 E133.09481
G1 X172.586 Y97.277 E133.11831
G1 X172.421 Y96.919 E133.13666
G1 X172.268 Y96.448 E133.15972
G1 X172.204 Y95.921 E133.18444
G1 X172.205 Y82.789 E133.79592
G1 X172.238 Y82.495 E133.8097
G1 X172.205 Y82.178 E133.82454
G1 X172.205 Y79.7 E133.93993
G1 X154.601 Y79.7 E134.75964
G1 X154.593 Y82.185 E134.87535
G1 X154.558 Y82.495 E134.88988
G1 X154.596 Y82.841 E134.90609
G1 X154.591 Y95.964 E135.51715
G1 X154.532 Y96.448 E135.53985
G1 X154.369 Y96.938 E135.5639
G1 X154.164 Y97.372 E135.58625
G1 X153.79 Y97.886 E135.61585
G1 X153.368 Y98.281 E135.64276
G1 X152.925 Y98.562 E135.66719
G1 X152.568 Y98.726 E135.68549
G1 X152.182 Y98.853 E135.70441
G1 X151.697 Y98.944 E135.72739
G1 X140.237 Y98.948 E136.26101
G1 X139.691 Y98.878 E136.28664
G1 X139.217 Y98.721 E136.30989
G1 X138.775 Y98.518 E136.33254
