;FLAVOR:Marlin
;TIME:17305
;Filament used: 16.3854m
;Layer height: 0.28
;MINX:1.5
;MINY:54.5
;MINZ:0.28
;MAXX:233.5
;MAXY:180.5
;MAXZ:19.88
;TARGET_MACHINE.NAME:Creality CR-6 SE
;Generated with Cura_SteamEngine 5.8.1
M140 S60
M105
M190 S60
M104 S200
M105
M109 S200
M82 ;absolute extrusion mode
M201 X500.00 Y500.00 Z100.00 E5000.00 ;Setup machine max acceleration
M203 X500.00 Y500.00 Z10.00 E50.00 ;Setup machine max feedrate
M204 P500.00 R1000.00 T500.00 ;Setup Print/Retract/Travel acceleration
M205 X8.00 Y8.00 Z0.40 E5.00 ;Setup Jerk
M220 S100 ;Reset Feedrate
M221 S100 ;Reset Flowrate

G28 ;Home

G92 E0 ;Reset Extruder
G1 Z2.0 F3000 ;Move Z Axis up
G1 X10.1 Y20 Z0.28 F5000.0 ;Move to start position
G1 X10.1 Y200.0 Z0.28 F1500.0 E15 ;Draw the first line
G1 X10.4 Y200.0 Z0.28 F5000.0 ;Move to side a little
G1 X10.4 Y20 Z0.28 F1500.0 E30 ;Draw the second line
G92 E0 ;Reset Extruder
G1 Z2.0 F3000 ;Move Z Axis up

G92 E0
G92 E0
G1 F1500 E-6.5
;LAYER_COUNT:71
;LAYER:0
M107
G0 F6000 X10.032 Y54.792 Z0.28
;TYPE:SKIRT
G1 F1500 E0
G1 F1200 X11.034 Y54.609 E0.04743
G1 X12.205 Y54.513 E0.10214
G1 X12.812 Y54.5 E0.13041
G1 X221.804 Y54.5 E9.86195
G1 X222.684 Y54.513 E9.90293
G1 X223.656 Y54.572 E9.94828
G1 X224.619 Y54.718 E9.99363
G1 X225.566 Y54.949 E10.03902
G1 X226.454 Y55.249 E10.08267
G1 X227.346 Y55.639 E10.128
G1 X228.229 Y56.126 E10.17495
G1 X228.98 Y56.628 E10.21701
G1 X229.795 Y57.286 E10.26579
G1 X230.493 Y57.964 E10.3111
G1 X231.129 Y58.701 E10.35643
G1 X231.699 Y59.491 E10.40179
G1 X232.161 Y60.267 E10.44384
G1 X232.615 Y61.209 E10.49254
G1 X232.944 Y62.087 E10.53619
G1 X233.213 Y63.059 E10.58316
G1 X233.39 Y64.025 E10.62889
G1 X233.485 Y65.155 E10.68169
G1 X233.5 Y65.83 E10.71313
G1 X233.499 Y74.244 E11.10492
G1 X233.489 Y74.993 E11.1398
G1 X233.463 Y75.596 E11.1679
G1 X233.374 Y76.85 E11.22644
G1 X233.229 Y79.418 E11.34621
G1 X233.156 Y81.957 E11.46448
G1 X233.156 Y84.47 E11.5815
G1 X233.227 Y86.982 E11.69852
G1 X233.371 Y89.537 E11.81768
G1 X233.457 Y90.667 E11.87045
G1 X233.486 Y91.19 E11.89484
G1 X233.5 Y91.849 E11.92553
G1 X233.499 Y108.593 E12.7052
G1 X233.489 Y109.337 E12.73985
G1 X233.463 Y109.937 E12.76781
G1 X233.373 Y111.213 E12.82738
G1 X233.229 Y113.769 E12.94658
G1 X233.157 Y116.313 E13.06509
G1 X233.157 Y118.824 E13.18201
G1 X233.229 Y121.336 E13.29903
G1 X233.374 Y123.901 E13.41866
G1 X233.458 Y125.009 E13.4704
G1 X233.485 Y125.505 E13.49353
G1 X233.5 Y126.162 E13.52413
G1 X233.499 Y142.911 E14.30403
G1 X233.489 Y143.662 E14.339
G1 X233.462 Y144.264 E14.36706
G1 X233.379 Y145.432 E14.42159
G1 X233.229 Y148.085 E14.54532
G1 X233.156 Y150.624 E14.6636
G1 X233.156 Y153.137 E14.78061
G1 X233.227 Y155.649 E14.89763
G1 X233.371 Y158.204 E15.01679
G1 X233.457 Y159.334 E15.06956
G1 X233.486 Y159.857 E15.09395
G1 X233.5 Y160.516 E15.12464
G1 X233.499 Y168.916 E15.51578
G1 X233.487 Y169.677 E15.55122
G1 X233.429 Y170.65 E15.59661
G1 X233.283 Y171.613 E15.64196
G1 X233.052 Y172.56 E15.68735
G1 X232.739 Y173.482 E15.73269
G1 X232.347 Y174.373 E15.77802
G1 X231.895 Y175.195 E15.8217
G1 X231.333 Y176.033 E15.86868
G1 X230.743 Y176.763 E15.91239
G1 X230.04 Y177.489 E15.95944
G1 X229.304 Y178.125 E16.00474
G1 X228.514 Y178.695 E16.0501
G1 X227.738 Y179.158 E16.09217
G1 X226.798 Y179.611 E16.14076
G1 X225.885 Y179.953 E16.18616
G1 X224.947 Y180.212 E16.23147
G1 X223.981 Y180.389 E16.2772
G1 X222.845 Y180.485 E16.33029
G1 X222.17 Y180.5 E16.36173
G1 X13.064 Y180.499 E26.09858
G1 X12.331 Y180.488 E26.13271
G1 X11.359 Y180.431 E26.17805
G1 X10.396 Y180.285 E26.2234
G1 X9.45 Y180.056 E26.26873
G1 X8.526 Y179.744 E26.31414
G1 X7.636 Y179.352 E26.35942
G1 X6.813 Y178.901 E26.40312
G1 X5.974 Y178.34 E26.45012
G1 X5.27 Y177.774 E26.49218
G1 X4.517 Y177.049 E26.54085
G1 X3.88 Y176.313 E26.58618
G1 X3.35 Y175.582 E26.62822
G1 X2.814 Y174.685 E26.67688
G1 X2.392 Y173.807 E26.72224
G1 X2.05 Y172.895 E26.76759
G1 X1.79 Y171.957 E26.81292
G1 X1.612 Y170.988 E26.85879
G1 X1.514 Y169.809 E26.91388
G1 X1.5 Y169.158 E26.9442
G1 X1.501 Y160.718 E27.3372
G1 X1.511 Y159.99 E27.3711
G1 X1.537 Y159.392 E27.39898
G1 X1.629 Y158.085 E27.45999
G1 X1.771 Y155.561 E27.5777
G1 X1.843 Y153.018 E27.69616
G1 X1.843 Y150.506 E27.81313
G1 X1.771 Y147.97 E27.93126
G1 X1.629 Y145.481 E28.04735
G1 X1.541 Y144.311 E28.10199
G1 X1.514 Y143.816 E28.12507
G1 X1.5 Y143.158 E28.15571
G1 X1.501 Y126.384 E28.93678
G1 X1.511 Y125.654 E28.97078
G1 X1.538 Y125.055 E28.9987
G1 X1.624 Y123.84 E29.05541
G1 X1.771 Y121.231 E29.17709
G1 X1.843 Y118.687 E29.2956
G1 X1.843 Y116.176 E29.41252
G1 X1.771 Y113.664 E29.52954
G1 X1.626 Y111.108 E29.64875
G1 X1.541 Y109.982 E29.70133
G1 X1.513 Y109.462 E29.72558
G1 X1.5 Y108.838 E29.75464
G1 X1.501 Y92.051 E30.53631
G1 X1.511 Y91.322 E30.57026
G1 X1.537 Y90.724 E30.59813
G1 X1.629 Y89.418 E30.6591
G1 X1.771 Y86.894 E30.77681
G1 X1.843 Y84.351 E30.89527
G1 X1.843 Y81.839 E31.01224
G1 X1.771 Y79.303 E31.13038
G1 X1.629 Y76.814 E31.24646
G1 X1.541 Y75.644 E31.3011
G1 X1.514 Y75.149 E31.32418
G1 X1.5 Y74.491 E31.35483
G1 X1.501 Y66.009 E31.74978
G1 X1.513 Y65.308 E31.78243
G1 X1.573 Y64.335 E31.82782
G1 X1.72 Y63.374 E31.87309
G1 X1.951 Y62.426 E31.91853
G1 X2.253 Y61.537 E31.96224
G1 X2.66 Y60.615 E32.00917
G1 X3.131 Y59.763 E32.0545
G1 X3.676 Y58.954 E32.09993
G1 X4.267 Y58.226 E32.14359
G1 X4.969 Y57.501 E32.19058
G1 X5.679 Y56.887 E32.23429
G1 X6.498 Y56.297 E32.28129
G1 X7.337 Y55.801 E32.32667
G1 X8.151 Y55.41 E32.36872
G1 X9.128 Y55.042 E32.41734
G1 X10.032 Y54.792 E32.46101
G0 F6000 X10.139 Y55.178
G1 F1200 X11.067 Y55.008 E32.50494
G1 X12.214 Y54.913 E32.55853
G1 X12.821 Y54.9 E32.5868
G1 X221.798 Y54.9 E42.31765
G1 X222.66 Y54.912 E42.35779
G1 X223.597 Y54.968 E42.4015
G1 X224.525 Y55.107 E42.44519
G1 X225.438 Y55.328 E42.48893
G1 X226.294 Y55.616 E42.53099
G1 X227.186 Y56.006 E42.57632
G1 X228.007 Y56.459 E42.61998
G1 X228.758 Y56.961 E42.66204
G1 X229.517 Y57.573 E42.70744
G1 X230.191 Y58.226 E42.75114
G1 X230.805 Y58.935 E42.79482
G1 X231.355 Y59.696 E42.83854
G1 X231.817 Y60.472 E42.88059
G1 X232.24 Y61.349 E42.92593
G1 X232.569 Y62.227 E42.96959
G1 X232.82 Y63.132 E43.01332
G1 X232.991 Y64.059 E43.05721
G1 X233.086 Y65.189 E43.11002
G1 X233.1 Y65.83 E43.13987
G1 X233.099 Y74.239 E43.53143
G1 X233.089 Y74.976 E43.56575
G1 X233.064 Y75.568 E43.59334
G1 X232.975 Y76.822 E43.65188
G1 X232.829 Y79.407 E43.77244
G1 X232.756 Y81.946 E43.89071
G1 X232.756 Y84.47 E44.00824
G1 X232.827 Y86.993 E44.12577
G1 X232.972 Y89.568 E44.24586
G1 X233.058 Y90.689 E44.29821
G1 X233.086 Y91.199 E44.322
G1 X233.1 Y91.849 E44.35227
G1 X233.099 Y108.588 E45.13171
G1 X233.089 Y109.32 E45.1658
G1 X233.064 Y109.909 E45.19325
G1 X232.974 Y111.185 E45.25281
G1 X232.829 Y113.758 E45.37281
G1 X232.757 Y116.302 E45.49132
G1 X232.757 Y118.824 E45.60875
G1 X232.829 Y121.347 E45.72628
G1 X232.975 Y123.931 E45.8468
G1 X233.059 Y125.031 E45.89817
G1 X233.085 Y125.514 E45.92069
G1 X233.1 Y126.162 E45.95087
G1 X233.099 Y142.906 E46.73054
G1 X233.089 Y143.644 E46.76491
G1 X233.063 Y144.236 E46.7925
G1 X232.98 Y145.404 E46.84703
G1 X232.829 Y148.074 E46.97155
G1 X232.756 Y150.613 E47.08983
G1 X232.756 Y153.137 E47.20736
G1 X232.827 Y155.66 E47.32488
G1 X232.972 Y158.235 E47.44498
G1 X233.058 Y159.356 E47.49733
G1 X233.086 Y159.866 E47.52111
G1 X233.1 Y160.516 E47.55138
G1 X233.099 Y168.91 E47.94224
G1 X233.088 Y169.654 E47.97689
G1 X233.033 Y170.591 E48.0206
G1 X232.894 Y171.519 E48.06429
G1 X232.673 Y172.432 E48.10803
G1 X232.373 Y173.321 E48.15172
G1 X231.996 Y174.18 E48.1954
G1 X231.544 Y175.002 E48.23908
G1 X231.021 Y175.782 E48.28281
G1 X230.455 Y176.485 E48.32484
G1 X229.778 Y177.187 E48.37025
G1 X229.07 Y177.801 E48.41389
G1 X228.309 Y178.351 E48.45761
G1 X227.533 Y178.814 E48.49969
G1 X226.657 Y179.237 E48.54498
G1 X225.778 Y179.568 E48.58872
G1 X224.874 Y179.819 E48.63241
G1 X223.947 Y179.99 E48.6763
G1 X222.811 Y180.086 E48.72938
G1 X222.17 Y180.1 E48.75924
G1 X13.07 Y180.099 E58.49581
G1 X12.354 Y180.089 E58.52915
G1 X11.418 Y180.035 E58.57281
G1 X10.489 Y179.896 E58.61655
G1 X9.577 Y179.677 E58.66022
G1 X8.687 Y179.378 E58.70394
G1 X7.828 Y179.001 E58.74762
G1 X7.005 Y178.55 E58.79132
G1 X6.225 Y178.028 E58.83503
G1 X5.521 Y177.462 E58.87709
G1 X4.819 Y176.787 E58.92244
G1 X4.204 Y176.078 E58.96614
G1 X3.674 Y175.347 E59.00818
G1 X3.174 Y174.511 E59.05354
G1 X2.766 Y173.666 E59.09723
G1 X2.435 Y172.788 E59.14093
G1 X2.183 Y171.884 E59.18463
G1 X2.011 Y170.955 E59.22862
G1 X1.913 Y169.776 E59.28371
G1 X1.9 Y169.158 E59.31249
G1 X1.901 Y160.724 E59.70521
G1 X1.911 Y160.007 E59.7386
G1 X1.936 Y159.42 E59.76596
G1 X2.028 Y158.113 E59.82697
G1 X2.171 Y155.572 E59.94548
G1 X2.243 Y153.029 E60.06394
G1 X2.243 Y150.506 E60.18142
G1 X2.171 Y147.959 E60.30007
G1 X2.028 Y145.451 E60.41704
G1 X1.94 Y144.289 E60.4713
G1 X1.914 Y143.807 E60.49378
G1 X1.9 Y143.158 E60.524
G1 X1.901 Y126.39 E61.30479
G1 X1.911 Y125.672 E61.33823
G1 X1.937 Y125.083 E61.36568
G1 X2.023 Y123.868 E61.4224
G1 X2.171 Y121.242 E61.54487
G1 X2.243 Y118.698 E61.66338
G1 X2.243 Y116.176 E61.78081
G1 X2.171 Y113.653 E61.89834
G1 X2.025 Y111.078 E62.01844
G1 X1.94 Y109.961 E62.0706
G1 X1.913 Y109.454 E62.09424
G1 X1.9 Y108.838 E62.12293
G1 X1.901 Y92.057 E62.90432
G1 X1.911 Y91.339 E62.93776
G1 X1.936 Y90.752 E62.96512
G1 X2.028 Y89.446 E63.02608
G1 X2.171 Y86.905 E63.14459
G1 X2.243 Y84.362 E63.26305
G1 X2.243 Y81.839 E63.38053
G1 X2.171 Y79.292 E63.49918
G1 X2.028 Y76.784 E63.61615
G1 X1.94 Y75.622 E63.67041
G1 X1.914 Y75.14 E63.69289
G1 X1.9 Y74.491 E63.72312
G1 X1.901 Y66.015 E64.11779
G1 X1.912 Y65.332 E64.1496
G1 X1.969 Y64.395 E64.19331
G1 X2.109 Y63.468 E64.23697
G1 X2.33 Y62.555 E64.28071
G1 X2.632 Y61.666 E64.32443
G1 X3.01 Y60.808 E64.36808
G1 X3.463 Y59.986 E64.41179
G1 X3.987 Y59.206 E64.45554
G1 X4.578 Y58.478 E64.49921
G1 X5.231 Y57.804 E64.5429
G1 X5.941 Y57.19 E64.58661
G1 X6.702 Y56.641 E64.63031
G1 X7.51 Y56.162 E64.67404
G1 X8.324 Y55.771 E64.71609
G1 X9.235 Y55.428 E64.76142
G1 X10.139 Y55.178 E64.80509
G0 F6000 X10.212 Y55.571
G1 F1200 X11.1 Y55.407 E64.84714
G1 X12.223 Y55.313 E64.89962
G1 X12.83 Y55.3 E64.92789
G1 X221.793 Y55.3 E74.65808
G1 X222.637 Y55.311 E74.69738
G1 X223.539 Y55.364 E74.73946
G1 X224.432 Y55.496 E74.78149
G1 X225.31 Y55.707 E74.82354
G1 X226.166 Y55.995 E74.86559
G1 X226.993 Y56.357 E74.90763
G1 X227.785 Y56.792 E74.9497
G1 X228.536 Y57.294 E74.99177
G1 X229.239 Y57.861 E75.03382
G1 X229.889 Y58.488 E75.07588
G1 X230.481 Y59.17 E75.11793
G1 X231.011 Y59.901 E75.15997
G1 X231.473 Y60.677 E75.20202
G1 X231.866 Y61.49 E75.24407
G1 X232.184 Y62.335 E75.28611
G1 X232.427 Y63.205 E75.32817
G1 X232.592 Y64.093 E75.37023
G1 X232.687 Y65.223 E75.42303
G1 X232.7 Y65.83 E75.4513
G1 X232.699 Y74.233 E75.84258
G1 X232.689 Y74.959 E75.87639
G1 X232.665 Y75.54 E75.90347
G1 X232.576 Y76.794 E75.96201
G1 X232.429 Y79.396 E76.08336
G1 X232.356 Y81.935 E76.20164
G1 X232.356 Y84.47 E76.31968
G1 X232.427 Y87.004 E76.43772
G1 X232.573 Y89.599 E76.55874
G1 X232.659 Y90.711 E76.61068
G1 X232.686 Y91.208 E76.63385
G1 X232.7 Y91.849 E76.66371
G1 X232.699 Y108.582 E77.44287
G1 X232.689 Y109.303 E77.47644
G1 X232.665 Y109.881 E77.50338
G1 X232.575 Y111.157 E77.56294
G1 X232.429 Y113.747 E77.68374
G1 X232.357 Y116.291 E77.80224
G1 X232.357 Y118.824 E77.92019
G1 X232.429 Y121.358 E78.03823
G1 X232.576 Y123.962 E78.15968
G1 X232.66 Y125.052 E78.21058
G1 X232.685 Y125.523 E78.23254
G1 X232.7 Y126.162 E78.26231
G1 X232.699 Y142.9 E79.0417
G1 X232.689 Y143.627 E79.07555
G1 X232.664 Y144.208 E79.10263
G1 X232.581 Y145.376 E79.15716
G1 X232.429 Y148.063 E79.28247
G1 X232.356 Y150.602 E79.40075
G1 X232.356 Y153.137 E79.51879
G1 X232.427 Y155.671 E79.63683
G1 X232.573 Y158.266 E79.75786
G1 X232.659 Y159.378 E79.80979
G1 X232.686 Y159.875 E79.83297
G1 X232.7 Y160.516 E79.86282
G1 X232.699 Y168.904 E80.2534
G1 X232.689 Y169.631 E80.28726
G1 X232.637 Y170.533 E80.32933
G1 X232.505 Y171.426 E80.37136
G1 X232.294 Y172.305 E80.41345
G1 X232.007 Y173.161 E80.45549
G1 X231.645 Y173.988 E80.49753
G1 X231.211 Y174.78 E80.53958
G1 X230.709 Y175.531 E80.58165
G1 X230.143 Y176.234 E80.62367
G1 X229.516 Y176.885 E80.66576
G1 X228.835 Y177.477 E80.70777
G1 X228.104 Y178.007 E80.74982
G1 X227.328 Y178.47 E80.79189
G1 X226.515 Y178.863 E80.83394
G1 X225.67 Y179.183 E80.87602
G1 X224.801 Y179.426 E80.91803
G1 X223.913 Y179.591 E80.96009
G1 X222.777 Y179.687 E81.01317
G1 X222.17 Y179.7 E81.04145
G1 X13.075 Y179.699 E90.77779
G1 X12.377 Y179.69 E90.81029
G1 X11.476 Y179.639 E90.85231
G1 X10.582 Y179.507 E90.89439
G1 X9.704 Y179.298 E90.93642
G1 X8.847 Y179.011 E90.9785
G1 X8.02 Y178.65 E91.02052
G1 X7.227 Y178.217 E91.06259
G1 X6.476 Y177.716 E91.10463
G1 X5.772 Y177.15 E91.14669
G1 X5.121 Y176.524 E91.18874
G1 X4.528 Y175.843 E91.23079
G1 X3.998 Y175.112 E91.27283
G1 X3.534 Y174.337 E91.31489
G1 X3.14 Y173.524 E91.35696
G1 X2.82 Y172.68 E91.39899
G1 X2.576 Y171.81 E91.44107
G1 X2.41 Y170.922 E91.48313
G1 X2.313 Y169.767 E91.5371
G1 X2.3 Y169.158 E91.56547
G1 X2.301 Y160.73 E91.95791
G1 X2.311 Y160.024 E91.99079
G1 X2.335 Y159.448 E92.01763
G1 X2.427 Y158.141 E92.07864
G1 X2.571 Y155.583 E92.19794
G1 X2.643 Y153.04 E92.3164
G1 X2.643 Y150.506 E92.4344
G1 X2.571 Y147.948 E92.55355
G1 X2.427 Y145.421 E92.67141
G1 X2.339 Y144.268 E92.72526
G1 X2.314 Y143.798 E92.74717
G1 X2.3 Y143.158 E92.77698
G1 X2.301 Y126.396 E93.55749
G1 X2.311 Y125.689 E93.59041
G1 X2.336 Y125.111 E93.61735
G1 X2.422 Y123.896 E93.67407
G1 X2.571 Y121.253 E93.79733
G1 X2.643 Y118.709 E93.91584
G1 X2.643 Y116.176 E94.03379
G1 X2.571 Y113.642 E94.15183
G1 X2.424 Y111.047 E94.27286
G1 X2.339 Y109.94 E94.32456
G1 X2.313 Y109.445 E94.34764
G1 X2.3 Y108.838 E94.37591
G1 X2.301 Y92.063 E95.15702
G1 X2.311 Y91.356 E95.18995
G1 X2.335 Y90.78 E95.21679
G1 X2.427 Y89.474 E95.27775
G1 X2.571 Y86.916 E95.39705
G1 X2.643 Y84.373 E95.51551
G1 X2.643 Y81.839 E95.63351
G1 X2.571 Y79.281 E95.75267
G1 X2.427 Y76.754 E95.87052
G1 X2.339 Y75.601 E95.92437
G1 X2.314 Y75.131 E95.94629
G1 X2.3 Y74.491 E95.97609
G1 X2.301 Y66.021 E96.37049
G1 X2.311 Y65.356 E96.40146
G1 X2.365 Y64.454 E96.44354
G1 X2.498 Y63.561 E96.48558
G1 X2.709 Y62.683 E96.52763
G1 X2.998 Y61.827 E96.56969
G1 X3.361 Y61 E96.61175
G1 X3.795 Y60.209 E96.65376
G1 X4.298 Y59.458 E96.69585
G1 X4.866 Y58.756 E96.7379
G1 X5.493 Y58.106 E96.77995
G1 X6.175 Y57.514 E96.822
G1 X6.907 Y56.985 E96.86406
G1 X7.683 Y56.523 E96.90611
G1 X8.497 Y56.132 E96.94816
G1 X9.342 Y55.813 E96.99022
G1 X10.212 Y55.571 E97.03227
G1 F1500 E90.53227
;MESH:tm_scoring_x1.stl
G0 F6000 X82.477 Y77.595
G0 X117.318 Y92.091
;TYPE:WALL-INNER
G1 F1500 E97.03227
G1 F1200 X86.028 Y92.096 E98.48926
G1 X85.483 Y92.026 E98.51485
G1 X84.899 Y91.837 E98.54343
G1 X84.394 Y91.593 E98.56954
G1 X83.878 Y91.216 E98.5993
G1 X83.414 Y90.732 E98.63052
G1 X83.084 Y90.212 E98.6592
G1 X82.895 Y89.809 E98.67992
G1 X82.731 Y89.308 E98.70447
G1 X82.656 Y88.728 E98.7317
G1 X82.657 Y77.604 E99.24968
G1 X82.725 Y77.047 E99.27581
G1 X82.917 Y76.471 E99.30408
G1 X83.142 Y76 E99.32839
G1 X83.502 Y75.504 E99.35693
G1 X83.754 Y75.236 E99.37406
G1 X84.099 Y74.943 E99.39513
G1 X84.612 Y74.613 E99.42354
G1 X85.099 Y74.421 E99.44791
G1 X85.542 Y74.303 E99.46926
G1 X85.977 Y74.241 E99.48972
G1 X118.792 Y74.236 E101.01772
G1 X119.204 Y74.288 E101.03706
G1 X119.798 Y74.437 E101.06558
G1 X120.347 Y74.697 E101.09386
G1 X120.655 Y74.893 E101.11086
G1 X121.065 Y75.232 E101.13563
G1 X121.423 Y75.617 E101.16011
G1 X121.749 Y76.135 E101.18861
G1 X121.931 Y76.537 E101.20916
G1 X122.095 Y77.048 E101.23415
G1 X122.168 Y77.672 E101.2634
G1 X122.164 Y88.765 E101.77994
G1 X122.088 Y89.31 E101.80556
G1 X121.934 Y89.793 E101.82917
G1 X121.69 Y90.318 E101.85613
G1 X121.281 Y90.886 E101.88872
G1 X120.813 Y91.33 E101.91876
G1 X120.296 Y91.66 E101.94732
G1 X119.911 Y91.841 E101.96713
G1 X119.429 Y91.994 E101.99068
G1 X118.905 Y92.091 E102.01549
G1 X117.318 Y92.091 E102.08939
G1 F1500 E95.58939
G0 F6000 X117.491 Y92.29
G0 X117.495 Y108.365
G0 X117.5 Y126.423
G1 F1500 E102.08939
G1 F1200 X86.221 Y126.432 E103.54587
G1 X85.715 Y126.401 E103.56947
