;FLAVOR:Marlin
;TIME:13219
;Filament used: 13.7197m
;Layer height: 0.28
;MINX:1.5
;MINY:71.5
;MINZ:0.28
;MAXX:233.5
;MAXY:163.5
;MAXZ:19.88
;TARGET_MACHINE.NAME:Creality CR-6 SE
;Generated with Cura_SteamEngine 5.8.1
M140 S60
M105
M190 S60
M104 S200
M105
M109 S200
M82 ;absolute extrusion mode
M201 X500.00 Y500.00 Z100.00 E5000.00 ;Setup machine max acceleration
M203 X500.00 Y500.00 Z10.00 E50.00 ;Setup machine max feedrate
M204 P500.00 R1000.00 T500.00 ;Setup Print/Retract/Travel acceleration
M205 X8.00 Y8.00 Z0.40 E5.00 ;Setup Jerk
M220 S100 ;Reset Feedrate
M221 S100 ;Reset Flowrate

G28 ;Home

G92 E0 ;Reset Extruder
G1 Z2.0 F3000 ;Move Z Axis up
G1 X10.1 Y20 Z0.28 F5000.0 ;Move to start position
G1 X10.1 Y200.0 Z0.28 F1500.0 E15 ;Draw the first line
G1 X10.4 Y200.0 Z0.28 F5000.0 ;Move to side a little
G1 X10.4 Y20 Z0.28 F1500.0 E30 ;Draw the second line
G92 E0 ;Reset Extruder
G1 Z2.0 F3000 ;Move Z Axis up

G92 E0
G92 E0
G1 F1500 E-6.5
;LAYER_COUNT:71
;LAYER:0
M107
G0 F6000 X11.016 Y71.611 Z0.28
;TYPE:SKIRT
G1 F1500 E0
G1 F1200 X12.155 Y71.515 E0.05322
G1 X12.812 Y71.5 E0.08383
G1 X20.061 Y71.5 E0.42137
G1 X20.917 Y71.511 E0.46123
G1 X21.364 Y71.528 E0.48206
G1 X24.077 Y71.681 E0.60859
G1 X26.615 Y71.754 E0.72682
G1 X29.11 Y71.755 E0.843
G1 X31.664 Y71.684 E0.96197
G1 X34.782 Y71.518 E1.10736
G1 X35.37 Y71.501 E1.13475
G1 X49.917 Y71.5 E1.81212
G1 X50.774 Y71.511 E1.85203
G1 X51.221 Y71.528 E1.87286
G1 X53.934 Y71.681 E1.99939
G1 X56.472 Y71.754 E2.11762
G1 X58.967 Y71.755 E2.23379
G1 X61.521 Y71.684 E2.35277
G1 X64.659 Y71.516 E2.49909
G1 X65.227 Y71.501 E2.52555
G1 X79.774 Y71.5 E3.20292
G1 X80.631 Y71.511 E3.24283
G1 X81.078 Y71.528 E3.26366
G1 X83.791 Y71.681 E3.39019
G1 X86.329 Y71.754 E3.50842
G1 X88.824 Y71.755 E3.62459
G1 X91.378 Y71.684 E3.74356
G1 X94.516 Y71.516 E3.88989
G1 X95.084 Y71.501 E3.91635
G1 X109.631 Y71.5 E4.59372
G1 X110.504 Y71.511 E4.63437
G1 X110.96 Y71.529 E4.65562
G1 X113.67 Y71.684 E4.78202
G1 X116.221 Y71.756 E4.90085
G1 X118.715 Y71.756 E5.01698
G1 X121.256 Y71.685 E5.13535
G1 X123.997 Y71.53 E5.26318
G1 X124.474 Y71.512 E5.28541
G1 X125.219 Y71.5 E5.32011
G1 X139.645 Y71.501 E5.99184
G1 X140.794 Y71.528 E6.04536
G1 X143.537 Y71.683 E6.17329
G1 X146.073 Y71.756 E6.29142
G1 X148.561 Y71.758 E6.40727
G1 X151.09 Y71.687 E6.52508
G1 X153.952 Y71.526 E6.65856
G1 X155.089 Y71.5 E6.71152
G1 X169.498 Y71.501 E7.38246
G1 X170.667 Y71.528 E7.43691
G1 X173.432 Y71.684 E7.56586
G1 X175.963 Y71.756 E7.68376
G1 X178.452 Y71.756 E7.79966
G1 X180.986 Y71.684 E7.9177
G1 X183.767 Y71.527 E8.0474
G1 X184.971 Y71.5 E8.10348
G1 X199.355 Y71.501 E8.77326
G1 X200.524 Y71.528 E8.82771
G1 X203.289 Y71.684 E8.95666
G1 X205.82 Y71.756 E9.07457
G1 X208.309 Y71.756 E9.19046
G1 X210.843 Y71.684 E9.30851
G1 X213.624 Y71.527 E9.43821
G1 X214.828 Y71.5 E9.49428
G1 X221.951 Y71.501 E9.82596
G1 X222.684 Y71.513 E9.8601
G1 X223.656 Y71.572 E9.90544
G1 X224.619 Y71.718 E9.95079
G1 X225.566 Y71.949 E9.99618
G1 X226.454 Y72.249 E10.03983
G1 X227.346 Y72.639 E10.08516
G1 X228.229 Y73.126 E10.13212
G1 X228.98 Y73.628 E10.17418
G1 X229.795 Y74.286 E10.22295
G1 X230.493 Y74.964 E10.26826
G1 X231.129 Y75.701 E10.31359
G1 X231.699 Y76.491 E10.35895
G1 X232.161 Y77.267 E10.40101
G1 X232.615 Y78.209 E10.4497
G1 X232.944 Y79.087 E10.49336
G1 X233.213 Y80.059 E10.54032
G1 X233.39 Y81.025 E10.58605
G1 X233.485 Y82.155 E10.63885
G1 X233.5 Y82.83 E10.67029
G1 X233.499 Y151.9 E13.88648
G1 X233.488 Y152.663 E13.92201
G1 X233.431 Y153.636 E13.9674
G1 X233.286 Y154.599 E14.01274
G1 X233.057 Y155.545 E14.05807
G1 X232.746 Y156.469 E14.10346
G1 X232.354 Y157.36 E14.14879
G1 X231.886 Y158.212 E14.19405
G1 X231.364 Y158.993 E14.23779
G1 X230.731 Y159.778 E14.28475
G1 X230.106 Y160.429 E14.32677
G1 X229.317 Y161.117 E14.37552
G1 X228.557 Y161.667 E14.4192
G1 X227.69 Y162.184 E14.46621
G1 X226.812 Y162.606 E14.51157
G1 X225.901 Y162.948 E14.55688
G1 X224.962 Y163.209 E14.60226
G1 X223.996 Y163.387 E14.648
G1 X222.845 Y163.485 E14.70179
G1 X222.17 Y163.5 E14.73322
G1 X13.064 Y163.499 E24.47008
G1 X12.331 Y163.488 E24.50421
G1 X11.359 Y163.431 E24.54955
G1 X10.396 Y163.285 E24.5949
G1 X9.45 Y163.056 E24.64022
G1 X8.526 Y162.744 E24.68564
G1 X7.636 Y162.352 E24.73092
G1 X6.813 Y161.901 E24.77462
G1 X5.974 Y161.34 E24.82162
G1 X5.27 Y160.774 E24.86368
G1 X4.517 Y160.049 E24.91235
G1 X3.88 Y159.313 E24.95768
G1 X3.35 Y158.582 E24.99972
G1 X2.814 Y157.685 E25.04838
G1 X2.392 Y156.807 E25.09374
G1 X2.05 Y155.895 E25.13909
G1 X1.79 Y154.957 E25.18442
G1 X1.612 Y153.988 E25.23029
G1 X1.514 Y152.809 E25.28538
G1 X1.5 Y152.158 E25.3157
G1 X1.501 Y83.025 E28.53482
G1 X1.512 Y82.325 E28.56742
G1 X1.57 Y81.352 E28.61281
G1 X1.716 Y80.389 E28.65816
G1 X1.946 Y79.443 E28.70349
G1 X2.259 Y78.52 E28.74888
G1 X2.651 Y77.63 E28.79416
G1 X3.121 Y76.777 E28.83951
G1 X3.664 Y75.969 E28.88484
G1 X4.231 Y75.265 E28.92693
G1 X4.956 Y74.513 E28.97557
G1 X5.692 Y73.876 E29.0209
G1 X6.424 Y73.346 E29.06298
G1 X7.321 Y72.811 E29.11161
G1 X8.199 Y72.39 E29.15695
G1 X9.112 Y72.048 E29.20235
G1 X10.049 Y71.789 E29.24762
G1 X11.016 Y71.611 E29.2934
G0 F6000 X11.05 Y72.01
G1 F1200 X12.189 Y71.914 E29.34662
G1 X12.821 Y71.9 E29.37606
G1 X20.056 Y71.9 E29.71295
G1 X20.902 Y71.911 E29.75235
G1 X21.341 Y71.927 E29.7728
G1 X24.065 Y72.081 E29.89985
G1 X26.603 Y72.154 E30.01808
G1 X29.121 Y72.155 E30.13533
G1 X31.675 Y72.084 E30.2543
G1 X34.803 Y71.917 E30.40016
G1 X35.37 Y71.901 E30.42657
G1 X49.912 Y71.9 E31.10371
G1 X50.759 Y71.911 E31.14315
G1 X51.198 Y71.927 E31.1636
G1 X53.922 Y72.081 E31.29065
G1 X56.46 Y72.154 E31.40888
G1 X58.978 Y72.155 E31.52612
G1 X61.532 Y72.084 E31.6451
G1 X64.67 Y71.916 E31.79142
G1 X65.227 Y71.901 E31.81737
G1 X79.769 Y71.9 E32.49451
G1 X80.616 Y71.911 E32.53395
G1 X81.055 Y71.927 E32.5544
G1 X83.779 Y72.081 E32.68145
G1 X86.317 Y72.154 E32.79968
G1 X88.835 Y72.155 E32.91692
G1 X91.389 Y72.084 E33.0359
G1 X94.527 Y71.916 E33.18222
G1 X95.084 Y71.901 E33.20817
G1 X109.626 Y71.9 E33.8853
G1 X110.489 Y71.911 E33.92549
G1 X110.937 Y71.928 E33.94637
G1 X113.659 Y72.084 E34.07332
G1 X116.21 Y72.156 E34.19216
G1 X118.726 Y72.156 E34.30931
G1 X121.267 Y72.085 E34.42768
G1 X124.012 Y71.93 E34.5557
G1 X124.48 Y71.912 E34.57751
G1 X125.219 Y71.9 E34.61192
G1 X139.636 Y71.901 E35.28324
G1 X140.771 Y71.927 E35.3361
G1 X143.525 Y72.083 E35.46455
G1 X146.061 Y72.156 E35.58268
G1 X148.572 Y72.158 E35.69961
G1 X151.101 Y72.087 E35.81741
G1 X153.961 Y71.926 E35.9508
G1 X155.089 Y71.9 E36.00334
G1 X169.489 Y71.901 E36.67386
G1 X170.644 Y71.927 E36.72766
G1 X173.421 Y72.084 E36.85717
G1 X175.952 Y72.156 E36.97507
G1 X178.463 Y72.156 E37.092
G1 X180.997 Y72.084 E37.21004
G1 X183.776 Y71.927 E37.33964
G1 X184.971 Y71.9 E37.3953
G1 X199.346 Y71.901 E38.06466
G1 X200.501 Y71.927 E38.11846
G1 X203.278 Y72.084 E38.24797
G1 X205.809 Y72.156 E38.36588
G1 X208.32 Y72.156 E38.4828
G1 X210.854 Y72.084 E38.60084
G1 X213.633 Y71.927 E38.73045
G1 X214.828 Y71.9 E38.78611
G1 X221.945 Y71.901 E39.1175
G1 X222.66 Y71.912 E39.1508
G1 X223.597 Y71.968 E39.19451
G1 X224.525 Y72.107 E39.2382
G1 X225.438 Y72.328 E39.28194
G1 X226.294 Y72.616 E39.324
G1 X227.186 Y73.006 E39.36933
G1 X228.007 Y73.459 E39.41299
G1 X228.758 Y73.961 E39.45506
G1 X229.517 Y74.573 E39.50046
G1 X230.191 Y75.226 E39.54415
G1 X230.805 Y75.935 E39.58783
G1 X231.355 Y76.696 E39.63155
G1 X231.817 Y77.472 E39.6736
G1 X232.24 Y78.349 E39.71894
G1 X232.569 Y79.227 E39.7626
G1 X232.82 Y80.132 E39.80633
G1 X232.991 Y81.059 E39.85022
G1 X233.086 Y82.189 E39.90303
G1 X233.1 Y82.83 E39.93288
G1 X233.099 Y151.895 E43.14884
G1 X233.089 Y152.64 E43.18353
G1 X233.035 Y153.577 E43.22723
G1 X232.897 Y154.506 E43.27097
G1 X232.678 Y155.418 E43.31464
G1 X232.38 Y156.308 E43.35834
G1 X232.003 Y157.168 E43.40207
G1 X231.553 Y157.99 E43.4457
G1 X231.031 Y158.771 E43.48945
G1 X230.442 Y159.501 E43.53312
G1 X229.817 Y160.152 E43.57514
G1 X229.082 Y160.793 E43.62056
G1 X228.322 Y161.343 E43.66424
G1 X227.516 Y161.824 E43.70795
G1 X226.671 Y162.232 E43.75164
G1 X225.793 Y162.563 E43.79533
G1 X224.889 Y162.816 E43.83904
G1 X223.962 Y162.988 E43.88294
G1 X222.811 Y163.086 E43.93673
G1 X222.17 Y163.1 E43.96659
G1 X13.07 Y163.099 E53.70316
G1 X12.354 Y163.089 E53.7365
G1 X11.418 Y163.035 E53.78016
G1 X10.489 Y162.896 E53.8239
G1 X9.577 Y162.677 E53.86757
G1 X8.687 Y162.378 E53.91129
G1 X7.828 Y162.001 E53.95497
G1 X7.005 Y161.55 E53.99867
G1 X6.225 Y161.028 E54.04237
G1 X5.521 Y160.462 E54.08444
G1 X4.819 Y159.787 E54.12978
G1 X4.204 Y159.078 E54.17349
G1 X3.674 Y158.347 E54.21553
G1 X3.174 Y157.511 E54.26089
G1 X2.766 Y156.666 E54.30458
G1 X2.435 Y155.788 E54.34828
G1 X2.183 Y154.884 E54.39197
G1 X2.011 Y153.955 E54.43597
G1 X1.913 Y152.776 E54.49106
G1 X1.9 Y152.158 E54.51984
G1 X1.901 Y83.031 E57.73868
G1 X1.911 Y82.348 E57.77049
G1 X1.966 Y81.411 E57.81419
G1 X2.105 Y80.483 E57.85789
G1 X2.325 Y79.571 E57.90157
G1 X2.625 Y78.681 E57.94531
G1 X3.002 Y77.822 E57.98899
G1 X3.453 Y77 E58.03265
G1 X3.976 Y76.22 E58.07637
G1 X4.543 Y75.516 E58.11847
G1 X5.218 Y74.815 E58.16378
G1 X5.927 Y74.2 E58.20748
G1 X6.659 Y73.67 E58.24956
G1 X7.495 Y73.171 E58.2949
G1 X8.34 Y72.764 E58.33857
G1 X9.219 Y72.433 E58.38231
G1 X10.122 Y72.182 E58.42595
G1 X11.05 Y72.01 E58.4699
G0 F6000 X11.084 Y72.409
G1 F1200 X12.223 Y72.313 E58.52312
G1 X12.83 Y72.3 E58.55139
G1 X20.051 Y72.3 E58.88763
G1 X20.888 Y72.311 E58.92661
G1 X21.318 Y72.326 E58.94665
G1 X24.053 Y72.481 E59.0742
G1 X26.591 Y72.554 E59.19243
G1 X29.132 Y72.555 E59.31075
G1 X31.686 Y72.484 E59.42972
G1 X34.824 Y72.316 E59.57605
G1 X35.37 Y72.301 E59.60148
G1 X49.907 Y72.3 E60.27839
G1 X50.745 Y72.311 E60.31741
G1 X51.175 Y72.326 E60.33745
G1 X53.91 Y72.481 E60.465
G1 X56.448 Y72.554 E60.58323
G1 X58.989 Y72.555 E60.70155
G1 X61.543 Y72.484 E60.82052
G1 X64.681 Y72.316 E60.96685
G1 X65.227 Y72.301 E60.99228
G1 X79.764 Y72.3 E61.66919
G1 X80.602 Y72.311 E61.70821
G1 X81.032 Y72.326 E61.72825
G1 X83.767 Y72.481 E61.8558
G1 X86.305 Y72.554 E61.97403
G1 X88.846 Y72.555 E62.09235
G1 X91.4 Y72.484 E62.21132
G1 X94.538 Y72.316 E62.35765
G1 X95.084 Y72.301 E62.38308
G1 X109.621 Y72.3 E63.05999
G1 X110.474 Y72.311 E63.09971
G1 X110.914 Y72.327 E63.12021
G1 X113.648 Y72.484 E63.24773
G1 X116.199 Y72.556 E63.36656
G1 X118.737 Y72.556 E63.48474
G1 X121.278 Y72.485 E63.60311
G1 X124.028 Y72.33 E63.73136
G1 X124.487 Y72.312 E63.75275
G1 X125.219 Y72.3 E63.78684
G1 X139.627 Y72.301 E64.45774
G1 X140.748 Y72.326 E64.50995
G1 X143.513 Y72.483 E64.63891
G1 X146.049 Y72.556 E64.75704
G1 X148.583 Y72.558 E64.87504
G1 X151.112 Y72.487 E64.99284
G1 X153.97 Y72.326 E65.12613
G1 X155.089 Y72.3 E65.17825
G1 X169.48 Y72.301 E65.84836
G1 X170.621 Y72.326 E65.9015
G1 X173.41 Y72.484 E66.03158
G1 X175.941 Y72.556 E66.14948
G1 X178.474 Y72.556 E66.26743
G1 X181.008 Y72.484 E66.38547
G1 X183.785 Y72.327 E66.51498
G1 X184.971 Y72.3 E66.57022
G1 X199.337 Y72.301 E67.23916
G1 X200.478 Y72.326 E67.29231
G1 X203.267 Y72.484 E67.42238
G1 X205.798 Y72.556 E67.54028
G1 X208.331 Y72.556 E67.65823
G1 X210.865 Y72.484 E67.77627
G1 X213.642 Y72.327 E67.90579
G1 X214.828 Y72.3 E67.96103
G1 X221.939 Y72.301 E68.29214
G1 X222.637 Y72.311 E68.32465
G1 X223.539 Y72.364 E68.36672
G1 X224.432 Y72.496 E68.40876
G1 X225.31 Y72.707 E68.4508
G1 X226.166 Y72.995 E68.49286
G1 X226.993 Y73.357 E68.53489
G1 X227.785 Y73.792 E68.57697
G1 X228.536 Y74.294 E68.61903
G1 X229.239 Y74.861 E68.66109
G1 X229.889 Y75.488 E68.70314
G1 X230.481 Y76.17 E68.74519
G1 X231.011 Y76.901 E68.78724
G1 X231.473 Y77.677 E68.82929
G1 X231.866 Y78.49 E68.87134
G1 X232.184 Y79.335 E68.91338
G1 X232.427 Y80.205 E68.95544
G1 X232.592 Y81.093 E68.9975
G1 X232.687 Y82.223 E69.0503
G1 X232.7 Y82.83 E69.07857
G1 X232.699 Y151.89 E72.29429
G1 X232.69 Y152.617 E72.32815
G1 X232.639 Y153.519 E72.37022
G1 X232.508 Y154.413 E72.41229
G1 X232.299 Y155.291 E72.45431
G1 X232.013 Y156.148 E72.49638
G1 X231.652 Y156.976 E72.53844
G1 X231.22 Y157.768 E72.58045
G1 X230.719 Y158.52 E72.62253
G1 X230.153 Y159.224 E72.66459
G1 X229.528 Y159.875 E72.70661
G1 X228.847 Y160.469 E72.74869
G1 X228.116 Y161 E72.79076
G1 X227.342 Y161.464 E72.83278
G1 X226.529 Y161.858 E72.87485
G1 X225.685 Y162.178 E72.91688
G1 X224.815 Y162.423 E72.95897
G1 X223.928 Y162.589 E73.00099
G1 X222.777 Y162.687 E73.05477
G1 X222.17 Y162.7 E73.08305
G1 X13.075 Y162.699 E82.81938
G1 X12.377 Y162.69 E82.85189
G1 X11.476 Y162.639 E82.89391
G1 X10.582 Y162.507 E82.93599
G1 X9.704 Y162.298 E82.97802
G1 X8.847 Y162.011 E83.0201
G1 X8.02 Y161.65 E83.06212
G1 X7.227 Y161.217 E83.10419
G1 X6.476 Y160.716 E83.14623
G1 X5.772 Y160.15 E83.18829
G1 X5.121 Y159.524 E83.23034
G1 X4.528 Y158.843 E83.27239
G1 X3.998 Y158.112 E83.31443
G1 X3.534 Y157.337 E83.35649
G1 X3.14 Y156.524 E83.39856
G1 X2.82 Y155.68 E83.44059
G1 X2.576 Y154.81 E83.48267
G1 X2.41 Y153.922 E83.52473
G1 X2.313 Y152.767 E83.5787
G1 X2.3 Y152.158 E83.60707
G1 X2.301 Y83.036 E86.82568
G1 X2.31 Y82.371 E86.85664
G1 X2.362 Y81.469 E86.89871
G1 X2.494 Y80.576 E86.94075
G1 X2.704 Y79.698 E86.98278
G1 X2.991 Y78.841 E87.02487
G1 X3.353 Y78.014 E87.0669
G1 X3.786 Y77.222 E87.10894
G1 X4.288 Y76.471 E87.151
G1 X4.855 Y75.767 E87.19309
G1 X5.481 Y75.117 E87.23511
G1 X6.162 Y74.524 E87.27716
G1 X6.894 Y73.994 E87.31924
G1 X7.669 Y73.531 E87.36128
G1 X8.482 Y73.138 E87.40332
G1 X9.327 Y72.818 E87.4454
G1 X10.196 Y72.575 E87.48741
G1 X11.084 Y72.409 E87.52948
G1 F1500 E81.02948
;MESH:tm_trade_x1.stl
G0 F6000 X34.475 Y85.877
G0 X117.5 Y151.9
;TYPE:WALL-INNER
G1 F1500 E87.52948
G1 F1200 X221.9 Y151.9 E92.39078
G1 X221.9 Y83.1 E95.5944
G1 X214.884 Y83.1 E95.92109
G1 X214.876 Y85.256 E96.02148
G1 X214.845 Y85.499 E96.03289
G1 X214.877 Y85.774 E96.04578
G1 X214.875 Y97.771 E96.60441
G1 X214.824 Y98.16 E96.62268
G1 X214.679 Y98.723 E96.64975
G1 X214.419 Y99.271 E96.678
G1 X214.18 Y99.638 E96.69839
G1 X213.884 Y99.989 E96.71977
G1 X213.502 Y100.349 E96.74421
G1 X213.05 Y100.635 E96.76912
G1 X212.572 Y100.86 E96.79372
G1 X212.141 Y100.994 E96.81473
G1 X211.623 Y101.09 E96.83927
G1 X202.686 Y101.1 E97.25541
G1 X202.044 Y101.016 E97.28556
G1 X201.504 Y100.835 E97.31208
G1 X201.032 Y100.611 E97.33641
G1 X200.561 Y100.274 E97.36337
G1 X200.235 Y99.968 E97.38419
G1 X199.917 Y99.579 E97.40759
G1 X199.709 Y99.25 E97.42571
G1 X199.523 Y98.858 E97.44592
G1 X199.342 Y98.321 E97.4723
G1 X199.261 Y97.694 E97.50174
G1 X199.264 Y85.736 E98.05856
G1 X199.295 Y85.493 E98.06996
G1 X199.263 Y85.222 E98.08267
G1 X199.26 Y83.1 E98.18148
G1 X185.028 Y83.101 E98.84418
G1 X185.021 Y85.183 E98.94113
G1 X184.988 Y85.495 E98.95574
G1 X185.024 Y85.841 E98.97194
G1 X185.018 Y97.74 E99.526
G1 X184.962 Y98.169 E99.54615
G1 X184.846 Y98.629 E99.56824
G1 X184.69 Y99.018 E99.58775
G1 X184.4 Y99.544 E99.61572
G1 X184.057 Y99.961 E99.64086
G1 X183.658 Y100.336 E99.66636
G1 X183.159 Y100.656 E99.69396
G1 X182.731 Y100.855 E99.71594
G1 X182.321 Y100.986 E99.73598
G1 X181.788 Y101.088 E99.76125
G1 X172.837 Y101.1 E100.17805
G1 X172.23 Y101.026 E100.20652
G1 X171.649 Y100.836 E100.23499
G1 X171.172 Y100.611 E100.25955
G1 X170.602 Y100.195 E100.2924
G1 X170.147 Y99.718 E100.3231
G1 X169.847 Y99.24 E100.34938
G1 X169.65 Y98.816 E100.37115
G1 X169.473 Y98.261 E100.39827
G1 X169.405 Y97.694 E100.42486
G1 X169.407 Y85.743 E100.98135
G1 X169.436 Y85.493 E100.99307
G1 X169.407 Y85.22 E101.00586
G1 X169.404 Y83.1 E101.10457
G1 X155.164 Y83.1 E101.76765
G1 X155.161 Y85.248 E101.86767
G1 X155.132 Y85.496 E101.87929
G1 X155.161 Y85.748 E101.8911
G1 X155.162 Y97.74 E102.4495
G1 X155.106 Y98.169 E102.46965
G1 X154.99 Y98.629 E102.49174
G1 X154.834 Y99.017 E102.51121
G1 X154.619 Y99.413 E102.53219
G1 X154.292 Y99.866 E102.55821
G1 X153.789 Y100.343 E102.59049
G1 X153.303 Y100.656 E102.6174
G1 X152.76 Y100.905 E102.64522
G1 X152.275 Y101.03 E102.66854
G1 X151.819 Y101.09 E102.68996
G1 X142.977 Y101.1 E103.10168
G1 X142.374 Y101.026 E103.12997
G1 X141.789 Y100.836 E103.15861
G1 X141.313 Y100.611 E103.18312
G1 X140.773 Y100.222 E103.21411
G1 X140.367 Y99.793 E103.24162
G1 X140.102 Y99.428 E103.26262
G1 X139.834 Y98.941 E103.2885
