;FLAVOR:Marlin
;TIME:12506
;Filament used: 12.7063m
;Layer height: 0.28
;MINX:0.5
;MINY:86.5
;MINZ:0.28
;MAXX:234.5
;MAXY:148.5
;MAXZ:40.04
;TARGET_MACHINE.NAME:Creality CR-6 SE
;Generated with Cura_SteamEngine 5.8.1
M140 S60
M105
M190 S60
M104 S200
M105
M109 S200
M82 ;absolute extrusion mode
M201 X500.00 Y500.00 Z100.00 E5000.00 ;Setup machine max acceleration
M203 X500.00 Y500.00 Z10.00 E50.00 ;Setup machine max feedrate
M204 P500.00 R1000.00 T500.00 ;Setup Print/Retract/Travel acceleration
M205 X8.00 Y8.00 Z0.40 E5.00 ;Setup Jerk
M220 S100 ;Reset Feedrate
M221 S100 ;Reset Flowrate

G28 ;Home

G92 E0 ;Reset Extruder
G1 Z2.0 F3000 ;Move Z Axis up
G1 X10.1 Y20 Z0.28 F5000.0 ;Move to start position
G1 X10.1 Y200.0 Z0.28 F1500.0 E15 ;Draw the first line
G1 X10.4 Y200.0 Z0.28 F5000.0 ;Move to side a little
G1 X10.4 Y20 Z0.28 F1500.0 E30 ;Draw the second line
G92 E0 ;Reset Extruder
G1 Z2.0 F3000 ;Move Z Axis up

G92 E0
G92 E0
G1 F1500 E-6.5
;LAYER_COUNT:143
;LAYER:0
M107
G0 F6000 X10.016 Y86.611 Z0.28
;TYPE:SKIRT
G1 F1500 E0
G1 F1200 X11.155 Y86.515 E0.05322
G1 X11.812 Y86.5 E0.08383
G1 X222.804 Y86.5 E9.9085
G1 X223.684 Y86.513 E9.94948
G1 X224.656 Y86.572 E9.99482
G1 X225.619 Y86.718 E10.04018
G1 X226.566 Y86.949 E10.08556
G1 X227.454 Y87.249 E10.12921
G1 X228.346 Y87.639 E10.17454
G1 X229.229 Y88.126 E10.2215
G1 X229.98 Y88.628 E10.26356
G1 X230.795 Y89.286 E10.31233
G1 X231.493 Y89.964 E10.35764
G1 X232.129 Y90.701 E10.40297
G1 X232.699 Y91.491 E10.44833
G1 X233.161 Y92.267 E10.49039
G1 X233.615 Y93.209 E10.53908
G1 X233.944 Y94.087 E10.58274
G1 X234.213 Y95.059 E10.6297
G1 X234.39 Y96.025 E10.67543
G1 X234.485 Y97.155 E10.72823
G1 X234.5 Y97.83 E10.75967
G1 X234.499 Y136.9 E12.57894
G1 X234.488 Y137.663 E12.61447
G1 X234.431 Y138.636 E12.65985
G1 X234.286 Y139.599 E12.7052
G1 X234.057 Y140.545 E12.75052
G1 X233.746 Y141.469 E12.79592
G1 X233.354 Y142.36 E12.84124
G1 X232.886 Y143.212 E12.88651
G1 X232.364 Y143.993 E12.93025
G1 X231.731 Y144.778 E12.97721
G1 X231.106 Y145.429 E13.01923
G1 X230.317 Y146.117 E13.06797
G1 X229.557 Y146.667 E13.11166
G1 X228.69 Y147.184 E13.15866
G1 X227.812 Y147.606 E13.20402
G1 X226.901 Y147.948 E13.24933
G1 X225.962 Y148.209 E13.29471
G1 X224.996 Y148.387 E13.34045
G1 X223.845 Y148.485 E13.39424
G1 X223.17 Y148.5 E13.42568
G1 X12.064 Y148.499 E23.25566
G1 X11.331 Y148.488 E23.28979
G1 X10.359 Y148.431 E23.33513
G1 X9.396 Y148.285 E23.38049
G1 X8.45 Y148.056 E23.42581
G1 X7.526 Y147.744 E23.47122
G1 X6.636 Y147.352 E23.5165
G1 X5.813 Y146.901 E23.5602
G1 X4.974 Y146.34 E23.6072
G1 X4.27 Y145.774 E23.64926
G1 X3.517 Y145.049 E23.69793
G1 X2.88 Y144.313 E23.74326
G1 X2.35 Y143.582 E23.7853
G1 X1.814 Y142.685 E23.83396
G1 X1.392 Y141.807 E23.87932
G1 X1.05 Y140.895 E23.92467
G1 X0.79 Y139.957 E23.97
G1 X0.612 Y138.988 E24.01587
G1 X0.514 Y137.809 E24.07096
G1 X0.5 Y137.158 E24.10128
G1 X0.501 Y98.025 E25.92348
G1 X0.512 Y97.325 E25.95608
G1 X0.57 Y96.352 E26.00147
G1 X0.716 Y95.389 E26.04682
G1 X0.946 Y94.443 E26.09215
G1 X1.259 Y93.52 E26.13754
G1 X1.651 Y92.63 E26.18282
G1 X2.121 Y91.777 E26.22817
G1 X2.664 Y90.969 E26.2735
G1 X3.231 Y90.265 E26.31559
G1 X3.956 Y89.513 E26.36423
G1 X4.692 Y88.876 E26.40955
G1 X5.424 Y88.346 E26.45164
G1 X6.321 Y87.811 E26.50027
G1 X7.199 Y87.39 E26.54561
G1 X8.112 Y87.048 E26.59101
G1 X9.049 Y86.789 E26.63627
G1 X10.016 Y86.611 E26.68206
G0 F6000 X10.05 Y87.01
G1 F1200 X11.189 Y86.914 E26.73528
G1 X11.821 Y86.9 E26.76472
G1 X222.798 Y86.9 E36.58869
G1 X223.66 Y86.912 E36.62883
G1 X224.597 Y86.968 E36.67254
G1 X225.525 Y87.107 E36.71624
G1 X226.438 Y87.328 E36.75998
G1 X227.294 Y87.616 E36.80203
G1 X228.186 Y88.006 E36.84736
G1 X229.007 Y88.459 E36.89103
G1 X229.758 Y88.961 E36.93309
G1 X230.517 Y89.573 E36.97849
G1 X231.191 Y90.226 E37.02219
G1 X231.805 Y90.935 E37.06586
G1 X232.355 Y91.696 E37.10958
G1 X232.817 Y92.472 E37.15163
G1 X233.24 Y93.349 E37.19697
G1 X233.569 Y94.227 E37.24063
G1 X233.82 Y95.132 E37.28436
G1 X233.991 Y96.059 E37.32826
G1 X234.086 Y97.189 E37.38106
G1 X234.1 Y97.83 E37.41091
G1 X234.099 Y136.895 E39.22994
G1 X234.089 Y137.64 E39.26464
G1 X234.035 Y138.577 E39.30834
G1 X233.897 Y139.506 E39.35207
G1 X233.678 Y140.418 E39.39575
G1 X233.38 Y141.308 E39.43945
G1 X233.003 Y142.168 E39.48317
G1 X232.553 Y142.99 E39.52681
G1 X232.031 Y143.771 E39.57055
G1 X231.442 Y144.501 E39.61423
G1 X230.817 Y145.152 E39.65625
G1 X230.082 Y145.793 E39.70166
G1 X229.322 Y146.343 E39.74535
G1 X228.516 Y146.824 E39.78905
G1 X227.671 Y147.232 E39.83275
G1 X226.793 Y147.563 E39.87644
G1 X225.889 Y147.816 E39.92015
G1 X224.962 Y147.988 E39.96405
G1 X223.811 Y148.086 E40.01784
G1 X223.17 Y148.1 E40.04769
G1 X12.07 Y148.099 E49.87739
G1 X11.354 Y148.089 E49.91074
G1 X10.418 Y148.035 E49.95439
G1 X9.489 Y147.896 E49.99813
G1 X8.577 Y147.677 E50.04181
G1 X7.687 Y147.378 E50.08553
G1 X6.828 Y147.001 E50.12921
G1 X6.005 Y146.55 E50.17291
G1 X5.225 Y146.028 E50.21661
G1 X4.521 Y145.462 E50.25867
G1 X3.819 Y144.787 E50.30402
G1 X3.204 Y144.078 E50.34772
G1 X2.674 Y143.347 E50.38977
G1 X2.174 Y142.511 E50.43513
G1 X1.766 Y141.666 E50.47882
G1 X1.435 Y140.788 E50.52251
G1 X1.183 Y139.884 E50.56621
G1 X1.011 Y138.955 E50.6102
G1 X0.913 Y137.776 E50.66529
G1 X0.9 Y137.158 E50.69407
G1 X0.901 Y98.031 E52.51599
G1 X0.911 Y97.348 E52.5478
G1 X0.966 Y96.411 E52.5915
G1 X1.105 Y95.483 E52.6352
G1 X1.325 Y94.571 E52.67888
G1 X1.625 Y93.681 E52.72262
G1 X2.002 Y92.822 E52.7663
G1 X2.453 Y92 E52.80996
G1 X2.976 Y91.22 E52.85368
G1 X3.543 Y90.516 E52.89578
G1 X4.218 Y89.815 E52.94109
G1 X4.927 Y89.2 E52.98479
G1 X5.659 Y88.67 E53.02687
G1 X6.495 Y88.171 E53.07221
G1 X7.34 Y87.764 E53.11588
G1 X8.219 Y87.433 E53.15962
G1 X9.122 Y87.182 E53.20326
G1 X10.05 Y87.01 E53.24721
G0 F6000 X10.084 Y87.409
G1 F1200 X11.223 Y87.313 E53.30043
G1 X11.83 Y87.3 E53.3287
G1 X222.793 Y87.3 E63.15202
G1 X223.637 Y87.311 E63.19133
G1 X224.539 Y87.364 E63.2334
G1 X225.432 Y87.496 E63.27543
G1 X226.31 Y87.707 E63.31748
G1 X227.166 Y87.995 E63.35954
G1 X227.993 Y88.357 E63.40157
G1 X228.785 Y88.792 E63.44365
G1 X229.536 Y89.294 E63.48571
G1 X230.239 Y89.861 E63.52777
G1 X230.889 Y90.488 E63.56982
G1 X231.481 Y91.17 E63.61187
G1 X232.011 Y91.901 E63.65391
G1 X232.473 Y92.677 E63.69597
G1 X232.866 Y93.49 E63.73801
G1 X233.184 Y94.335 E63.78006
G1 X233.427 Y95.205 E63.82212
G1 X233.592 Y96.093 E63.86417
G1 X233.687 Y97.223 E63.91698
G1 X233.7 Y97.83 E63.94525
G1 X233.699 Y136.89 E65.76404
G1 X233.69 Y137.617 E65.7979
G1 X233.639 Y138.519 E65.83997
G1 X233.508 Y139.413 E65.88204
G1 X233.299 Y140.291 E65.92407
G1 X233.013 Y141.148 E65.96614
G1 X232.652 Y141.976 E66.0082
G1 X232.22 Y142.768 E66.0502
G1 X231.719 Y143.52 E66.09228
G1 X231.153 Y144.224 E66.13434
G1 X230.528 Y144.875 E66.17636
G1 X229.847 Y145.469 E66.21844
G1 X229.116 Y146 E66.26051
G1 X228.342 Y146.464 E66.30253
G1 X227.529 Y146.858 E66.3446
G1 X226.685 Y147.178 E66.38663
G1 X225.815 Y147.423 E66.42872
G1 X224.928 Y147.589 E66.47074
G1 X223.777 Y147.687 E66.52453
G1 X223.17 Y147.7 E66.5528
G1 X12.075 Y147.699 E76.38227
G1 X11.377 Y147.69 E76.41477
G1 X10.476 Y147.639 E76.45679
G1 X9.582 Y147.507 E76.49887
G1 X8.704 Y147.298 E76.5409
G1 X7.847 Y147.011 E76.58298
G1 X7.02 Y146.65 E76.625
G1 X6.227 Y146.217 E76.66707
G1 X5.476 Y145.716 E76.70911
G1 X4.772 Y145.15 E76.75117
G1 X4.121 Y144.524 E76.79322
G1 X3.528 Y143.843 E76.83527
G1 X2.998 Y143.112 E76.87731
G1 X2.534 Y142.337 E76.91937
G1 X2.14 Y141.524 E76.96144
G1 X1.82 Y140.68 E77.00347
G1 X1.576 Y139.81 E77.04555
G1 X1.41 Y138.922 E77.08761
G1 X1.313 Y137.767 E77.14158
G1 X1.3 Y137.158 E77.16995
G1 X1.301 Y98.036 E78.99163
G1 X1.31 Y97.371 E79.0226
G1 X1.362 Y96.469 E79.06467
G1 X1.494 Y95.576 E79.1067
G1 X1.704 Y94.698 E79.14874
G1 X1.991 Y93.841 E79.19082
G1 X2.353 Y93.014 E79.23286
G1 X2.786 Y92.222 E79.27489
G1 X3.288 Y91.471 E79.31695
G1 X3.855 Y90.767 E79.35904
G1 X4.481 Y90.117 E79.40107
G1 X5.162 Y89.524 E79.44311
G1 X5.894 Y88.994 E79.48519
G1 X6.669 Y88.531 E79.52723
G1 X7.482 Y88.138 E79.56928
G1 X8.327 Y87.818 E79.61135
G1 X9.196 Y87.575 E79.65337
G1 X10.084 Y87.409 E79.69543
G1 F1500 E73.19543
;MESH:tm_terrain_x1.stl
G0 F6000 X12.3 Y96.835
G0 X117.5 Y136.9
;TYPE:WALL-INNER
G1 F1500 E79.69543
G1 F1200 X222.9 Y136.9 E84.6033
G1 X222.9 Y98.1 E86.40999
G1 X12.1 Y98.1 E96.22572
G1 X12.1 Y136.9 E98.03241
G1 X117.5 Y136.9 E102.94028
G0 F6000 X117.5 Y137.3
;TYPE:WALL-OUTER
G1 F1200 X223.3 Y137.3 E107.86677
G1 X223.3 Y97.7 E109.71071
G1 X11.7 Y97.7 E119.56369
G1 X11.7 Y137.3 E121.40763
G1 X117.5 Y137.3 E126.33413
G0 F6000 X117.5 Y136.54
;TYPE:SKIN
G1 F1200 X12.46 Y136.54 E131.22523
G1 X12.46 Y98.46 E132.99839
G1 X222.54 Y98.46 E142.7806
G1 X222.54 Y136.54 E144.55376
G1 X117.5 Y136.54 E149.44486
G1 F1500 E142.94486
G0 F6000 X117.5 Y136.8
G0 X12.272 Y136.728
G0 X12.2 Y135.979
G0 X12.66 Y135.979
G1 F1500 E149.44486
G1 F1200 X13.021 Y136.34 E149.46864
G0 F6000 X13.586 Y136.34
G1 F1200 X12.66 Y135.414 E149.52962
G0 F6000 X12.66 Y134.848
G1 F1200 X14.152 Y136.34 E149.62787
G0 F6000 X14.718 Y136.34
G1 F1200 X12.66 Y134.282 E149.76339
G0 F6000 X12.66 Y133.717
G1 F1200 X15.283 Y136.34 E149.93612
G0 F6000 X15.849 Y136.34
G1 F1200 X12.66 Y133.151 E150.14612
G0 F6000 X12.66 Y132.585
G1 F1200 X16.415 Y136.34 E150.39339
G0 F6000 X16.98 Y136.34
G1 F1200 X12.66 Y132.02 E150.67787
G0 F6000 X12.66 Y131.454
G1 F1200 X17.546 Y136.34 E150.99962
G0 F6000 X18.112 Y136.34
G1 F1200 X12.66 Y130.888 E151.35865
G0 F6000 X12.66 Y130.323
G1 F1200 X18.678 Y136.34 E151.75491
G0 F6000 X19.243 Y136.34
G1 F1200 X12.66 Y129.757 E152.18841
G0 F6000 X12.66 Y129.191
G1 F1200 X19.809 Y136.34 E152.65918
G0 F6000 X20.375 Y136.34
G1 F1200 X12.66 Y128.626 E153.1672
G0 F6000 X12.66 Y128.06
G1 F1200 X20.94 Y136.34 E153.71245
G0 F6000 X21.506 Y136.34
G1 F1200 X12.66 Y127.494 E154.29497
G0 F6000 X12.66 Y126.928
G1 F1200 X22.072 Y136.34 E154.91477
G0 F6000 X22.637 Y136.34
G1 F1200 X12.66 Y126.363 E155.57177
G0 F6000 X12.66 Y125.797
G1 F1200 X23.203 Y136.34 E156.26605
G0 F6000 X23.769 Y136.34
G1 F1200 X12.66 Y125.231 E156.99759
G0 F6000 X12.66 Y124.666
G1 F1200 X24.334 Y136.34 E157.76635
G0 F6000 X24.9 Y136.34
G1 F1200 X12.66 Y124.1 E158.57237
G0 F6000 X12.66 Y123.534
G1 F1200 X25.466 Y136.34 E159.41567
G0 F6000 X26.031 Y136.34
G1 F1200 X12.66 Y122.969 E160.29617
G0 F6000 X12.66 Y122.403
G1 F1200 X26.597 Y136.34 E161.21395
G0 F6000 X27.163 Y136.34
G1 F1200 X12.66 Y121.837 E162.16899
G0 F6000 X12.66 Y121.272
G1 F1200 X27.728 Y136.34 E163.16125
G0 F6000 X28.294 Y136.34
G1 F1200 X12.66 Y120.706 E164.19077
G0 F6000 X12.66 Y120.14
G1 F1200 X28.86 Y136.34 E165.25757
G0 F6000 X29.426 Y136.34
G1 F1200 X12.66 Y119.575 E166.36161
G0 F6000 X12.66 Y119.009
G1 F1200 X29.991 Y136.34 E167.50288
G0 F6000 X30.557 Y136.34
G1 F1200 X12.66 Y118.443 E168.68143
G0 F6000 X12.66 Y117.878
G1 F1200 X31.123 Y136.34 E169.89722
G0 F6000 X31.688 Y136.34
G1 F1200 X12.66 Y117.312 E171.15025
G0 F6000 X12.66 Y116.746
G1 F1200 X32.254 Y136.34 E172.44054
G0 F6000 X32.82 Y136.34
G1 F1200 X12.66 Y116.18 E173.76811
G0 F6000 X12.66 Y115.615
G1 F1200 X33.385 Y136.34 E175.13289
G0 F6000 X33.951 Y136.34
G1 F1200 X12.66 Y115.049 E176.53494
G0 F6000 X12.66 Y114.483
G1 F1200 X34.517 Y136.34 E177.97426
G0 F6000 X35.082 Y136.34
G1 F1200 X12.66 Y113.918 E179.45079
G0 F6000 X12.66 Y113.352
G1 F1200 X35.648 Y136.34 E180.96459
G0 F6000 X36.214 Y136.34
G1 F1200 X12.66 Y112.786 E182.51566
G0 F6000 X12.66 Y112.221
G1 F1200 X36.779 Y136.34 E184.10393
G0 F6000 X37.345 Y136.34
G1 F1200 X12.66 Y111.655 E185.72948
G0 F6000 X12.66 Y111.089
G1 F1200 X37.911 Y136.34 E187.39231
G0 F6000 X38.477 Y136.34
G1 F1200 X12.66 Y110.524 E189.09237
G0 F6000 X12.66 Y109.958
G1 F1200 X39.042 Y136.34 E190.82967
G0 F6000 X39.608 Y136.34
G1 F1200 X12.66 Y109.392 E192.60424
G0 F6000 X12.66 Y108.827
G1 F1200 X40.174 Y136.34 E194.41605
G0 F6000 X40.739 Y136.34
G1 F1200 X12.66 Y108.261 E196.2651
G0 F6000 X12.66 Y107.695
G1 F1200 X41.305 Y136.34 E198.15142
G0 F6000 X41.871 Y136.34
G1 F1200 X12.66 Y107.13 E200.07498
G0 F6000 X12.66 Y106.564
G1 F1200 X42.436 Y136.34 E202.03578
G0 F6000 X43.002 Y136.34
G1 F1200 X12.66 Y105.998 E204.03386
G0 F6000 X12.66 Y105.432
G1 F1200 X43.568 Y136.34 E206.0692
G0 F6000 X44.133 Y136.34
G1 F1200 X12.66 Y104.867 E208.14175
G0 F6000 X12.66 Y104.301
G1 F1200 X44.699 Y136.34 E210.25157
G0 F6000 X45.265 Y136.34
G1 F1200 X12.66 Y103.735 E212.39867
G0 F6000 X12.66 Y103.17
G1 F1200 X45.83 Y136.34 E214.58297
G0 F6000 X46.396 Y136.34
G1 F1200 X12.66 Y102.604 E216.80454
G0 F6000 X12.66 Y102.038
G1 F1200 X46.962 Y136.34 E219.06339
G0 F6000 X47.527 Y136.34
G1 F1200 X12.66 Y101.473 E221.35944
G0 F6000 X12.66 Y100.907
G1 F1200 X48.093 Y136.34 E223.69276
G0 F6000 X48.659 Y136.34
G1 F1200 X12.66 Y100.341 E226.06336
G0 F6000 X12.66 Y99.776
G1 F1200 X49.225 Y136.34 E228.47119
G0 F6000 X49.79 Y136.34
G1 F1200 X12.66 Y99.21 E230.91627
G0 F6000 X12.676 Y98.66
G1 F1200 X50.356 Y136.34 E233.39756
G0 F6000 X50.922 Y136.34
G1 F1200 X13.241 Y98.66 E235.87889
G0 F6000 X13.807 Y98.66
G1 F1200 X51.487 Y136.34 E238.36018
G0 F6000 X52.053 Y136.34
G1 F1200 X14.373 Y98.66 E240.84147
G0 F6000 X14.938 Y98.66
G1 F1200 X52.619 Y136.34 E243.3228
G0 F6000 X53.184 Y136.34
G1 F1200 X15.504 Y98.66 E245.80409
G0 F6000 X16.07 Y98.66
G1 F1200 X53.75 Y136.34 E248.28538
G0 F6000 X54.316 Y136.34
G1 F1200 X16.635 Y98.66 E250.76671
G0 F6000 X17.201 Y98.66
G1 F1200 X54.881 Y136.34 E253.248
G0 F6000 X55.447 Y136.34
G1 F1200 X17.767 Y98.66 E255.72929
G0 F6000 X18.332 Y98.66
G1 F1200 X56.013 Y136.34 E258.21061
G0 F6000 X56.578 Y136.34
G1 F1200 X18.898 Y98.66 E260.69191
G0 F6000 X19.464 Y98.66
G1 F1200 X57.144 Y136.34 E263.1732
G0 F6000 X57.71 Y136.34
G1 F1200 X20.03 Y98.66 E265.65449
G0 F6000 X20.595 Y98.66
G1 F1200 X58.275 Y136.34 E268.13578
G0 F6000 X58.841 Y136.34
G1 F1200 X21.161 Y98.66 E270.61708
G0 F6000 X21.727 Y98.66
G1 F1200 X59.407 Y136.34 E273.09837
G0 F6000 X59.973 Y136.34
G1 F1200 X22.292 Y98.66 E275.57969
G0 F6000 X22.858 Y98.66
G1 F1200 X60.538 Y136.34 E278.06099
G0 F6000 X61.104 Y136.34
G1 F1200 X23.424 Y98.66 E280.54228
G0 F6000 X23.989 Y98.66
G1 F1200 X61.67 Y136.34 E283.0236
G0 F6000 X62.235 Y136.34
G1 F1200 X24.555 Y98.66 E285.5049
G0 F6000 X25.121 Y98.66
G1 F1200 X62.801 Y136.34 E287.98619
G0 F6000 X63.367 Y136.34
G1 F1200 X25.686 Y98.66 E290.46751
G0 F6000 X26.252 Y98.66
G1 F1200 X63.932 Y136.34 E292.94881
G0 F6000 X64.498 Y136.34
G1 F1200 X26.818 Y98.66 E295.4301
G0 F6000 X27.383 Y98.66
G1 F1200 X65.064 Y136.34 E297.91142
G0 F6000 X65.629 Y136.34
G1 F1200 X27.949 Y98.66 E300.39272
G0 F6000 X28.515 Y98.66
G1 F1200 X66.195 Y136.34 E302.87401
G0 F6000 X66.761 Y136.34
G1 F1200 X29.08 Y98.66 E305.35533
G0 F6000 X29.646 Y98.66
G1 F1200 X67.326 Y136.34 E307.83663
G0 F6000 X67.892 Y136.34
G1 F1200 X30.212 Y98.66 E310.31792
G0 F6000 X30.778 Y98.66
G1 F1200 X68.458 Y136.34 E312.79921
G0 F6000 X69.024 Y136.34
G1 F1200 X31.343 Y98.66 E315.28054
G0 F6000 X31.909 Y98.66
G1 F1200 X69.589 Y136.34 E317.76183
G0 F6000 X70.155 Y136.34
G1 F1200 X32.475 Y98.66 E320.24312
G0 F6000 X33.04 Y98.66
G1 F1200 X70.721 Y136.34 E322.72445
G0 F6000 X71.286 Y136.34
G1 F1200 X33.606 Y98.66 E325.20574
G0 F6000 X34.172 Y98.66
G1 F1200 X71.852 Y136.34 E327.68703
G0 F6000 X72.418 Y136.34
G1 F1200 X34.737 Y98.66 E330.16836
G0 F6000 X35.303 Y98.66
G1 F1200 X72.983 Y136.34 E332.64965
G0 F6000 X73.549 Y136.34
G1 F1200 X35.869 Y98.66 E335.13094
G0 F6000 X36.434 Y98.66
G1 F1200 X74.115 Y136.34 E337.61227
G0 F6000 X74.68 Y136.34
G1 F1200 X37 Y98.66 E340.09356
G0 F6000 X37.566 Y98.66
G1 F1200 X75.246 Y136.34 E342.57485
G0 F6000 X75.812 Y136.34
G1 F1200 X38.131 Y98.66 E345.05618
G0 F6000 X38.697 Y98.66
G1 F1200 X76.377 Y136.34 E347.53747
G0 F6000 X76.943 Y136.34
G1 F1200 X39.263 Y98.66 E350.01876
G0 F6000 X39.828 Y98.66
G1 F1200 X77.509 Y136.34 E352.50009
G0 F6000 X78.074 Y136.34
G1 F1200 X40.394 Y98.66 E354.98138
G0 F6000 X40.96 Y98.66
G1 F1200 X78.64 Y136.34 E357.46267
G0 F6000 X79.206 Y136.34
G1 F1200 X41.526 Y98.66 E359.94396
G0 F6000 X42.091 Y98.66
G1 F1200 X79.772 Y136.34 E362.42529
G0 F6000 X80.337 Y136.34
