;FLAVOR:Marlin
;TIME:16485
;Filament used: 13.6046m
;Layer height: 0.2
;MINX:69.366
;MINY:80.184
;MINZ:0.2
;MAXX:166.665
;MAXY:155.75
;MAXZ:45.8
;Generated with Cura_SteamEngine 5.2.1
M140 S60
M105
M190 S60
M104 S200
M105
M109 S200
M82 ;absolute extrusion mode
M201 X500.00 Y500.00 Z100.00 E5000.00 ;Setup machine max acceleration
M203 X500.00 Y500.00 Z10.00 E50.00 ;Setup machine max feedrate
M204 P500.00 R1000.00 T500.00 ;Setup Print/Retract/Travel acceleration
M205 X8.00 Y8.00 Z0.40 E5.00 ;Setup Jerk
M220 S100 ;Reset Feedrate
M221 S100 ;Reset Flowrate

G28 ;Home

G92 E0 ;Reset Extruder
G1 Z2.0 F3000 ;Move Z Axis up
G1 X10.1 Y20 Z0.28 F5000.0 ;Move to start position
G1 X10.1 Y200.0 Z0.28 F1500.0 E15 ;Draw the first line
G1 X10.4 Y200.0 Z0.28 F5000.0 ;Move to side a little
G1 X10.4 Y20 Z0.28 F1500.0 E30 ;Draw the second line
G92 E0 ;Reset Extruder
G1 Z2.0 F3000 ;Move Z Axis up

G92 E0
G92 E0
G1 F1500 E-6.5
;LAYER_COUNT:229
;LAYER:0
M107
;MESH:Charley's Farm.stl
G0 F6000 X82.489 Y100.288 Z0.2
;TYPE:WALL-INNER
G1 F1500 E0
G1 F1200 X90.549 Y95.634 E0.30956
G1 X90.549 Y86.33 E0.61901
G1 X82.488 Y81.676 E0.9286
G1 X74.43 Y86.33 E1.2381
G1 X74.43 Y95.634 E1.54755
G1 X82.489 Y100.288 E1.85708
G0 F6000 X82.489 Y100.75
;TYPE:WALL-OUTER
G1 F1200 X90.949 Y95.865 E2.182
G1 X90.949 Y86.099 E2.50682
G1 X82.488 Y81.214 E2.83177
G1 X74.03 Y86.099 E3.15663
G1 X74.03 Y95.865 E3.48145
G1 X82.489 Y100.75 E3.80634
G0 F6000 X82.488 Y99.87
;TYPE:SKIN
G1 F1200 X90.188 Y95.425 E4.10205
G1 X90.188 Y86.539 E4.3976
G1 X82.489 Y82.094 E4.69329
G1 X74.791 Y86.539 E4.98894
G1 X74.791 Y90.982 E5.13671
G1 X74.791 Y95.425 E5.28449
G1 X82.488 Y99.87 E5.58012
G0 F6000 X82.357 Y100.095
G0 X81.272 Y99.358
G0 X74.663 Y95.5
G0 X74.626 Y95.122
G0 X74.53 Y94.789
G0 X74.99 Y94.789
G1 F1200 X76.219 Y96.018 E5.63792
G0 F6000 X75.987 Y96.417
G0 X77.325 Y97.19
G0 X77.557 Y96.79
G1 F1200 X74.99 Y94.224 E5.75864
G0 F6000 X74.99 Y93.658
G1 F1200 X78.896 Y97.563 E5.94235
G0 F6000 X78.664 Y97.963
G0 X80.003 Y98.736
G0 X80.235 Y98.337
G1 F1200 X74.99 Y93.092 E6.18906
G0 F6000 X74.99 Y92.527
G1 F1200 X81.573 Y99.11 E6.4987
G0 F6000 X81.341 Y99.509
G0 X81.873 Y99.703
G0 X82.489 Y100.018
G0 X82.833 Y99.973
G0 X82.602 Y99.572
G1 F1200 X74.99 Y91.961 E6.85672
G0 F6000 X74.99 Y91.395
G1 F1200 X82.96 Y99.365 E7.23161
G0 F6000 X83.319 Y99.158
G1 F1200 X74.99 Y90.829 E7.62338
G0 F6000 X74.99 Y90.264
G1 F1200 X83.677 Y98.951 E8.03199
G0 F6000 X84.036 Y98.743
G1 F1200 X74.99 Y89.698 E8.45746
G0 F6000 X74.99 Y89.132
G1 F1200 X84.395 Y98.537 E8.89984
G0 F6000 X84.753 Y98.33
G1 F1200 X74.99 Y88.567 E9.35906
G0 F6000 X74.99 Y88.001
G1 F1200 X85.112 Y98.123 E9.83517
G0 F6000 X85.47 Y97.915
G1 F1200 X74.99 Y87.435 E10.32812
G0 F6000 X74.99 Y86.87
G1 F1200 X85.83 Y97.709 E10.83797
G0 F6000 X86.188 Y97.502
G1 F1200 X75.212 Y86.525 E11.35428
G0 F6000 X75.571 Y86.319
G1 F1200 X86.547 Y97.295 E11.87055
G0 F6000 X86.905 Y97.087
G1 F1200 X75.929 Y86.112 E12.38681
G0 F6000 X76.288 Y85.904
G1 F1200 X87.264 Y96.88 E12.90308
G0 F6000 X87.623 Y96.674
G1 F1200 X76.646 Y85.697 E13.41941
G0 F6000 X77.005 Y85.49
G1 F1200 X87.981 Y96.467 E13.93571
G0 F6000 X88.34 Y96.259
G1 F1200 X77.364 Y85.284 E14.45196
G0 F6000 X77.723 Y85.076
G1 F1200 X88.698 Y96.052 E14.96822
G0 F6000 X89.057 Y95.846
G1 F1200 X78.081 Y84.869 E15.48452
G0 F6000 X78.44 Y84.662
G1 F1200 X89.416 Y95.639 E16.00082
G0 F6000 X89.774 Y95.431
G1 F1200 X78.799 Y84.456 E16.51705
G0 F6000 X79.157 Y84.248
G1 F1200 X89.987 Y95.078 E17.02646
G0 F6000 X89.987 Y94.513
G1 F1200 X79.516 Y84.041 E17.51901
G0 F6000 X79.874 Y83.834
G1 F1200 X89.987 Y93.947 E17.99469
G0 F6000 X89.987 Y93.381
G1 F1200 X80.233 Y83.627 E18.45349
G0 F6000 X80.592 Y83.42
G1 F1200 X89.987 Y92.816 E18.89542
G0 F6000 X89.987 Y92.25
G1 F1200 X80.95 Y83.213 E19.3205
G0 F6000 X81.309 Y83.006
G1 F1200 X89.987 Y91.684 E19.72868
G0 F6000 X89.987 Y91.119
G1 F1200 X81.668 Y82.799 E20.12001
G0 F6000 X82.026 Y82.592
G1 F1200 X89.987 Y90.553 E20.49447
G0 F6000 X89.987 Y89.987
G1 F1200 X82.385 Y82.385 E20.85204
G0 F6000 X82.154 Y81.985
G0 X82.489 Y81.945
G0 X83.121 Y82.269
G0 X83.674 Y82.477
G0 X83.442 Y82.876
G1 F1200 X89.987 Y89.422 E21.15992
G0 F6000 X89.987 Y88.856
G1 F1200 X84.779 Y83.648 E21.40489
G0 F6000 X85.011 Y83.248
G0 X86.349 Y84.021
G0 X86.117 Y84.42
G1 F1200 X89.987 Y88.29 E21.58693
G0 F6000 X89.987 Y87.725
G1 F1200 X87.455 Y85.192 E21.70605
G0 F6000 X87.686 Y84.793
G0 X89.025 Y85.566
G0 X88.793 Y85.965
G1 F1200 X89.987 Y87.159 E21.76221
G1 F1500 E15.26221
G0 F6000 X90.449 Y87.159
G0 X90.733 Y95.741
G0 X91.815 Y95.741
G0 X106.288 Y96.102
G0 X107.253 Y95.609
G0 X108.503 Y96.324
G0 X109.622 Y97.385
G0 X112.17 Y98.684
G0 X114.212 Y99.048
G0 X114.969 Y99.266
G1 F1500 E21.76221
G0 F6000 X115.001 Y99.374
;TYPE:WALL-INNER
G1 F1200 X117.9 Y98.914 E21.85984
G1 X120.519 Y97.58 E21.95759
G1 X122.598 Y95.501 E22.05538
G1 X123.93 Y92.885 E22.15302
G1 X124.391 Y89.983 E22.25075
G1 X123.931 Y87.083 E22.34841
G1 X122.599 Y84.465 E22.44611
G1 X120.519 Y82.385 E22.54395
G1 X117.904 Y81.05 E22.6416
G1 X114.999 Y80.589 E22.73943
G1 X112.1 Y81.049 E22.83706
G1 X109.481 Y82.385 E22.93484
G1 X107.4 Y84.465 E23.03271
G1 X106.069 Y87.078 E23.13024
G1 X105.608 Y89.982 E23.22804
G1 X105.838 Y91.434 E23.27693
G1 X106.068 Y92.881 E23.32566
G1 X107.4 Y95.499 E23.42336
G1 X109.481 Y97.58 E23.52124
G1 X112.096 Y98.913 E23.61887
G1 X115.001 Y99.374 E23.7167
G0 F6000 X115.001 Y99.779
;TYPE:WALL-OUTER
G1 F1200 X118.025 Y99.299 E23.81854
G1 X120.757 Y97.908 E23.9205
G1 X122.926 Y95.739 E24.02253
G1 X124.316 Y93.01 E24.12439
G1 X124.797 Y89.983 E24.22633
G1 X124.317 Y86.957 E24.32823
G1 X122.927 Y84.227 E24.43013
G1 X120.757 Y82.057 E24.5322
G1 X118.029 Y80.665 E24.63406
G1 X114.999 Y80.184 E24.7361
G1 X111.975 Y80.664 E24.83794
G1 X109.243 Y82.057 E24.93993
G1 X107.072 Y84.227 E25.04203
G1 X105.684 Y86.953 E25.14377
G1 X105.203 Y89.982 E25.24578
G1 X105.443 Y91.497 E25.2968
G1 X105.683 Y93.006 E25.34762
G1 X107.072 Y95.737 E25.44952
G1 X109.243 Y97.908 E25.55164
G1 X111.971 Y99.298 E25.65347
G1 X115.001 Y99.779 E25.75551
G0 F6000 X115.001 Y99.009
;TYPE:SKIN
G1 F1200 X117.786 Y98.566 E25.84931
G1 X120.303 Y97.285 E25.94324
G1 X122.305 Y95.284 E26.03739
G1 X123.583 Y92.771 E26.13116
G1 X124.027 Y89.982 E26.22509
G1 X123.583 Y87.196 E26.31892
G1 X122.305 Y84.683 E26.41269
G1 X120.303 Y82.68 E26.50688
G1 X117.79 Y81.398 E26.60071
G1 X114.999 Y80.954 E26.69471
G1 X112.214 Y81.397 E26.7885
G1 X109.697 Y82.681 E26.88248
G1 X107.693 Y84.682 E26.97667
G1 X106.417 Y87.192 E27.07032
G1 X105.972 Y89.981 E27.16426
G1 X106.416 Y92.767 E27.25809
G1 X107.693 Y95.282 E27.35191
G1 X109.697 Y97.285 E27.44614
G1 X112.21 Y98.565 E27.53994
G1 X115.001 Y99.009 E27.63394
G0 F6000 X114.96 Y99.265
G0 X114.286 Y99.063
G0 X112.17 Y98.684
G0 X110.877 Y98.072
G0 X110.25 Y97.859
G0 X110.459 Y97.449
G1 F1200 X107.529 Y94.518 E27.77178
G0 F6000 X107.119 Y94.725
G0 X106.535 Y93.577
G0 X106.946 Y93.369
G1 F1200 X111.612 Y98.036 E27.99128
G0 F6000 X111.403 Y98.446
G0 X112.487 Y98.872
G0 X112.559 Y98.417
G1 F1200 X106.563 Y92.42 E28.27334
G0 F6000 X106.455 Y91.747
G1 F1200 X113.232 Y98.524 E28.59211
G0 F6000 X113.905 Y98.631
G1 F1200 X106.348 Y91.074 E28.94757
G0 F6000 X106.24 Y90.401
G1 F1200 X114.577 Y98.738 E29.33971
G0 F6000 X115.182 Y98.777
G1 F1200 X106.203 Y89.798 E29.76206
G0 F6000 X106.28 Y89.31
G1 F1200 X115.669 Y98.699 E30.20369
G0 F6000 X116.157 Y98.621
G1 F1200 X106.358 Y88.822 E30.6646
G0 F6000 X106.436 Y88.334
G1 F1200 X116.645 Y98.543 E31.1448
G0 F6000 X117.133 Y98.466
G1 F1200 X106.515 Y87.847 E31.64426
G0 F6000 X106.592 Y87.359
G1 F1200 X117.621 Y98.388 E32.16303
G0 F6000 X118.019 Y98.22
G1 F1200 X106.758 Y86.959 E32.69272
G0 F6000 X106.949 Y86.585
G1 F1200 X118.394 Y98.029 E33.23103
G0 F6000 X118.769 Y97.839
G1 F1200 X107.14 Y86.209 E33.77805
G0 F6000 X107.33 Y85.834
G1 F1200 X119.144 Y97.648 E34.33374
G0 F6000 X119.519 Y97.457
G1 F1200 X107.521 Y85.459 E34.89809
G0 F6000 X107.711 Y85.084
G1 F1200 X119.894 Y97.266 E35.47112
G0 F6000 X120.248 Y97.055
G1 F1200 X107.925 Y84.732 E36.05075
G0 F6000 X108.208 Y84.449
G1 F1200 X120.531 Y96.772 E36.63039
G0 F6000 X120.814 Y96.489
G1 F1200 X108.491 Y84.166 E37.21003
G0 F6000 X108.774 Y83.884
G1 F1200 X121.096 Y96.206 E37.78962
G0 F6000 X121.379 Y95.923
G1 F1200 X109.057 Y83.601 E38.3692
G0 F6000 X109.34 Y83.319
G1 F1200 X121.662 Y95.641 E38.94879
G0 F6000 X121.945 Y95.358
G1 F1200 X109.623 Y83.036 E39.52838
G0 F6000 X109.936 Y82.783
G1 F1200 X122.2 Y95.047 E40.10524
G0 F6000 X122.39 Y94.672
G1 F1200 X110.31 Y82.592 E40.67345
G0 F6000 X110.685 Y82.401
G1 F1200 X122.581 Y94.297 E41.233
G0 F6000 X122.772 Y93.922
G1 F1200 X111.06 Y82.21 E41.7839
G0 F6000 X111.435 Y82.019
G1 F1200 X122.963 Y93.547 E42.32614
G0 F6000 X123.153 Y93.172
G1 F1200 X111.809 Y81.828 E42.85973
G0 F6000 X112.184 Y81.637
G1 F1200 X123.344 Y92.797 E43.38466
G0 F6000 X123.448 Y92.336
G1 F1200 X112.644 Y81.532 E43.89285
G0 F6000 X113.132 Y81.454
G1 F1200 X123.526 Y91.848 E44.38175
G0 F6000 X123.604 Y91.36
G1 F1200 X113.62 Y81.376 E44.85136
G0 F6000 X114.108 Y81.298
G1 F1200 X123.681 Y90.871 E45.30165
G0 F6000 X123.759 Y90.383
G1 F1200 X114.597 Y81.221 E45.7326
G0 F6000 X115.117 Y81.176
G1 F1200 X123.804 Y89.863 E46.14121
G0 F6000 X123.697 Y89.19
G1 F1200 X115.79 Y81.283 E46.51313
G0 F6000 X116.462 Y81.39
G1 F1200 X123.59 Y88.517 E46.84839
G0 F6000 X123.482 Y87.844
G1 F1200 X117.135 Y81.497 E47.14693
G0 F6000 X117.865 Y81.661
G1 F1200 X123.313 Y87.109 E47.40319
G0 F6000 X123.726 Y86.9
G0 X123.141 Y85.749
G0 X122.728 Y85.958
G1 F1200 X119.02 Y82.25 E47.5776
G0 F6000 X119.23 Y81.84
G0 X120.384 Y82.429
G0 X120.174 Y82.839
G1 F1200 X122.143 Y84.808 E47.67022
G1 F1500 E41.17022
G0 F6000 X122.555 Y84.599
G0 X123.029 Y85.739
G0 X123.703 Y87.156
G0 X115 Y99.132
G0 X113.451 Y98.929
G0 X112.038 Y99.088
G0 X111.546 Y100.054
G0 X99.911 Y123.661
G0 X90.941 Y144.733
;TYPE:WALL-INNER
G1 F1500 E47.67022
G1 F1200 X92.677 Y132.794 E48.07149
G1 X92.747 Y132.587 E48.07875
G1 X92.83 Y132.473 E48.08344
G1 X93.005 Y132.342 E48.09071
G1 X103.824 Y127.003 E48.49199
G1 X92.926 Y121.624 E48.8962
G1 X92.785 Y121.477 E48.90298
G1 X92.69 Y121.276 E48.91037
G1 X90.942 Y109.272 E49.31384
G1 X82.472 Y117.957 E49.71733
G1 X82.209 Y118.082 E49.72701
G1 X81.989 Y118.085 E49.73433
G1 X70.097 Y116.044 E50.13564
G1 X75.739 Y126.783 E50.53912
G1 X75.78 Y127.035 E50.54761
G1 X75.751 Y127.208 E50.55344
G1 X70.097 Y137.962 E50.95755
G1 X82.055 Y135.914 E51.36106
G1 X82.209 Y135.925 E51.3662
G1 X82.472 Y136.05 E51.37588
G1 X90.941 Y144.733 E51.7793
G0 F6000 X91.221 Y145.593
;TYPE:WALL-OUTER
G1 F1200 X93.08 Y132.808 E52.20901
G1 X93.145 Y132.719 E52.21267
G1 X104.728 Y127.003 E52.64228
G1 X93.147 Y121.282 E53.0719
G1 X93.077 Y121.175 E53.07615
G1 X91.221 Y108.412 E53.50512
G1 X82.203 Y117.66 E53.93474
G1 X82.108 Y117.7 E53.93817
G1 X69.366 Y115.512 E54.36817
G1 X75.373 Y126.947 E54.79779
G1 X75.358 Y127.096 E54.80277
G1 X69.366 Y138.493 E55.23103
G1 X82.108 Y136.307 E55.66102
G1 X82.203 Y136.347 E55.66445
G1 X91.221 Y145.593 E56.09402
G0 F6000 X91.051 Y145.07
G0 X90.502 Y144.137
G0 X90.69 Y143.954
;TYPE:SKIN
G1 F1200 X92.339 Y132.644 E56.47417
G1 X92.486 Y132.319 E56.48604
G1 X92.726 Y132.079 E56.49733
G1 X103.01 Y127.003 E56.87877
G1 X92.715 Y121.921 E57.26063
G1 X92.509 Y121.712 E57.27039
G1 X92.341 Y121.404 E57.28206
G1 X90.69 Y110.047 E57.66377
G1 X82.707 Y118.231 E58.04402
G1 X82.39 Y118.412 E58.05616
G1 X82.055 Y118.461 E58.06742
G1 X70.759 Y116.524 E58.44861
G1 X76.067 Y126.622 E58.82805
G1 X76.126 Y126.823 E58.83501
G1 X76.126 Y127.17 E58.84655
G1 X76.069 Y127.376 E58.85366
G1 X70.758 Y137.483 E59.23341
G1 X82.042 Y135.552 E59.61417
G1 X82.349 Y135.585 E59.62444
G1 X82.675 Y135.739 E59.63643
G1 X90.69 Y143.954 E60.01817
G0 F6000 X90.502 Y144.137
G0 X82.242 Y136.046
G0 X70.431 Y137.719
G0 X70.879 Y136.692
G0 X71.285 Y136.905
G1 F1200 X71.527 Y137.146 E60.02953
G0 F6000 X72.01 Y137.064
G1 F1200 X71.48 Y136.534 E60.05446
G0 F6000 X71.675 Y136.163
G1 F1200 X72.493 Y136.981 E60.09293
G0 F6000 X72.976 Y136.899
G1 F1200 X71.87 Y135.792 E60.14498
G0 F6000 X72.064 Y135.421
G1 F1200 X73.459 Y136.816 E60.21059
G0 F6000 X73.942 Y136.733
G1 F1200 X72.259 Y135.051 E60.28973
G0 F6000 X72.455 Y134.68
G1 F1200 X74.425 Y136.651 E60.38242
G0 F6000 X74.909 Y136.569
G1 F1200 X72.649 Y134.309 E60.48872
G0 F6000 X72.844 Y133.938
G1 F1200 X75.392 Y136.486 E60.60857
G0 F6000 X75.875 Y136.403
G1 F1200 X73.039 Y133.567 E60.74197
G0 F6000 X73.234 Y133.196
G1 F1200 X76.359 Y136.321 E60.88896
G0 F6000 X76.842 Y136.238
G1 F1200 X73.428 Y132.825 E61.04952
G0 F6000 X73.623 Y132.455
G1 F1200 X77.324 Y136.156 E61.22361
G0 F6000 X77.807 Y136.073
G1 F1200 X73.818 Y132.084 E61.41124
G0 F6000 X74.013 Y131.713
G1 F1200 X78.291 Y135.991 E61.61246
G0 F6000 X78.774 Y135.908
G1 F1200 X74.208 Y131.342 E61.82723
G0 F6000 X74.403 Y130.971
G1 F1200 X79.257 Y135.826 E62.05557
G0 F6000 X79.74 Y135.743
G1 F1200 X74.598 Y130.601 E62.29744
G0 F6000 X74.792 Y130.229
G1 F1200 X80.224 Y135.661 E62.55294
G0 F6000 X80.707 Y135.578
G1 F1200 X74.987 Y129.859 E62.82197
G0 F6000 X75.182 Y129.488
G1 F1200 X81.19 Y135.495 E63.10454
G0 F6000 X81.673 Y135.413
G1 F1200 X75.377 Y129.117 E63.40069
G0 F6000 X75.572 Y128.746
G1 F1200 X82.195 Y135.369 E63.71221
G0 F6000 X81.875 Y135.84
G0 X82.637 Y135.983
G0 X90.814 Y144.341
G0 X91.984 Y136.854
G0 X91.533 Y136.788
G1 F1200 X71.619 Y116.874 E64.64891
G0 F6000 X71.295 Y117.115
G1 F1200 X91.461 Y137.281 E65.59745
G0 F6000 X91.389 Y137.775
G1 F1200 X71.921 Y118.308 E66.51314
G0 F6000 X71.514 Y118.521
G0 X72.141 Y119.714
G0 X72.549 Y119.501
G1 F1200 X91.317 Y138.269 E67.39593
G0 F6000 X91.245 Y138.763
G1 F1200 X73.175 Y120.693 E68.24589
G0 F6000 X72.768 Y120.906
G0 X73.394 Y122.097
G0 X73.802 Y121.885
G1 F1200 X91.173 Y139.256 E69.06297
G0 F6000 X91.101 Y139.75
G1 F1200 X74.428 Y123.077 E69.84722
G0 F6000 X74.021 Y123.29
G0 X74.648 Y124.483
G0 X75.055 Y124.27
G1 F1200 X91.029 Y140.244 E70.59858
G0 F6000 X90.957 Y140.737
G1 F1200 X75.682 Y125.462 E71.31707
G0 F6000 X75.275 Y125.675
G0 X75.765 Y126.607
G0 X76.27 Y126.616
G1 F1200 X90.885 Y141.231 E72.00452
G0 F6000 X90.813 Y141.725
G1 F1200 X76.314 Y127.226 E72.68651
G0 F6000 X76.156 Y127.634
G1 F1200 X90.741 Y142.218 E73.37252
G0 F6000 X90.669 Y142.712
G1 F1200 X75.961 Y128.004 E74.06434
G0 F6000 X75.767 Y128.375
G1 F1200 X90.597 Y143.206 E74.76192
G0 F6000 X90.082 Y143.707
G0 X90.814 Y144.341
G0 X92.056 Y136.36
G0 X91.605 Y136.294
G1 F1200 X72.301 Y116.99 E75.66992
G0 F6000 X72.984 Y117.108
G1 F1200 X91.677 Y135.801 E76.54918
G0 F6000 X91.749 Y135.307
G1 F1200 X73.667 Y117.224 E77.39973
G0 F6000 X74.35 Y117.342
G1 F1200 X91.821 Y134.813 E78.22151
G0 F6000 X91.893 Y134.319
G1 F1200 X75.032 Y117.458 E79.0146
G0 F6000 X75.715 Y117.576
G1 F1200 X91.965 Y133.826 E79.77895
G0 F6000 X92.037 Y133.332
G1 F1200 X76.397 Y117.692 E80.5146
G0 F6000 X77.081 Y117.81
G1 F1200 X92.109 Y132.839 E81.2215
G0 F6000 X92.232 Y132.395
G1 F1200 X77.764 Y117.927 E81.90203
G0 F6000 X78.446 Y118.044
G1 F1200 X92.461 Y132.059 E82.56125
G0 F6000 X92.79 Y131.822
G1 F1200 X79.129 Y118.161 E83.20382
G0 F6000 X79.811 Y118.278
G1 F1200 X93.169 Y131.635 E83.83212
G0 F6000 X93.547 Y131.448
G1 F1200 X80.494 Y118.395 E84.44609
G0 F6000 X81.177 Y118.512
G1 F1200 X93.926 Y131.261 E85.04577
G0 F6000 X94.305 Y131.074
G1 F1200 X81.86 Y118.629 E85.63114
G0 F6000 X82.406 Y118.61
G1 F1200 X94.683 Y130.887 E86.20861
G0 F6000 X95.062 Y130.7
G1 F1200 X82.783 Y118.421 E86.78618
G0 F6000 X83.07 Y118.142
G1 F1200 X95.441 Y130.514 E87.3681
G0 F6000 X95.82 Y130.326
G1 F1200 X83.349 Y117.856 E87.95467
G0 F6000 X83.628 Y117.569
G1 F1200 X96.199 Y130.14 E88.54597
G0 F6000 X96.578 Y129.953
G1 F1200 X83.908 Y117.283 E89.14193
G0 F6000 X84.187 Y116.997
G1 F1200 X96.956 Y129.766 E89.74255
G0 F6000 X97.335 Y129.579
G1 F1200 X84.466 Y116.71 E90.34786
G0 F6000 X84.746 Y116.424
G1 F1200 X97.714 Y129.392 E90.95784
G0 F6000 X98.092 Y129.205
G1 F1200 X85.025 Y116.138 E91.57247
G0 F6000 X85.304 Y115.851
G1 F1200 X98.471 Y129.018 E92.19181
G0 F6000 X98.85 Y128.832
