;FLAVOR:Marlin
;TIME:28612
;Filament used: 20.5761m
;Layer height: 0.2
;MINX:40.7
;MINY:56.197
;MINZ:0.2
;MAXX:194.3
;MAXY:178.803
;MAXZ:30
;Generated with Cura_SteamEngine 5.2.1
M140 S60
M105
M190 S60
M104 S200
M105
M109 S200
M82 ;absolute extrusion mode
M201 X500.00 Y500.00 Z100.00 E5000.00 ;Setup machine max acceleration
M203 X500.00 Y500.00 Z10.00 E50.00 ;Setup machine max feedrate
M204 P500.00 R1000.00 T500.00 ;Setup Print/Retract/Travel acceleration
M205 X8.00 Y8.00 Z0.40 E5.00 ;Setup Jerk
M220 S100 ;Reset Feedrate
M221 S100 ;Reset Flowrate

G28 ;Home

G92 E0 ;Reset Extruder
G1 Z2.0 F3000 ;Move Z Axis up
G1 X10.1 Y20 Z0.28 F5000.0 ;Move to start position
G1 X10.1 Y200.0 Z0.28 F1500.0 E15 ;Draw the first line
G1 X10.4 Y200.0 Z0.28 F5000.0 ;Move to side a little
G1 X10.4 Y20 Z0.28 F1500.0 E30 ;Draw the second line
G92 E0 ;Reset Extruder
G1 Z2.0 F3000 ;Move Z Axis up

G92 E0
G92 E0
G1 F1500 E-6.5
;LAYER_COUNT:150
;LAYER:0
M107
;MESH:agricola-res-small.stl
G0 F6000 X41.1 Y178.4 Z0.2
;TYPE:WALL-INNER
G1 F1500 E0
G1 F1200 X193.9 Y178.4 E5.08215
G1 X193.9 Y56.6 E9.13323
G1 X41.1 Y56.6 E14.21538
G1 X41.1 Y178.4 E18.26647
G0 F6000 X40.7 Y178.8
;TYPE:WALL-OUTER
G1 F1200 X194.3 Y178.8 E23.37522
G1 X194.3 Y56.2 E27.45292
G1 X40.7 Y56.2 E32.56167
G1 X40.7 Y178.8 E36.63936
G0 F6000 X40.97 Y178.53
G0 X41.2 Y178.04
G0 X41.46 Y178.04
;TYPE:SKIN
G1 F1200 X193.54 Y178.04 E41.69757
G1 X193.54 Y56.96 E45.7247
G1 X41.46 Y56.96 E50.7829
G1 X41.46 Y178.04 E54.81004
G0 F6000 X42.074 Y177.838
G1 F1200 X41.659 Y177.424 E54.82954
G0 F6000 X41.659 Y176.858
G1 F1200 X42.639 Y177.838 E54.87563
G0 F6000 X43.205 Y177.838
G1 F1200 X41.659 Y176.293 E54.94833
G0 F6000 X41.659 Y175.727
G1 F1200 X43.771 Y177.838 E55.04765
G0 F6000 X44.337 Y177.838
G1 F1200 X41.659 Y175.161 E55.17359
G0 F6000 X41.659 Y174.595
G1 F1200 X44.902 Y177.838 E55.32613
G0 F6000 X45.468 Y177.838
G1 F1200 X41.659 Y174.03 E55.50527
G0 F6000 X41.659 Y173.464
G1 F1200 X46.034 Y177.838 E55.71103
G0 F6000 X46.599 Y177.838
G1 F1200 X41.659 Y172.898 E55.9434
G0 F6000 X41.659 Y172.333
G1 F1200 X47.165 Y177.838 E56.20236
G0 F6000 X47.731 Y177.838
G1 F1200 X41.659 Y171.767 E56.48794
G0 F6000 X41.659 Y171.201
G1 F1200 X48.296 Y177.838 E56.80013
G0 F6000 X48.862 Y177.838
G1 F1200 X41.659 Y170.636 E57.13891
G0 F6000 X41.659 Y170.07
G1 F1200 X49.428 Y177.838 E57.50432
G0 F6000 X49.993 Y177.838
G1 F1200 X41.659 Y169.504 E57.89632
G0 F6000 X41.659 Y168.939
G1 F1200 X50.559 Y177.838 E58.31493
G0 F6000 X51.125 Y177.838
G1 F1200 X41.659 Y168.373 E58.76016
G0 F6000 X41.659 Y167.807
G1 F1200 X51.69 Y177.838 E59.23198
G0 F6000 X52.256 Y177.838
G1 F1200 X41.659 Y167.242 E59.73041
G0 F6000 X41.659 Y166.676
G1 F1200 X52.822 Y177.838 E60.25546
G0 F6000 X53.387 Y177.838
G1 F1200 X41.659 Y166.11 E60.80711
G0 F6000 X41.659 Y165.545
G1 F1200 X53.953 Y177.838 E61.38536
G0 F6000 X54.519 Y177.838
G1 F1200 X41.659 Y164.979 E61.99023
G0 F6000 X41.659 Y164.413
G1 F1200 X55.085 Y177.838 E62.62172
G0 F6000 X55.65 Y177.838
G1 F1200 X41.659 Y163.847 E63.27982
G0 F6000 X41.659 Y163.282
G1 F1200 X56.216 Y177.838 E63.96451
G0 F6000 X56.782 Y177.838
G1 F1200 X41.659 Y162.716 E64.67583
G0 F6000 X41.659 Y162.15
G1 F1200 X57.347 Y177.838 E65.41374
G0 F6000 X57.913 Y177.838
G1 F1200 X41.659 Y161.585 E66.17826
G0 F6000 X41.659 Y161.019
G1 F1200 X58.479 Y177.838 E66.96939
G0 F6000 X59.044 Y177.838
G1 F1200 X41.659 Y160.453 E67.78713
G0 F6000 X41.659 Y159.888
G1 F1200 X59.61 Y177.838 E68.63147
G0 F6000 X60.176 Y177.838
G1 F1200 X41.659 Y159.322 E69.50243
G0 F6000 X41.659 Y158.756
G1 F1200 X60.741 Y177.838 E70.39999
G0 F6000 X61.307 Y177.838
G1 F1200 X41.659 Y158.191 E71.32414
G0 F6000 X41.659 Y157.625
G1 F1200 X61.873 Y177.838 E72.27493
G0 F6000 X62.438 Y177.838
G1 F1200 X41.659 Y157.059 E73.25231
G0 F6000 X41.659 Y156.494
G1 F1200 X63.004 Y177.838 E74.25629
G0 F6000 X63.57 Y177.838
G1 F1200 X41.659 Y155.928 E75.28689
G0 F6000 X41.659 Y155.362
G1 F1200 X64.135 Y177.838 E76.34409
G0 F6000 X64.701 Y177.838
G1 F1200 X41.659 Y154.796 E77.42792
G0 F6000 X41.659 Y154.231
G1 F1200 X65.267 Y177.838 E78.53834
G0 F6000 X65.833 Y177.838
G1 F1200 X41.659 Y153.665 E79.67539
G0 F6000 X41.659 Y153.099
G1 F1200 X66.398 Y177.838 E80.83903
G0 F6000 X66.964 Y177.838
G1 F1200 X41.659 Y152.534 E82.02928
G0 F6000 X41.659 Y151.968
G1 F1200 X67.53 Y177.838 E83.24615
G0 F6000 X68.095 Y177.838
G1 F1200 X41.659 Y151.402 E84.48962
G0 F6000 X41.659 Y150.837
G1 F1200 X68.661 Y177.838 E85.75969
G0 F6000 X69.227 Y177.838
G1 F1200 X41.659 Y150.271 E87.05638
G0 F6000 X41.659 Y149.705
G1 F1200 X69.792 Y177.838 E88.37967
G0 F6000 X70.358 Y177.838
G1 F1200 X41.659 Y149.14 E89.72956
G0 F6000 X41.659 Y148.574
G1 F1200 X70.924 Y177.838 E91.10607
G0 F6000 X71.489 Y177.838
G1 F1200 X41.659 Y148.008 E92.50918
G0 F6000 X41.659 Y147.443
G1 F1200 X72.055 Y177.838 E93.93889
G0 F6000 X72.621 Y177.838
G1 F1200 X41.659 Y146.877 E95.39523
G0 F6000 X41.659 Y146.311
G1 F1200 X73.186 Y177.838 E96.87816
G0 F6000 X73.752 Y177.838
G1 F1200 X41.659 Y145.746 E98.38769
G0 F6000 X41.659 Y145.18
G1 F1200 X74.318 Y177.838 E99.92385
G0 F6000 X74.884 Y177.838
G1 F1200 X41.659 Y144.614 E101.48663
G0 F6000 X41.659 Y144.048
G1 F1200 X75.449 Y177.838 E103.076
G0 F6000 X76.015 Y177.838
G1 F1200 X41.659 Y143.483 E104.69198
G0 F6000 X41.659 Y142.917
G1 F1200 X76.581 Y177.838 E106.33458
G0 F6000 X77.146 Y177.838
G1 F1200 X41.659 Y142.351 E108.00378
G0 F6000 X41.659 Y141.786
G1 F1200 X77.712 Y177.838 E109.69958
G0 F6000 X78.278 Y177.838
G1 F1200 X41.659 Y141.22 E111.422
G0 F6000 X41.659 Y140.654
G1 F1200 X78.843 Y177.838 E113.17102
G0 F6000 X79.409 Y177.838
G1 F1200 X41.659 Y140.089 E114.94664
G0 F6000 X41.659 Y139.523
G1 F1200 X79.975 Y177.838 E116.74889
G0 F6000 X80.54 Y177.838
G1 F1200 X41.659 Y138.957 E118.57773
G0 F6000 X41.659 Y138.392
G1 F1200 X81.106 Y177.838 E120.43317
G0 F6000 X81.672 Y177.838
G1 F1200 X41.659 Y137.826 E122.31524
G0 F6000 X41.659 Y137.26
G1 F1200 X82.237 Y177.838 E124.2239
G0 F6000 X82.803 Y177.838
G1 F1200 X41.659 Y136.695 E126.15917
G0 F6000 X41.659 Y136.129
G1 F1200 X83.369 Y177.838 E128.12105
G0 F6000 X83.934 Y177.838
G1 F1200 X41.659 Y135.563 E130.10954
G0 F6000 X41.659 Y134.997
G1 F1200 X84.5 Y177.838 E132.12465
G0 F6000 X85.066 Y177.838
G1 F1200 X41.659 Y134.432 E134.16636
G0 F6000 X41.659 Y133.866
G1 F1200 X85.632 Y177.838 E136.23469
G0 F6000 X86.197 Y177.838
G1 F1200 X41.659 Y133.3 E138.32962
G0 F6000 X41.659 Y132.735
G1 F1200 X86.763 Y177.838 E140.45115
G0 F6000 X87.329 Y177.838
G1 F1200 X41.659 Y132.169 E142.59931
G0 F6000 X41.659 Y131.603
G1 F1200 X87.894 Y177.838 E144.77406
G0 F6000 X88.46 Y177.838
G1 F1200 X41.659 Y131.038 E146.97541
G0 F6000 X41.659 Y130.472
G1 F1200 X89.026 Y177.838 E149.20338
G0 F6000 X89.591 Y177.838
G1 F1200 X41.659 Y129.906 E151.45796
G0 F6000 X41.659 Y129.341
G1 F1200 X90.157 Y177.838 E153.73913
G0 F6000 X90.723 Y177.838
G1 F1200 X41.659 Y128.775 E156.04693
G0 F6000 X41.659 Y128.209
G1 F1200 X91.288 Y177.838 E158.38133
G0 F6000 X91.854 Y177.838
G1 F1200 X41.659 Y127.644 E160.74232
G0 F6000 X41.659 Y127.078
G1 F1200 X92.42 Y177.838 E163.12994
G0 F6000 X92.985 Y177.838
G1 F1200 X41.659 Y126.512 E165.54416
G0 F6000 X41.659 Y125.947
G1 F1200 X93.551 Y177.838 E167.98497
G0 F6000 X94.117 Y177.838
G1 F1200 X41.659 Y125.381 E170.45241
G0 F6000 X41.659 Y124.815
G1 F1200 X94.683 Y177.838 E172.94648
G0 F6000 X95.248 Y177.838
G1 F1200 X41.659 Y124.249 E175.46714
G0 F6000 X41.659 Y123.684
G1 F1200 X95.814 Y177.838 E178.0144
G0 F6000 X96.38 Y177.838
G1 F1200 X41.659 Y123.118 E180.58829
G0 F6000 X41.659 Y122.552
G1 F1200 X96.945 Y177.838 E183.18877
G0 F6000 X97.511 Y177.838
G1 F1200 X41.659 Y121.987 E185.81585
G0 F6000 X41.659 Y121.421
G1 F1200 X98.077 Y177.838 E188.46956
G0 F6000 X98.642 Y177.838
G1 F1200 X41.659 Y120.855 E191.14986
G0 F6000 X41.659 Y120.29
G1 F1200 X99.208 Y177.838 E193.85677
G0 F6000 X99.774 Y177.838
G1 F1200 X41.659 Y119.724 E196.5903
G0 F6000 X41.659 Y119.158
G1 F1200 X100.339 Y177.838 E199.35042
G0 F6000 X100.905 Y177.838
G1 F1200 X41.659 Y118.593 E202.13715
G0 F6000 X41.659 Y118.027
G1 F1200 X101.471 Y177.838 E204.9505
G0 F6000 X102.036 Y177.838
G1 F1200 X41.659 Y117.461 E207.79045
G0 F6000 X41.659 Y116.896
G1 F1200 X102.602 Y177.838 E210.657
G0 F6000 X103.168 Y177.838
G1 F1200 X41.659 Y116.33 E213.55017
G0 F6000 X41.659 Y115.764
G1 F1200 X103.733 Y177.838 E216.46994
G0 F6000 X104.299 Y177.838
G1 F1200 X41.659 Y115.199 E219.41631
G0 F6000 X41.659 Y114.633
G1 F1200 X104.865 Y177.838 E222.3893
G0 F6000 X105.431 Y177.838
G1 F1200 X41.659 Y114.067 E225.38892
G0 F6000 X41.659 Y113.501
G1 F1200 X105.996 Y177.838 E228.41513
G0 F6000 X106.562 Y177.838
G1 F1200 X41.659 Y112.936 E231.46795
G0 F6000 X41.659 Y112.37
G1 F1200 X107.128 Y177.838 E234.54739
G0 F6000 X107.693 Y177.838
G1 F1200 X41.659 Y111.804 E237.65342
G0 F6000 X41.659 Y111.239
G1 F1200 X108.259 Y177.838 E240.78606
G0 F6000 X108.825 Y177.838
G1 F1200 X41.659 Y110.673 E243.94532
G0 F6000 X41.659 Y110.107
G1 F1200 X109.39 Y177.838 E247.13118
G0 F6000 X109.956 Y177.838
G1 F1200 X41.659 Y109.542 E250.34364
G0 F6000 X41.659 Y108.976
G1 F1200 X110.522 Y177.838 E253.58272
G0 F6000 X111.087 Y177.838
G1 F1200 X41.659 Y108.41 E256.8484
G0 F6000 X41.659 Y107.845
G1 F1200 X111.653 Y177.838 E260.14068
G0 F6000 X112.219 Y177.838
G1 F1200 X41.659 Y107.279 E263.45958
G0 F6000 X41.659 Y106.713
G1 F1200 X112.784 Y177.838 E266.80508
G0 F6000 X113.35 Y177.838
G1 F1200 X41.659 Y106.148 E270.17718
G0 F6000 X41.659 Y105.582
G1 F1200 X113.916 Y177.838 E273.57591
G0 F6000 X114.482 Y177.838
G1 F1200 X41.659 Y105.016 E277.00125
G0 F6000 X41.659 Y104.45
G1 F1200 X115.047 Y177.838 E280.4532
G0 F6000 X115.613 Y177.838
G1 F1200 X41.659 Y103.885 E283.93175
G0 F6000 X41.659 Y103.319
G1 F1200 X116.179 Y177.838 E287.43691
G0 F6000 X116.744 Y177.838
G1 F1200 X41.659 Y102.753 E290.96868
G0 F6000 X41.659 Y102.188
G1 F1200 X117.31 Y177.838 E294.52705
G0 F6000 X117.876 Y177.838
G1 F1200 X41.659 Y101.622 E298.11204
G0 F6000 X41.659 Y101.056
G1 F1200 X118.441 Y177.838 E301.72363
G0 F6000 X119.007 Y177.838
G1 F1200 X41.659 Y100.491 E305.36182
G0 F6000 X41.659 Y99.925
G1 F1200 X119.573 Y177.838 E309.02663
G0 F6000 X120.138 Y177.838
G1 F1200 X41.659 Y99.359 E312.71804
G0 F6000 X41.659 Y98.794
G1 F1200 X120.704 Y177.838 E316.43605
G0 F6000 X121.27 Y177.838
G1 F1200 X41.659 Y98.228 E320.18069
G0 F6000 X41.659 Y97.662
G1 F1200 X121.835 Y177.838 E323.95192
G0 F6000 X122.401 Y177.838
G1 F1200 X41.659 Y97.097 E327.74975
G0 F6000 X41.659 Y96.531
G1 F1200 X122.967 Y177.838 E331.57421
G0 F6000 X123.532 Y177.838
G1 F1200 X41.659 Y95.965 E335.42526
G0 F6000 X41.659 Y95.4
G1 F1200 X124.098 Y177.838 E339.30292
G0 F6000 X124.664 Y177.838
G1 F1200 X41.659 Y94.834 E343.2072
G0 F6000 X41.659 Y94.268
G1 F1200 X125.23 Y177.838 E347.1381
G0 F6000 X125.795 Y177.838
G1 F1200 X41.659 Y93.702 E351.0956
G0 F6000 X41.659 Y93.137
G1 F1200 X126.361 Y177.838 E355.07969
G0 F6000 X126.927 Y177.838
G1 F1200 X41.659 Y92.571 E359.09042
G0 F6000 X41.659 Y92.005
G1 F1200 X127.492 Y177.838 E363.12774
G0 F6000 X128.058 Y177.838
G1 F1200 X41.659 Y91.44 E367.19166
G0 F6000 X41.659 Y90.874
G1 F1200 X128.624 Y177.838 E371.2822
G0 F6000 X129.189 Y177.838
G1 F1200 X41.659 Y90.308 E375.39934
G0 F6000 X41.659 Y89.743
G1 F1200 X129.755 Y177.838 E379.54309
G0 F6000 X130.321 Y177.838
G1 F1200 X41.659 Y89.177 E383.71345
G0 F6000 X41.659 Y88.611
G1 F1200 X130.886 Y177.838 E387.91042
G0 F6000 X131.452 Y177.838
G1 F1200 X41.659 Y88.046 E392.13398
G0 F6000 X41.659 Y87.48
G1 F1200 X132.018 Y177.838 E396.38417
G0 F6000 X132.583 Y177.838
G1 F1200 X41.659 Y86.914 E400.66095
G0 F6000 X41.659 Y86.349
G1 F1200 X133.149 Y177.838 E404.96434
G0 F6000 X133.715 Y177.838
G1 F1200 X41.659 Y85.783 E409.29435
G0 F6000 X41.659 Y85.217
G1 F1200 X134.28 Y177.838 E413.65095
G0 F6000 X134.846 Y177.838
G1 F1200 X41.659 Y84.651 E418.03419
G0 F6000 X41.659 Y84.086
G1 F1200 X135.412 Y177.838 E422.44402
G0 F6000 X135.978 Y177.838
G1 F1200 X41.659 Y83.52 E426.88047
G0 F6000 X41.659 Y82.954
G1 F1200 X136.543 Y177.838 E431.34352
G0 F6000 X137.109 Y177.838
G1 F1200 X41.659 Y82.389 E435.83317
G0 F6000 X41.659 Y81.823
G1 F1200 X137.675 Y177.838 E440.34945
G0 F6000 X138.24 Y177.838
G1 F1200 X41.659 Y81.257 E444.89232
G0 F6000 X41.659 Y80.692
G1 F1200 X138.806 Y177.838 E449.4618
G0 F6000 X139.372 Y177.838
G1 F1200 X41.659 Y80.126 E454.05789
G0 F6000 X41.659 Y79.56
G1 F1200 X139.937 Y177.838 E458.68059
G0 F6000 X140.503 Y177.838
G1 F1200 X41.659 Y78.995 E463.32988
G0 F6000 X41.659 Y78.429
G1 F1200 X141.069 Y177.838 E468.0058
G0 F6000 X141.634 Y177.838
G1 F1200 X41.659 Y77.863 E472.70832
G0 F6000 X41.659 Y77.298
G1 F1200 X142.2 Y177.838 E477.43744
G0 F6000 X142.766 Y177.838
G1 F1200 X41.659 Y76.732 E482.19318
G0 F6000 X41.659 Y76.166
G1 F1200 X143.331 Y177.838 E486.97551
G0 F6000 X143.897 Y177.838
G1 F1200 X41.659 Y75.601 E491.78445
G0 F6000 X41.659 Y75.035
G1 F1200 X144.463 Y177.838 E496.62001
G0 F6000 X145.029 Y177.838
G1 F1200 X41.659 Y74.469 E501.4822
G0 F6000 X41.659 Y73.903
G1 F1200 X145.594 Y177.838 E506.37098
G0 F6000 X146.16 Y177.838
G1 F1200 X41.659 Y73.338 E511.28637
G0 F6000 X41.659 Y72.772
G1 F1200 X146.726 Y177.838 E516.22837
G0 F6000 X147.291 Y177.838
G1 F1200 X41.659 Y72.206 E521.19698
G0 F6000 X41.659 Y71.641
G1 F1200 X147.857 Y177.838 E526.19218
G0 F6000 X148.423 Y177.838
G1 F1200 X41.659 Y71.075 E531.21401
G0 F6000 X41.659 Y70.509
G1 F1200 X148.988 Y177.838 E536.26244
G0 F6000 X149.554 Y177.838
G1 F1200 X41.659 Y69.944 E541.33746
G0 F6000 X41.659 Y69.378
G1 F1200 X150.12 Y177.838 E546.43911
G0 F6000 X150.685 Y177.838
G1 F1200 X41.659 Y68.812 E551.56736
G0 F6000 X41.659 Y68.247
G1 F1200 X151.251 Y177.838 E556.72221
G0 F6000 X151.817 Y177.838
G1 F1200 X41.659 Y67.681 E561.90368
G0 F6000 X41.659 Y67.115
G1 F1200 X152.382 Y177.838 E567.11175
G0 F6000 X152.948 Y177.838
G1 F1200 X41.659 Y66.55 E572.34642
G0 F6000 X41.659 Y65.984
G1 F1200 X153.514 Y177.838 E577.60771
G0 F6000 X154.079 Y177.838
G1 F1200 X41.659 Y65.418 E582.89561
G0 F6000 X41.659 Y64.853
G1 F1200 X154.645 Y177.838 E588.2101
G0 F6000 X155.211 Y177.838
G1 F1200 X41.659 Y64.287 E593.55121
G0 F6000 X41.659 Y63.721
G1 F1200 X155.777 Y177.838 E598.91895
G0 F6000 X156.342 Y177.838
G1 F1200 X41.659 Y63.155 E604.31329
G0 F6000 X41.659 Y62.59
G1 F1200 X156.908 Y177.838 E609.73422
G0 F6000 X157.474 Y177.838
G1 F1200 X41.659 Y62.024 E615.18178
G0 F6000 X41.659 Y61.458
G1 F1200 X158.039 Y177.838 E620.65594
G0 F6000 X158.605 Y177.838
G1 F1200 X41.659 Y60.893 E626.1567
G0 F6000 X41.659 Y60.327
G1 F1200 X159.171 Y177.838 E631.68408
G0 F6000 X159.736 Y177.838
G1 F1200 X41.659 Y59.761 E637.23806
G0 F6000 X41.659 Y59.196
G1 F1200 X160.302 Y177.838 E642.81864
G0 F6000 X160.868 Y177.838
G1 F1200 X41.659 Y58.63 E648.42584
G0 F6000 X41.659 Y58.064
G1 F1200 X161.433 Y177.838 E654.05964
G0 F6000 X161.999 Y177.838
G1 F1200 X41.659 Y57.499 E659.72004
G0 F6000 X41.886 Y57.16
G1 F1200 X162.565 Y177.838 E665.39639
G0 F6000 X163.13 Y177.838
G1 F1200 X42.452 Y57.16 E671.07271
G0 F6000 X43.018 Y57.16
G1 F1200 X163.696 Y177.838 E676.74904
G0 F6000 X164.262 Y177.838
G1 F1200 X43.583 Y57.16 E682.42538
G0 F6000 X44.149 Y57.16
G1 F1200 X164.828 Y177.838 E688.10173
G0 F6000 X165.393 Y177.838
G1 F1200 X44.715 Y57.16 E693.77805
G0 F6000 X45.28 Y57.16
G1 F1200 X165.959 Y177.838 E699.4544
G0 F6000 X166.525 Y177.838
G1 F1200 X45.846 Y57.16 E705.13074
G0 F6000 X46.412 Y57.16
G1 F1200 X167.09 Y177.838 E710.80707
G0 F6000 X167.656 Y177.838
G1 F1200 X46.978 Y57.16 E716.48339
G0 F6000 X47.543 Y57.16
G1 F1200 X168.222 Y177.838 E722.15974
G0 F6000 X168.787 Y177.838
G1 F1200 X48.109 Y57.16 E727.83606
G0 F6000 X48.675 Y57.16
G1 F1200 X169.353 Y177.838 E733.51238
G0 F6000 X169.919 Y177.838
G1 F1200 X49.24 Y57.16 E739.18873
G0 F6000 X49.806 Y57.16
G1 F1200 X170.484 Y177.838 E744.86505
G0 F6000 X171.05 Y177.838
G1 F1200 X50.372 Y57.16 E750.54138
G0 F6000 X50.937 Y57.16
G1 F1200 X171.616 Y177.838 E756.21772
G0 F6000 X172.181 Y177.838
G1 F1200 X51.503 Y57.16 E761.89405
G0 F6000 X52.069 Y57.16
G1 F1200 X172.747 Y177.838 E767.57037
G0 F6000 X173.313 Y177.838
