;FLAVOR:Marlin
;TIME:7492
;Filament used: 5.34454m
;Layer height: 0.2
;MINX:56.2
;MINY:105.7
;MINZ:0.2
;MAXX:178.8
;MAXY:129.3
;MAXZ:35
;Generated with Cura_SteamEngine 5.2.1
M140 S60
M105
M190 S60
M104 S200
M105
M109 S200
M82 ;absolute extrusion mode
M201 X500.00 Y500.00 Z100.00 E5000.00 ;Setup machine max acceleration
M203 X500.00 Y500.00 Z10.00 E50.00 ;Setup machine max feedrate
M204 P500.00 R1000.00 T500.00 ;Setup Print/Retract/Travel acceleration
M205 X8.00 Y8.00 Z0.40 E5.00 ;Setup Jerk
M220 S100 ;Reset Feedrate
M221 S100 ;Reset Flowrate

G28 ;Home

G92 E0 ;Reset Extruder
G1 Z2.0 F3000 ;Move Z Axis up
G1 X10.1 Y20 Z0.28 F5000.0 ;Move to start position
G1 X10.1 Y200.0 Z0.28 F1500.0 E15 ;Draw the first line
G1 X10.4 Y200.0 Z0.28 F5000.0 ;Move to side a little
G1 X10.4 Y20 Z0.28 F1500.0 E30 ;Draw the second line
G92 E0 ;Reset Extruder
G1 Z2.0 F3000 ;Move Z Axis up

G92 E0
G92 E0
G1 F1500 E-6.5
;LAYER_COUNT:175
;LAYER:0
M107
;MESH:agricola-player.stl
G0 F6000 X56.6 Y128.9 Z0.2
;TYPE:WALL-INNER
G1 F1500 E0
G1 F1200 X178.4 Y128.9 E4.05108
G1 X178.4 Y106.1 E4.80942
G1 X56.6 Y106.1 E8.8605
G1 X56.6 Y128.9 E9.61883
G0 F6000 X56.2 Y129.3
;TYPE:WALL-OUTER
G1 F1200 X178.8 Y129.3 E13.69652
G1 X178.8 Y105.7 E14.48146
G1 X56.2 Y105.7 E18.55916
G1 X56.2 Y129.3 E19.34409
G0 F6000 X56.47 Y129.03
G0 X56.7 Y128.54
G0 X56.96 Y128.54
;TYPE:SKIN
G1 F1200 X178.04 Y128.54 E23.37123
G1 X178.04 Y106.46 E24.10562
G1 X56.96 Y106.46 E28.13275
G1 X56.96 Y128.54 E28.86714
G0 F6000 X57.628 Y128.339
G1 F1200 X57.16 Y127.871 E28.88915
G0 F6000 X57.16 Y127.305
G1 F1200 X58.194 Y128.339 E28.93779
G0 F6000 X58.759 Y128.339
G1 F1200 X57.16 Y126.739 E29.01302
G0 F6000 X57.16 Y126.174
G1 F1200 X59.325 Y128.339 E29.11486
G0 F6000 X59.891 Y128.339
G1 F1200 X57.16 Y125.608 E29.24331
G0 F6000 X57.16 Y125.042
G1 F1200 X60.456 Y128.339 E29.39837
G0 F6000 X61.022 Y128.339
G1 F1200 X57.16 Y124.476 E29.58005
G0 F6000 X57.16 Y123.911
G1 F1200 X61.588 Y128.339 E29.78833
G0 F6000 X62.153 Y128.339
G1 F1200 X57.16 Y123.345 E30.02321
G0 F6000 X57.16 Y122.779
G1 F1200 X62.719 Y128.339 E30.28471
G0 F6000 X63.285 Y128.339
G1 F1200 X57.16 Y122.214 E30.57281
G0 F6000 X57.16 Y121.648
G1 F1200 X63.851 Y128.339 E30.88754
G0 F6000 X64.416 Y128.339
G1 F1200 X57.16 Y121.082 E31.22886
G0 F6000 X57.16 Y120.517
G1 F1200 X64.982 Y128.339 E31.59678
G0 F6000 X65.548 Y128.339
G1 F1200 X57.16 Y119.951 E31.99133
G0 F6000 X57.16 Y119.385
G1 F1200 X66.113 Y128.339 E32.41247
G0 F6000 X66.679 Y128.339
G1 F1200 X57.16 Y118.82 E32.86022
G0 F6000 X57.16 Y118.254
G1 F1200 X67.245 Y128.339 E33.33459
G0 F6000 X67.81 Y128.339
G1 F1200 X57.16 Y117.688 E33.83555
G0 F6000 X57.16 Y117.123
G1 F1200 X68.376 Y128.339 E34.36312
G0 F6000 X68.942 Y128.339
G1 F1200 X57.16 Y116.557 E34.91731
G0 F6000 X57.16 Y115.991
G1 F1200 X69.507 Y128.339 E35.4981
G0 F6000 X70.073 Y128.339
G1 F1200 X57.16 Y115.425 E36.10551
G0 F6000 X57.16 Y114.86
G1 F1200 X70.639 Y128.339 E36.73952
G0 F6000 X71.204 Y128.339
G1 F1200 X57.16 Y114.294 E37.40013
G0 F6000 X57.16 Y113.728
G1 F1200 X71.77 Y128.339 E38.08736
G0 F6000 X72.336 Y128.339
G1 F1200 X57.16 Y113.163 E38.8012
G0 F6000 X57.16 Y112.597
G1 F1200 X72.902 Y128.339 E39.54165
G0 F6000 X73.467 Y128.339
G1 F1200 X57.16 Y112.031 E40.30871
G0 F6000 X57.16 Y111.466
G1 F1200 X74.033 Y128.339 E41.10236
G0 F6000 X74.599 Y128.339
G1 F1200 X57.16 Y110.9 E41.92264
G0 F6000 X57.16 Y110.334
G1 F1200 X75.164 Y128.339 E42.76951
G0 F6000 X75.73 Y128.339
G1 F1200 X57.16 Y109.769 E43.64299
G0 F6000 X57.16 Y109.203
G1 F1200 X76.296 Y128.339 E44.54309
G0 F6000 X76.861 Y128.339
G1 F1200 X57.16 Y108.637 E45.46979
G0 F6000 X57.16 Y108.072
G1 F1200 X77.427 Y128.339 E46.42308
G0 F6000 X77.993 Y128.339
G1 F1200 X57.16 Y107.506 E47.403
G0 F6000 X57.16 Y106.94
G1 F1200 X78.558 Y128.339 E48.40952
G0 F6000 X79.124 Y128.339
G1 F1200 X57.445 Y106.659 E49.42926
G0 F6000 X58.011 Y106.659
G1 F1200 X79.69 Y128.339 E50.449
G0 F6000 X80.255 Y128.339
G1 F1200 X58.576 Y106.659 E51.46874
G0 F6000 X59.142 Y106.659
G1 F1200 X80.821 Y128.339 E52.48847
G0 F6000 X81.387 Y128.339
G1 F1200 X59.708 Y106.659 E53.50821
G0 F6000 X60.273 Y106.659
G1 F1200 X81.952 Y128.339 E54.52795
G0 F6000 X82.518 Y128.339
G1 F1200 X60.839 Y106.659 E55.54768
G0 F6000 X61.405 Y106.659
G1 F1200 X83.084 Y128.339 E56.56742
G0 F6000 X83.65 Y128.339
G1 F1200 X61.97 Y106.659 E57.58718
G0 F6000 X62.536 Y106.659
G1 F1200 X84.215 Y128.339 E58.60692
G0 F6000 X84.781 Y128.339
G1 F1200 X63.102 Y106.659 E59.62666
G0 F6000 X63.667 Y106.659
G1 F1200 X85.347 Y128.339 E60.64642
G0 F6000 X85.912 Y128.339
G1 F1200 X64.233 Y106.659 E61.66616
G0 F6000 X64.799 Y106.659
G1 F1200 X86.478 Y128.339 E62.68589
G0 F6000 X87.044 Y128.339
G1 F1200 X65.364 Y106.659 E63.70565
G0 F6000 X65.93 Y106.659
G1 F1200 X87.609 Y128.339 E64.72539
G0 F6000 X88.175 Y128.339
G1 F1200 X66.496 Y106.659 E65.74513
G0 F6000 X67.062 Y106.659
G1 F1200 X88.741 Y128.339 E66.76486
G0 F6000 X89.306 Y128.339
G1 F1200 X67.627 Y106.659 E67.7846
G0 F6000 X68.193 Y106.659
G1 F1200 X89.872 Y128.339 E68.80434
G0 F6000 X90.438 Y128.339
G1 F1200 X68.759 Y106.659 E69.82408
G0 F6000 X69.324 Y106.659
G1 F1200 X91.003 Y128.339 E70.84381
G0 F6000 X91.569 Y128.339
G1 F1200 X69.89 Y106.659 E71.86355
G0 F6000 X70.456 Y106.659
G1 F1200 X92.135 Y128.339 E72.88329
G0 F6000 X92.7 Y128.339
G1 F1200 X71.021 Y106.659 E73.90303
G0 F6000 X71.587 Y106.659
G1 F1200 X93.266 Y128.339 E74.92276
G0 F6000 X93.832 Y128.339
G1 F1200 X72.153 Y106.659 E75.9425
G0 F6000 X72.718 Y106.659
G1 F1200 X94.398 Y128.339 E76.96226
G0 F6000 X94.963 Y128.339
G1 F1200 X73.284 Y106.659 E77.982
G0 F6000 X73.85 Y106.659
G1 F1200 X95.529 Y128.339 E79.00173
G0 F6000 X96.095 Y128.339
G1 F1200 X74.415 Y106.659 E80.0215
G0 F6000 X74.981 Y106.659
G1 F1200 X96.66 Y128.339 E81.04123
G0 F6000 X97.226 Y128.339
G1 F1200 X75.547 Y106.659 E82.06097
G0 F6000 X76.112 Y106.659
G1 F1200 X97.792 Y128.339 E83.08073
G0 F6000 X98.357 Y128.339
G1 F1200 X76.678 Y106.659 E84.10047
G0 F6000 X77.244 Y106.659
G1 F1200 X98.923 Y128.339 E85.12021
G0 F6000 X99.489 Y128.339
G1 F1200 X77.81 Y106.659 E86.13994
G0 F6000 X78.375 Y106.659
G1 F1200 X100.054 Y128.339 E87.15968
G0 F6000 X100.62 Y128.339
G1 F1200 X78.941 Y106.659 E88.17942
G0 F6000 X79.507 Y106.659
G1 F1200 X101.186 Y128.339 E89.19915
G0 F6000 X101.751 Y128.339
G1 F1200 X80.072 Y106.659 E90.21889
G0 F6000 X80.638 Y106.659
G1 F1200 X102.317 Y128.339 E91.23863
G0 F6000 X102.883 Y128.339
G1 F1200 X81.204 Y106.659 E92.25837
G0 F6000 X81.769 Y106.659
G1 F1200 X103.449 Y128.339 E93.27813
G0 F6000 X104.014 Y128.339
G1 F1200 X82.335 Y106.659 E94.29786
G0 F6000 X82.901 Y106.659
G1 F1200 X104.58 Y128.339 E95.3176
G0 F6000 X105.146 Y128.339
G1 F1200 X83.466 Y106.659 E96.33736
G0 F6000 X84.032 Y106.659
G1 F1200 X105.711 Y128.339 E97.3571
G0 F6000 X106.277 Y128.339
G1 F1200 X84.598 Y106.659 E98.37684
G0 F6000 X85.163 Y106.659
G1 F1200 X106.843 Y128.339 E99.3966
G0 F6000 X107.408 Y128.339
G1 F1200 X85.729 Y106.659 E100.41633
G0 F6000 X86.295 Y106.659
G1 F1200 X107.974 Y128.339 E101.43607
G0 F6000 X108.54 Y128.339
G1 F1200 X86.86 Y106.659 E102.45583
G0 F6000 X87.426 Y106.659
G1 F1200 X109.105 Y128.339 E103.47557
G0 F6000 X109.671 Y128.339
G1 F1200 X87.992 Y106.659 E104.49531
G0 F6000 X88.558 Y106.659
G1 F1200 X110.237 Y128.339 E105.51504
G0 F6000 X110.802 Y128.339
G1 F1200 X89.123 Y106.659 E106.53478
G0 F6000 X89.689 Y106.659
G1 F1200 X111.368 Y128.339 E107.55452
G0 F6000 X111.934 Y128.339
G1 F1200 X90.255 Y106.659 E108.57426
G0 F6000 X90.82 Y106.659
G1 F1200 X112.499 Y128.339 E109.59399
G0 F6000 X113.065 Y128.339
G1 F1200 X91.386 Y106.659 E110.61373
G0 F6000 X91.952 Y106.659
G1 F1200 X113.631 Y128.339 E111.63347
G0 F6000 X114.197 Y128.339
G1 F1200 X92.517 Y106.659 E112.65323
G0 F6000 X93.083 Y106.659
G1 F1200 X114.762 Y128.339 E113.67296
G0 F6000 X115.328 Y128.339
G1 F1200 X93.649 Y106.659 E114.6927
G0 F6000 X94.214 Y106.659
G1 F1200 X115.894 Y128.339 E115.71246
G0 F6000 X116.459 Y128.339
G1 F1200 X94.78 Y106.659 E116.7322
G0 F6000 X95.346 Y106.659
G1 F1200 X117.025 Y128.339 E117.75194
G0 F6000 X117.591 Y128.339
G1 F1200 X95.911 Y106.659 E118.7717
G0 F6000 X96.477 Y106.659
G1 F1200 X118.156 Y128.339 E119.79143
G0 F6000 X118.722 Y128.339
G1 F1200 X97.043 Y106.659 E120.81117
G0 F6000 X97.609 Y106.659
G1 F1200 X119.288 Y128.339 E121.83091
G0 F6000 X119.853 Y128.339
G1 F1200 X98.174 Y106.659 E122.85065
G0 F6000 X98.74 Y106.659
G1 F1200 X120.419 Y128.339 E123.87038
G0 F6000 X120.985 Y128.339
G1 F1200 X99.306 Y106.659 E124.89012
G0 F6000 X99.871 Y106.659
G1 F1200 X121.55 Y128.339 E125.90986
G0 F6000 X122.116 Y128.339
G1 F1200 X100.437 Y106.659 E126.9296
G0 F6000 X101.003 Y106.659
G1 F1200 X122.682 Y128.339 E127.94933
G0 F6000 X123.248 Y128.339
G1 F1200 X101.568 Y106.659 E128.96909
G0 F6000 X102.134 Y106.659
G1 F1200 X123.813 Y128.339 E129.98883
G0 F6000 X124.379 Y128.339
G1 F1200 X102.7 Y106.659 E131.00857
G0 F6000 X103.265 Y106.659
G1 F1200 X124.945 Y128.339 E132.02833
G0 F6000 X125.51 Y128.339
G1 F1200 X103.831 Y106.659 E133.04807
G0 F6000 X104.397 Y106.659
G1 F1200 X126.076 Y128.339 E134.0678
G0 F6000 X126.642 Y128.339
G1 F1200 X104.962 Y106.659 E135.08756
G0 F6000 X105.528 Y106.659
G1 F1200 X127.207 Y128.339 E136.1073
G0 F6000 X127.773 Y128.339
G1 F1200 X106.094 Y106.659 E137.12704
G0 F6000 X106.659 Y106.659
G1 F1200 X128.339 Y128.339 E138.1468
G0 F6000 X128.904 Y128.339
G1 F1200 X107.225 Y106.659 E139.16654
G0 F6000 X107.791 Y106.659
G1 F1200 X129.47 Y128.339 E140.18627
G0 F6000 X130.036 Y128.339
G1 F1200 X108.357 Y106.659 E141.20601
G0 F6000 X108.922 Y106.659
G1 F1200 X130.601 Y128.339 E142.22575
G0 F6000 X131.167 Y128.339
G1 F1200 X109.488 Y106.659 E143.24548
G0 F6000 X110.054 Y106.659
G1 F1200 X131.733 Y128.339 E144.26522
G0 F6000 X132.298 Y128.339
G1 F1200 X110.619 Y106.659 E145.28496
G0 F6000 X111.185 Y106.659
G1 F1200 X132.864 Y128.339 E146.3047
G0 F6000 X133.43 Y128.339
G1 F1200 X111.751 Y106.659 E147.32443
G0 F6000 X112.316 Y106.659
G1 F1200 X133.996 Y128.339 E148.34419
G0 F6000 X134.561 Y128.339
G1 F1200 X112.882 Y106.659 E149.36393
G0 F6000 X113.448 Y106.659
G1 F1200 X135.127 Y128.339 E150.38367
G0 F6000 X135.693 Y128.339
G1 F1200 X114.013 Y106.659 E151.40343
G0 F6000 X114.579 Y106.659
G1 F1200 X136.258 Y128.339 E152.42317
G0 F6000 X136.824 Y128.339
G1 F1200 X115.145 Y106.659 E153.4429
G0 F6000 X115.71 Y106.659
G1 F1200 X137.39 Y128.339 E154.46266
G0 F6000 X137.955 Y128.339
G1 F1200 X116.276 Y106.659 E155.4824
G0 F6000 X116.842 Y106.659
G1 F1200 X138.521 Y128.339 E156.50214
G0 F6000 X139.087 Y128.339
G1 F1200 X117.408 Y106.659 E157.52188
G0 F6000 X117.973 Y106.659
G1 F1200 X139.652 Y128.339 E158.54161
G0 F6000 X140.218 Y128.339
G1 F1200 X118.539 Y106.659 E159.56135
G0 F6000 X119.105 Y106.659
G1 F1200 X140.784 Y128.339 E160.58109
G0 F6000 X141.349 Y128.339
G1 F1200 X119.67 Y106.659 E161.60083
G0 F6000 X120.236 Y106.659
G1 F1200 X141.915 Y128.339 E162.62056
G0 F6000 X142.481 Y128.339
G1 F1200 X120.802 Y106.659 E163.6403
G0 F6000 X121.367 Y106.659
G1 F1200 X143.046 Y128.339 E164.66004
G0 F6000 X143.612 Y128.339
G1 F1200 X121.933 Y106.659 E165.67977
G0 F6000 X122.499 Y106.659
G1 F1200 X144.178 Y128.339 E166.69951
G0 F6000 X144.744 Y128.339
G1 F1200 X123.064 Y106.659 E167.71927
G0 F6000 X123.63 Y106.659
G1 F1200 X145.309 Y128.339 E168.73901
G0 F6000 X145.875 Y128.339
G1 F1200 X124.196 Y106.659 E169.75875
G0 F6000 X124.761 Y106.659
G1 F1200 X146.441 Y128.339 E170.77851
G0 F6000 X147.006 Y128.339
G1 F1200 X125.327 Y106.659 E171.79824
G0 F6000 X125.893 Y106.659
G1 F1200 X147.572 Y128.339 E172.81798
G0 F6000 X148.138 Y128.339
G1 F1200 X126.458 Y106.659 E173.83774
G0 F6000 X127.024 Y106.659
G1 F1200 X148.703 Y128.339 E174.85748
G0 F6000 X149.269 Y128.339
G1 F1200 X127.59 Y106.659 E175.87722
G0 F6000 X128.156 Y106.659
G1 F1200 X149.835 Y128.339 E176.89695
G0 F6000 X150.4 Y128.339
G1 F1200 X128.721 Y106.659 E177.91669
G0 F6000 X129.287 Y106.659
G1 F1200 X150.966 Y128.339 E178.93643
G0 F6000 X151.532 Y128.339
G1 F1200 X129.853 Y106.659 E179.95617
G0 F6000 X130.418 Y106.659
G1 F1200 X152.097 Y128.339 E180.9759
G0 F6000 X152.663 Y128.339
G1 F1200 X130.984 Y106.659 E181.99564
G0 F6000 X131.55 Y106.659
G1 F1200 X153.229 Y128.339 E183.01538
G0 F6000 X153.795 Y128.339
G1 F1200 X132.115 Y106.659 E184.03514
G0 F6000 X132.681 Y106.659
G1 F1200 X154.36 Y128.339 E185.05488
G0 F6000 X154.926 Y128.339
G1 F1200 X133.247 Y106.659 E186.07461
G0 F6000 X133.812 Y106.659
G1 F1200 X155.492 Y128.339 E187.09437
G0 F6000 X156.057 Y128.339
G1 F1200 X134.378 Y106.659 E188.11411
G0 F6000 X134.944 Y106.659
G1 F1200 X156.623 Y128.339 E189.13385
G0 F6000 X157.189 Y128.339
G1 F1200 X135.509 Y106.659 E190.15361
G0 F6000 X136.075 Y106.659
G1 F1200 X157.754 Y128.339 E191.17335
G0 F6000 X158.32 Y128.339
G1 F1200 X136.641 Y106.659 E192.19308
G0 F6000 X137.206 Y106.659
G1 F1200 X158.886 Y128.339 E193.21284
G0 F6000 X159.451 Y128.339
G1 F1200 X137.772 Y106.659 E194.23258
G0 F6000 X138.338 Y106.659
G1 F1200 X160.017 Y128.339 E195.25232
G0 F6000 X160.583 Y128.339
G1 F1200 X138.904 Y106.659 E196.27206
G0 F6000 X139.469 Y106.659
G1 F1200 X161.148 Y128.339 E197.29179
G0 F6000 X161.714 Y128.339
G1 F1200 X140.035 Y106.659 E198.31153
G0 F6000 X140.601 Y106.659
G1 F1200 X162.28 Y128.339 E199.33127
G0 F6000 X162.845 Y128.339
G1 F1200 X141.166 Y106.659 E200.351
G0 F6000 X141.732 Y106.659
G1 F1200 X163.411 Y128.339 E201.37074
G0 F6000 X163.977 Y128.339
G1 F1200 X142.298 Y106.659 E202.39048
G0 F6000 X142.863 Y106.659
G1 F1200 X164.543 Y128.339 E203.41024
G0 F6000 X165.108 Y128.339
G1 F1200 X143.429 Y106.659 E204.42998
G0 F6000 X143.995 Y106.659
G1 F1200 X165.674 Y128.339 E205.44971
G0 F6000 X166.24 Y128.339
G1 F1200 X144.56 Y106.659 E206.46947
G0 F6000 X145.126 Y106.659
G1 F1200 X166.805 Y128.339 E207.48921
G0 F6000 X167.371 Y128.339
G1 F1200 X145.692 Y106.659 E208.50895
G0 F6000 X146.257 Y106.659
G1 F1200 X167.937 Y128.339 E209.52871
G0 F6000 X168.502 Y128.339
G1 F1200 X146.823 Y106.659 E210.54845
G0 F6000 X147.389 Y106.659
G1 F1200 X169.068 Y128.339 E211.56818
G0 F6000 X169.634 Y128.339
G1 F1200 X147.955 Y106.659 E212.58792
G0 F6000 X148.52 Y106.659
G1 F1200 X170.199 Y128.339 E213.60766
G0 F6000 X170.765 Y128.339
G1 F1200 X149.086 Y106.659 E214.6274
G0 F6000 X149.652 Y106.659
G1 F1200 X171.331 Y128.339 E215.64713
G0 F6000 X171.896 Y128.339
G1 F1200 X150.217 Y106.659 E216.66687
G0 F6000 X150.783 Y106.659
G1 F1200 X172.462 Y128.339 E217.68661
G0 F6000 X173.028 Y128.339
G1 F1200 X151.349 Y106.659 E218.70634
G0 F6000 X151.914 Y106.659
G1 F1200 X173.594 Y128.339 E219.72611
G0 F6000 X174.159 Y128.339
G1 F1200 X152.48 Y106.659 E220.74584
G0 F6000 X153.046 Y106.659
G1 F1200 X174.725 Y128.339 E221.76558
G0 F6000 X175.291 Y128.339
G1 F1200 X153.611 Y106.659 E222.78534
G0 F6000 X154.177 Y106.659
G1 F1200 X175.856 Y128.339 E223.80508
G0 F6000 X176.422 Y128.339
G1 F1200 X154.743 Y106.659 E224.82481
G0 F6000 X155.308 Y106.659
G1 F1200 X176.988 Y128.339 E225.84458
G0 F6000 X177.553 Y128.339
G1 F1200 X155.874 Y106.659 E226.86431
G0 F6000 X156.44 Y106.659
G1 F1200 X177.838 Y128.058 E227.87083
G0 F6000 X177.838 Y127.492
G1 F1200 X157.005 Y106.659 E228.85075
G0 F6000 X157.571 Y106.659
G1 F1200 X177.838 Y126.927 E229.80407
G0 F6000 X177.838 Y126.361
G1 F1200 X158.137 Y106.659 E230.73077
G0 F6000 X158.703 Y106.659
G1 F1200 X177.838 Y125.795 E231.63085
G0 F6000 X177.838 Y125.23
G1 F1200 X159.268 Y106.659 E232.50435
G0 F6000 X159.834 Y106.659
G1 F1200 X177.838 Y124.664 E233.35122
G0 F6000 X177.838 Y124.098
G1 F1200 X160.4 Y106.659 E234.17148
G0 F6000 X160.965 Y106.659
G1 F1200 X177.838 Y123.532 E234.96513
G0 F6000 X177.838 Y122.967
G1 F1200 X161.531 Y106.659 E235.73219
G0 F6000 X162.097 Y106.659
G1 F1200 X177.838 Y122.401 E236.47262
G0 F6000 X177.838 Y121.835
G1 F1200 X162.662 Y106.659 E237.18645
G0 F6000 X163.228 Y106.659
G1 F1200 X177.838 Y121.27 E237.87368
G0 F6000 X177.838 Y120.704
G1 F1200 X163.794 Y106.659 E238.53429
G0 F6000 X164.359 Y106.659
G1 F1200 X177.838 Y120.138 E239.1683
G0 F6000 X177.838 Y119.573
G1 F1200 X164.925 Y106.659 E239.77572
G0 F6000 X165.491 Y106.659
