;FLAVOR:Marlin
;TIME:25419
;Filament used: 18.6708m
;Layer height: 0.2
;MINX:61.2
;MINY:70.2
;MINZ:0.2
;MAXX:173.8
;MAXY:164.8
;MAXZ:70
;Generated with Cura_SteamEngine 5.2.1
M140 S60
M105
M190 S60
M104 S200
M105
M109 S200
M82 ;absolute extrusion mode
M201 X500.00 Y500.00 Z100.00 E5000.00 ;Setup machine max acceleration
M203 X500.00 Y500.00 Z10.00 E50.00 ;Setup machine max feedrate
M204 P500.00 R1000.00 T500.00 ;Setup Print/Retract/Travel acceleration
M205 X8.00 Y8.00 Z0.40 E5.00 ;Setup Jerk
M220 S100 ;Reset Feedrate
M221 S100 ;Reset Flowrate

G28 ;Home

G92 E0 ;Reset Extruder
G1 Z2.0 F3000 ;Move Z Axis up
G1 X10.1 Y20 Z0.28 F5000.0 ;Move to start position
G1 X10.1 Y200.0 Z0.28 F1500.0 E15 ;Draw the first line
G1 X10.4 Y200.0 Z0.28 F5000.0 ;Move to side a little
G1 X10.4 Y20 Z0.28 F1500.0 E30 ;Draw the second line
G92 E0 ;Reset Extruder
G1 Z2.0 F3000 ;Move Z Axis up

G92 E0
G92 E0
G1 F1500 E-6.5
;LAYER_COUNT:350
;LAYER:0
M107
;MESH:agricola-cards-1.stl
G0 F6000 X61.6 Y164.4 Z0.2
;TYPE:WALL-INNER
G1 F1500 E0
G1 F1200 X173.4 Y164.4 E3.71848
G1 X173.4 Y70.6 E6.83828
G1 X61.6 Y70.6 E10.55677
G1 X61.6 Y164.4 E13.67657
G0 F6000 X61.2 Y164.8
;TYPE:WALL-OUTER
G1 F1200 X173.8 Y164.8 E17.42166
G1 X173.8 Y70.2 E20.56807
G1 X61.2 Y70.2 E24.31316
G1 X61.2 Y164.8 E27.45957
G0 F6000 X61.47 Y164.53
G0 X61.7 Y164.04
G0 X61.96 Y164.04
;TYPE:SKIN
G1 F1200 X173.04 Y164.04 E31.1541
G1 X173.04 Y70.96 E34.24996
G1 X61.96 Y70.96 E37.94449
G1 X61.96 Y164.04 E41.04035
G0 F6000 X62.581 Y163.839
G1 F1200 X62.16 Y163.418 E41.06015
G0 F6000 X62.16 Y162.852
G1 F1200 X63.147 Y163.839 E41.10657
G0 F6000 X63.713 Y163.839
G1 F1200 X62.16 Y162.286 E41.17962
G0 F6000 X62.16 Y161.72
G1 F1200 X64.278 Y163.839 E41.27927
G0 F6000 X64.844 Y163.839
G1 F1200 X62.16 Y161.155 E41.40552
G0 F6000 X62.16 Y160.589
G1 F1200 X65.41 Y163.839 E41.55839
G0 F6000 X65.975 Y163.839
G1 F1200 X62.16 Y160.023 E41.73786
G0 F6000 X62.16 Y159.458
G1 F1200 X66.541 Y163.839 E41.94393
G0 F6000 X67.107 Y163.839
G1 F1200 X62.16 Y158.892 E42.17662
G0 F6000 X62.16 Y158.326
G1 F1200 X67.672 Y163.839 E42.43591
G0 F6000 X68.238 Y163.839
G1 F1200 X62.16 Y157.761 E42.7218
G0 F6000 X62.16 Y157.195
G1 F1200 X68.804 Y163.839 E43.03431
G0 F6000 X69.37 Y163.839
G1 F1200 X62.16 Y156.629 E43.37345
G0 F6000 X62.16 Y156.064
G1 F1200 X69.935 Y163.839 E43.73916
G0 F6000 X70.501 Y163.839
G1 F1200 X62.16 Y155.498 E44.1315
G0 F6000 X62.16 Y154.932
G1 F1200 X71.067 Y163.839 E44.55045
G0 F6000 X71.632 Y163.839
G1 F1200 X62.16 Y154.367 E44.99599
G0 F6000 X62.16 Y153.801
G1 F1200 X72.198 Y163.839 E45.46814
G0 F6000 X72.764 Y163.839
G1 F1200 X62.16 Y153.235 E45.96692
G0 F6000 X62.16 Y152.67
G1 F1200 X73.329 Y163.839 E46.49228
G0 F6000 X73.895 Y163.839
G1 F1200 X62.16 Y152.104 E47.04426
G0 F6000 X62.16 Y151.538
G1 F1200 X74.461 Y163.839 E47.62286
G0 F6000 X75.026 Y163.839
G1 F1200 X62.16 Y150.972 E48.22806
G0 F6000 X62.16 Y150.407
G1 F1200 X75.592 Y163.839 E48.85986
G0 F6000 X76.158 Y163.839
G1 F1200 X62.16 Y149.841 E49.51828
G0 F6000 X62.16 Y149.275
G1 F1200 X76.723 Y163.839 E50.20331
G0 F6000 X77.289 Y163.839
G1 F1200 X62.16 Y148.71 E50.91493
G0 F6000 X62.16 Y148.144
G1 F1200 X77.855 Y163.839 E51.65317
G0 F6000 X78.42 Y163.839
G1 F1200 X62.16 Y147.578 E52.41802
G0 F6000 X62.16 Y147.013
G1 F1200 X78.986 Y163.839 E53.20946
G0 F6000 X79.552 Y163.839
G1 F1200 X62.16 Y146.447 E54.02753
G0 F6000 X62.16 Y145.881
G1 F1200 X80.118 Y163.839 E54.87221
G0 F6000 X80.683 Y163.839
G1 F1200 X62.16 Y145.316 E55.74348
G0 F6000 X62.16 Y144.75
G1 F1200 X81.249 Y163.839 E56.64137
G0 F6000 X81.815 Y163.839
G1 F1200 X62.16 Y144.184 E57.56588
G0 F6000 X62.16 Y143.619
G1 F1200 X82.38 Y163.839 E58.51697
G0 F6000 X82.946 Y163.839
G1 F1200 X62.16 Y143.053 E59.49468
G0 F6000 X62.16 Y142.487
G1 F1200 X83.512 Y163.839 E60.49901
G0 F6000 X84.077 Y163.839
G1 F1200 X62.16 Y141.921 E61.52994
G0 F6000 X62.16 Y141.356
G1 F1200 X84.643 Y163.839 E62.58747
G0 F6000 X85.209 Y163.839
G1 F1200 X62.16 Y140.79 E63.67163
G0 F6000 X62.16 Y140.224
G1 F1200 X85.774 Y163.839 E64.78238
G0 F6000 X86.34 Y163.839
G1 F1200 X62.16 Y139.659 E65.91973
G0 F6000 X62.16 Y139.093
G1 F1200 X86.906 Y163.839 E67.08371
G0 F6000 X87.471 Y163.839
G1 F1200 X62.16 Y138.527 E68.27428
G0 F6000 X62.16 Y137.962
G1 F1200 X88.037 Y163.839 E69.49146
G0 F6000 X88.603 Y163.839
G1 F1200 X62.16 Y137.396 E70.73526
G0 F6000 X62.16 Y136.83
G1 F1200 X89.168 Y163.839 E72.00565
G0 F6000 X89.734 Y163.839
G1 F1200 X62.16 Y136.265 E73.30265
G0 F6000 X62.16 Y135.699
G1 F1200 X90.3 Y163.839 E74.62627
G0 F6000 X90.866 Y163.839
G1 F1200 X62.16 Y135.133 E75.97651
G0 F6000 X62.16 Y134.568
G1 F1200 X91.431 Y163.839 E77.35333
G0 F6000 X91.997 Y163.839
G1 F1200 X62.16 Y134.002 E78.75677
G0 F6000 X62.16 Y133.436
G1 F1200 X92.563 Y163.839 E80.18683
G0 F6000 X93.128 Y163.839
G1 F1200 X62.16 Y132.871 E81.64347
G0 F6000 X62.16 Y132.305
G1 F1200 X93.694 Y163.839 E83.12674
G0 F6000 X94.26 Y163.839
G1 F1200 X62.16 Y131.739 E84.63662
G0 F6000 X62.16 Y131.173
G1 F1200 X94.825 Y163.839 E86.17311
G0 F6000 X95.391 Y163.839
G1 F1200 X62.16 Y130.608 E87.73619
G0 F6000 X62.16 Y130.042
G1 F1200 X95.957 Y163.839 E89.3259
G0 F6000 X96.522 Y163.839
G1 F1200 X62.16 Y129.476 E90.94221
G0 F6000 X62.16 Y128.911
G1 F1200 X97.088 Y163.839 E92.58511
G0 F6000 X97.654 Y163.839
G1 F1200 X62.16 Y128.345 E94.25464
G0 F6000 X62.16 Y127.779
G1 F1200 X98.219 Y163.839 E95.95077
G0 F6000 X98.785 Y163.839
G1 F1200 X62.16 Y127.214 E97.6735
G0 F6000 X62.16 Y126.648
G1 F1200 X99.351 Y163.839 E99.42285
G0 F6000 X99.917 Y163.839
G1 F1200 X62.16 Y126.082 E101.19882
G0 F6000 X62.16 Y125.517
G1 F1200 X100.482 Y163.839 E103.00137
G0 F6000 X101.048 Y163.839
G1 F1200 X62.16 Y124.951 E104.83054
G0 F6000 X62.16 Y124.385
G1 F1200 X101.614 Y163.839 E106.68634
G0 F6000 X102.179 Y163.839
G1 F1200 X62.16 Y123.82 E108.56871
G0 F6000 X62.16 Y123.254
G1 F1200 X102.745 Y163.839 E110.4777
G0 F6000 X103.311 Y163.839
G1 F1200 X62.16 Y122.688 E112.41332
G0 F6000 X62.16 Y122.122
G1 F1200 X103.876 Y163.839 E114.37554
G0 F6000 X104.442 Y163.839
G1 F1200 X62.16 Y121.557 E116.36435
G0 F6000 X62.16 Y120.991
G1 F1200 X105.008 Y163.839 E118.37979
G0 F6000 X105.573 Y163.839
G1 F1200 X62.16 Y120.425 E120.42183
G0 F6000 X62.16 Y119.86
G1 F1200 X106.139 Y163.839 E122.49047
G0 F6000 X106.705 Y163.839
G1 F1200 X62.16 Y119.294 E124.58573
G0 F6000 X62.16 Y118.728
G1 F1200 X107.27 Y163.839 E126.70758
G0 F6000 X107.836 Y163.839
G1 F1200 X62.16 Y118.163 E128.85604
G0 F6000 X62.16 Y117.597
G1 F1200 X108.402 Y163.839 E131.03113
G0 F6000 X108.967 Y163.839
G1 F1200 X62.16 Y117.031 E133.23281
G0 F6000 X62.16 Y116.466
G1 F1200 X109.533 Y163.839 E135.46109
G0 F6000 X110.099 Y163.839
G1 F1200 X62.16 Y115.9 E137.71599
G0 F6000 X62.16 Y115.334
G1 F1200 X110.665 Y163.839 E139.99752
G0 F6000 X111.23 Y163.839
G1 F1200 X62.16 Y114.769 E142.30562
G0 F6000 X62.16 Y114.203
G1 F1200 X111.796 Y163.839 E144.64035
G0 F6000 X112.362 Y163.839
G1 F1200 X62.16 Y113.637 E147.00169
G0 F6000 X62.16 Y113.072
G1 F1200 X112.927 Y163.839 E149.38962
G0 F6000 X113.493 Y163.839
G1 F1200 X62.16 Y112.506 E151.80416
G0 F6000 X62.16 Y111.94
G1 F1200 X114.059 Y163.839 E154.24533
G0 F6000 X114.624 Y163.839
G1 F1200 X62.16 Y111.374 E156.7131
G0 F6000 X62.16 Y110.809
G1 F1200 X115.19 Y163.839 E159.20747
G0 F6000 X115.756 Y163.839
G1 F1200 X62.16 Y110.243 E161.72846
G0 F6000 X62.16 Y109.677
G1 F1200 X116.321 Y163.839 E164.27605
G0 F6000 X116.887 Y163.839
G1 F1200 X62.16 Y109.112 E166.85025
G0 F6000 X62.16 Y108.546
G1 F1200 X117.453 Y163.839 E169.45106
G0 F6000 X118.018 Y163.839
G1 F1200 X62.16 Y107.98 E172.07847
G0 F6000 X62.16 Y107.415
G1 F1200 X118.584 Y163.839 E174.73248
G0 F6000 X119.15 Y163.839
G1 F1200 X62.16 Y106.849 E177.41312
G0 F6000 X62.16 Y106.283
G1 F1200 X119.716 Y163.839 E180.12038
G0 F6000 X120.281 Y163.839
G1 F1200 X62.16 Y105.718 E182.85421
G0 F6000 X62.16 Y105.152
G1 F1200 X120.847 Y163.839 E185.61467
G0 F6000 X121.413 Y163.839
G1 F1200 X62.16 Y104.586 E188.40175
G0 F6000 X62.16 Y104.021
G1 F1200 X121.978 Y163.839 E191.2154
G0 F6000 X122.544 Y163.839
G1 F1200 X62.16 Y103.455 E194.05568
G0 F6000 X62.16 Y102.889
G1 F1200 X123.11 Y163.839 E196.92258
G0 F6000 X123.675 Y163.839
G1 F1200 X62.16 Y102.324 E199.81606
G0 F6000 X62.16 Y101.758
G1 F1200 X124.241 Y163.839 E202.73616
G0 F6000 X124.807 Y163.839
G1 F1200 X62.16 Y101.192 E205.68288
G0 F6000 X62.16 Y100.626
G1 F1200 X125.372 Y163.839 E208.6562
G0 F6000 X125.938 Y163.839
G1 F1200 X62.16 Y100.061 E211.65612
G0 F6000 X62.16 Y99.495
G1 F1200 X126.504 Y163.839 E214.68267
G0 F6000 X127.069 Y163.839
G1 F1200 X62.16 Y98.929 E217.73581
G0 F6000 X62.16 Y98.364
G1 F1200 X127.635 Y163.839 E220.81555
G0 F6000 X128.201 Y163.839
G1 F1200 X62.16 Y97.798 E223.92192
G0 F6000 X62.16 Y97.232
G1 F1200 X128.766 Y163.839 E227.05489
G0 F6000 X129.332 Y163.839
G1 F1200 X62.16 Y96.667 E230.21445
G0 F6000 X62.16 Y96.101
G1 F1200 X129.898 Y163.839 E233.40064
G0 F6000 X130.464 Y163.839
G1 F1200 X62.16 Y95.535 E236.61345
G0 F6000 X62.16 Y94.97
G1 F1200 X131.029 Y163.839 E239.85284
G0 F6000 X131.595 Y163.839
G1 F1200 X62.16 Y94.404 E243.11885
G0 F6000 X62.16 Y93.838
G1 F1200 X132.161 Y163.839 E246.41148
G0 F6000 X132.726 Y163.839
G1 F1200 X62.16 Y93.273 E249.73069
G0 F6000 X62.16 Y92.707
G1 F1200 X133.292 Y163.839 E253.07652
G0 F6000 X133.858 Y163.839
G1 F1200 X62.16 Y92.141 E256.44897
G0 F6000 X62.16 Y91.575
G1 F1200 X134.423 Y163.839 E259.84803
G0 F6000 X134.989 Y163.839
G1 F1200 X62.16 Y91.01 E263.27368
G0 F6000 X62.16 Y90.444
G1 F1200 X135.555 Y163.839 E266.72595
G0 F6000 X136.12 Y163.839
G1 F1200 X62.16 Y89.878 E270.20483
G0 F6000 X62.16 Y89.313
G1 F1200 X136.686 Y163.839 E273.7103
G0 F6000 X137.252 Y163.839
G1 F1200 X62.16 Y88.747 E277.2424
G0 F6000 X62.16 Y88.181
G1 F1200 X137.817 Y163.839 E280.8011
G0 F6000 X138.383 Y163.839
G1 F1200 X62.16 Y87.616 E284.38639
G0 F6000 X62.16 Y87.05
G1 F1200 X138.949 Y163.839 E287.99831
G0 F6000 X139.514 Y163.839
G1 F1200 X62.16 Y86.484 E291.63683
G0 F6000 X62.16 Y85.919
G1 F1200 X140.08 Y163.839 E295.30195
G0 F6000 X140.646 Y163.839
G1 F1200 X62.16 Y85.353 E298.99369
G0 F6000 X62.16 Y84.787
G1 F1200 X141.212 Y163.839 E302.71205
G0 F6000 X141.777 Y163.839
G1 F1200 X62.16 Y84.222 E306.45699
G0 F6000 X62.16 Y83.656
G1 F1200 X142.343 Y163.839 E310.22856
G0 F6000 X142.909 Y163.839
G1 F1200 X62.16 Y83.09 E314.02674
G0 F6000 X62.16 Y82.525
G1 F1200 X143.474 Y163.839 E317.8515
G0 F6000 X144.04 Y163.839
G1 F1200 X62.16 Y81.959 E321.70289
G0 F6000 X62.16 Y81.393
G1 F1200 X144.606 Y163.839 E325.58089
G0 F6000 X145.171 Y163.839
G1 F1200 X62.16 Y80.827 E329.4855
G0 F6000 X62.16 Y80.262
G1 F1200 X145.737 Y163.839 E333.41671
G0 F6000 X146.303 Y163.839
G1 F1200 X62.16 Y79.696 E337.37454
G0 F6000 X62.16 Y79.13
G1 F1200 X146.868 Y163.839 E341.35896
G0 F6000 X147.434 Y163.839
G1 F1200 X62.16 Y78.565 E345.36999
G0 F6000 X62.16 Y77.999
G1 F1200 X148 Y163.839 E349.40764
G0 F6000 X148.565 Y163.839
G1 F1200 X62.16 Y77.433 E353.47189
G0 F6000 X62.16 Y76.868
G1 F1200 X149.131 Y163.839 E357.56274
G0 F6000 X149.697 Y163.839
G1 F1200 X62.16 Y76.302 E361.68021
G0 F6000 X62.16 Y75.736
G1 F1200 X150.263 Y163.839 E365.82431
G0 F6000 X150.828 Y163.839
G1 F1200 X62.16 Y75.171 E369.99498
G0 F6000 X62.16 Y74.605
G1 F1200 X151.394 Y163.839 E374.19227
G0 F6000 X151.96 Y163.839
G1 F1200 X62.16 Y74.039 E378.41619
G0 F6000 X62.16 Y73.474
G1 F1200 X152.525 Y163.839 E382.66668
G0 F6000 X153.091 Y163.839
G1 F1200 X62.16 Y72.908 E386.9438
G0 F6000 X62.16 Y72.342
G1 F1200 X153.657 Y163.839 E391.24754
G0 F6000 X154.222 Y163.839
G1 F1200 X62.16 Y71.776 E395.57787
G0 F6000 X62.16 Y71.211
G1 F1200 X154.788 Y163.839 E399.93481
G0 F6000 X155.354 Y163.839
G1 F1200 X62.674 Y71.159 E404.29419
G0 F6000 X63.24 Y71.159
G1 F1200 X155.919 Y163.839 E408.65355
G0 F6000 X156.485 Y163.839
G1 F1200 X63.805 Y71.159 E413.01294
G0 F6000 X64.371 Y71.159
G1 F1200 X157.051 Y163.839 E417.37232
G0 F6000 X157.616 Y163.839
G1 F1200 X64.937 Y71.159 E421.73168
G0 F6000 X65.502 Y71.159
G1 F1200 X158.182 Y163.839 E426.09106
G0 F6000 X158.748 Y163.839
G1 F1200 X66.068 Y71.159 E430.45044
G0 F6000 X66.634 Y71.159
G1 F1200 X159.313 Y163.839 E434.8098
G0 F6000 X159.879 Y163.839
G1 F1200 X67.199 Y71.159 E439.16919
G0 F6000 X67.765 Y71.159
G1 F1200 X160.445 Y163.839 E443.52857
G0 F6000 X161.011 Y163.839
G1 F1200 X68.331 Y71.159 E447.88795
G0 F6000 X68.896 Y71.159
G1 F1200 X161.576 Y163.839 E452.24734
G0 F6000 X162.142 Y163.839
G1 F1200 X69.462 Y71.159 E456.60672
G0 F6000 X70.028 Y71.159
G1 F1200 X162.708 Y163.839 E460.9661
G0 F6000 X163.273 Y163.839
G1 F1200 X70.594 Y71.159 E465.32546
G0 F6000 X71.159 Y71.159
G1 F1200 X163.839 Y163.839 E469.68485
G0 F6000 X164.405 Y163.839
G1 F1200 X71.725 Y71.159 E474.04423
G0 F6000 X72.291 Y71.159
G1 F1200 X164.97 Y163.839 E478.40359
G0 F6000 X165.536 Y163.839
G1 F1200 X72.856 Y71.159 E482.76297
G0 F6000 X73.422 Y71.159
G1 F1200 X166.102 Y163.839 E487.12235
G0 F6000 X166.667 Y163.839
G1 F1200 X73.988 Y71.159 E491.48171
G0 F6000 X74.553 Y71.159
G1 F1200 X167.233 Y163.839 E495.8411
G0 F6000 X167.799 Y163.839
G1 F1200 X75.119 Y71.159 E500.20048
G0 F6000 X75.685 Y71.159
G1 F1200 X168.364 Y163.839 E504.55984
G0 F6000 X168.93 Y163.839
G1 F1200 X76.25 Y71.159 E508.91922
G0 F6000 X76.816 Y71.159
G1 F1200 X169.496 Y163.839 E513.27861
G0 F6000 X170.062 Y163.839
G1 F1200 X77.382 Y71.159 E517.63799
G0 F6000 X77.947 Y71.159
G1 F1200 X170.627 Y163.839 E521.99737
G0 F6000 X171.193 Y163.839
G1 F1200 X78.513 Y71.159 E526.35675
G0 F6000 X79.079 Y71.159
G1 F1200 X171.759 Y163.839 E530.71614
G0 F6000 X172.324 Y163.839
G1 F1200 X79.644 Y71.159 E535.07552
G0 F6000 X80.21 Y71.159
G1 F1200 X172.839 Y163.788 E539.4325
G0 F6000 X172.839 Y163.222
G1 F1200 X80.776 Y71.159 E543.76287
G0 F6000 X81.342 Y71.159
G1 F1200 X172.839 Y162.657 E548.06663
G0 F6000 X172.839 Y162.091
G1 F1200 X81.907 Y71.159 E552.34379
G0 F6000 X82.473 Y71.159
G1 F1200 X172.839 Y161.525 E556.59433
G0 F6000 X172.839 Y160.96
G1 F1200 X83.039 Y71.159 E560.81827
G0 F6000 X83.604 Y71.159
G1 F1200 X172.839 Y160.394 E565.01561
G0 F6000 X172.839 Y159.828
G1 F1200 X84.17 Y71.159 E569.18633
G0 F6000 X84.736 Y71.159
G1 F1200 X172.839 Y159.263 E573.33045
G0 F6000 X172.839 Y158.697
G1 F1200 X85.301 Y71.159 E577.44797
G0 F6000 X85.867 Y71.159
G1 F1200 X172.839 Y158.131 E581.53886
G0 F6000 X172.839 Y157.566
G1 F1200 X86.433 Y71.159 E585.60316
G0 F6000 X86.998 Y71.159
G1 F1200 X172.839 Y157 E589.64086
G0 F6000 X172.839 Y156.434
G1 F1200 X87.564 Y71.159 E593.65193
G0 F6000 X88.13 Y71.159
G1 F1200 X172.839 Y155.868 E597.63638
G0 F6000 X172.839 Y155.303
G1 F1200 X88.695 Y71.159 E601.59426
G0 F6000 X89.261 Y71.159
G1 F1200 X172.839 Y154.737 E605.52551
G0 F6000 X172.839 Y154.171
G1 F1200 X89.827 Y71.159 E609.43014
G0 F6000 X90.392 Y71.159
G1 F1200 X172.839 Y153.606 E613.3082
G0 F6000 X172.839 Y153.04
G1 F1200 X90.958 Y71.159 E617.15963
G0 F6000 X91.524 Y71.159
G1 F1200 X172.839 Y152.474 E620.98444
G0 F6000 X172.839 Y151.909
G1 F1200 X92.09 Y71.159 E624.78264
G0 F6000 X92.655 Y71.159
G1 F1200 X172.839 Y151.343 E628.55425
G0 F6000 X172.839 Y150.777
G1 F1200 X93.221 Y71.159 E632.29924
G0 F6000 X93.787 Y71.159
G1 F1200 X172.839 Y150.212 E636.01763
G0 F6000 X172.839 Y149.646
G1 F1200 X94.352 Y71.159 E639.70942
G0 F6000 X94.918 Y71.159
G1 F1200 X172.839 Y149.08 E643.37458
G0 F6000 X172.839 Y148.515
G1 F1200 X95.484 Y71.159 E647.01315
G0 F6000 X96.049 Y71.159
G1 F1200 X172.839 Y147.949 E650.62511
G0 F6000 X172.839 Y147.383
G1 F1200 X96.615 Y71.159 E654.21046
G0 F6000 X97.181 Y71.159
G1 F1200 X172.839 Y146.817 E657.76918
G0 F6000 X172.839 Y146.252
G1 F1200 X97.746 Y71.159 E661.30132
G0 F6000 X98.312 Y71.159
G1 F1200 X172.839 Y145.686 E664.80684
G0 F6000 X172.839 Y145.12
G1 F1200 X98.878 Y71.159 E668.28574
G0 F6000 X99.443 Y71.159
G1 F1200 X172.839 Y144.555 E671.73806
G0 F6000 X172.839 Y143.989
G1 F1200 X100.009 Y71.159 E675.16376
G0 F6000 X100.575 Y71.159
G1 F1200 X172.839 Y143.423 E678.56284
G0 F6000 X172.839 Y142.858
G1 F1200 X101.141 Y71.159 E681.93532
G0 F6000 X101.706 Y71.159
G1 F1200 X172.839 Y142.292 E685.2812
G0 F6000 X172.839 Y141.726
