;FLAVOR:Marlin
;TIME:28410
;Filament used: 20.5046m
;Layer height: 0.2
;MINX:28.7
;MINY:56.197
;MINZ:0.2
;MAXX:206.3
;MAXY:178.803
;MAXZ:25
;Generated with Cura_SteamEngine 5.2.1
M140 S60
M105
M190 S60
M104 S200
M105
M109 S200
M82 ;absolute extrusion mode
M201 X500.00 Y500.00 Z100.00 E5000.00 ;Setup machine max acceleration
M203 X500.00 Y500.00 Z10.00 E50.00 ;Setup machine max feedrate
M204 P500.00 R1000.00 T500.00 ;Setup Print/Retract/Travel acceleration
M205 X8.00 Y8.00 Z0.40 E5.00 ;Setup Jerk
M220 S100 ;Reset Feedrate
M221 S100 ;Reset Flowrate

G28 ;Home

G92 E0 ;Reset Extruder
G1 Z2.0 F3000 ;Move Z Axis up
G1 X10.1 Y20 Z0.28 F5000.0 ;Move to start position
G1 X10.1 Y200.0 Z0.28 F1500.0 E15 ;Draw the first line
G1 X10.4 Y200.0 Z0.28 F5000.0 ;Move to side a little
G1 X10.4 Y20 Z0.28 F1500.0 E30 ;Draw the second line
G92 E0 ;Reset Extruder
G1 Z2.0 F3000 ;Move Z Axis up

G92 E0
G92 E0
G1 F1500 E-6.5
;LAYER_COUNT:125
;LAYER:0
M107
;MESH:agricola-res-small.stl
G0 F6000 X29.1 Y178.4 Z0.2
;TYPE:WALL-INNER
G1 F1500 E0
G1 F1200 X205.9 Y178.4 E5.88039
G1 X205.9 Y56.6 E9.93148
G1 X29.1 Y56.6 E15.81187
G1 X29.1 Y178.4 E19.86295
G0 F6000 X28.7 Y178.8
;TYPE:WALL-OUTER
G1 F1200 X206.3 Y178.8 E25.76995
G1 X206.3 Y56.2 E29.84765
G1 X28.7 Y56.2 E35.75465
G1 X28.7 Y178.8 E39.83234
G0 F6000 X28.97 Y178.53
G0 X29.2 Y178.04
G0 X29.46 Y178.04
;TYPE:SKIN
G1 F1200 X205.54 Y178.04 E45.68878
G1 X205.54 Y56.96 E49.71592
G1 X29.46 Y56.96 E55.57236
G1 X29.46 Y178.04 E59.5995
G0 F6000 X30.195 Y177.839
G1 F1200 X29.659 Y177.303 E59.62471
G0 F6000 X29.659 Y176.737
G1 F1200 X30.761 Y177.839 E59.67655
G0 F6000 X31.326 Y177.839
G1 F1200 X29.659 Y176.172 E59.75496
G0 F6000 X29.659 Y175.606
G1 F1200 X31.892 Y177.839 E59.85999
G0 F6000 X32.458 Y177.839
G1 F1200 X29.659 Y175.04 E59.99165
G0 F6000 X29.659 Y174.475
G1 F1200 X33.024 Y177.839 E60.1499
G0 F6000 X33.589 Y177.839
G1 F1200 X29.659 Y173.909 E60.33476
G0 F6000 X29.659 Y173.343
G1 F1200 X34.155 Y177.839 E60.54624
G0 F6000 X34.721 Y177.839
G1 F1200 X29.659 Y172.778 E60.78431
G0 F6000 X29.659 Y172.212
G1 F1200 X35.286 Y177.839 E61.04899
G0 F6000 X35.852 Y177.839
G1 F1200 X29.659 Y171.646 E61.34029
G0 F6000 X29.659 Y171.08
G1 F1200 X36.418 Y177.839 E61.65821
G0 F6000 X36.983 Y177.839
G1 F1200 X29.659 Y170.515 E62.00271
G0 F6000 X29.659 Y169.949
G1 F1200 X37.549 Y177.839 E62.37383
G0 F6000 X38.115 Y177.839
G1 F1200 X29.659 Y169.383 E62.77158
G0 F6000 X29.659 Y168.818
G1 F1200 X38.68 Y177.839 E63.1959
G0 F6000 X39.246 Y177.839
G1 F1200 X29.659 Y168.252 E63.64684
G0 F6000 X29.659 Y167.686
G1 F1200 X39.812 Y177.839 E64.12441
G0 F6000 X40.377 Y177.839
G1 F1200 X29.659 Y167.121 E64.62855
G0 F6000 X29.659 Y166.555
G1 F1200 X40.943 Y177.839 E65.15931
G0 F6000 X41.509 Y177.839
G1 F1200 X29.659 Y165.989 E65.7167
G0 F6000 X29.659 Y165.424
G1 F1200 X42.074 Y177.839 E66.30067
G0 F6000 X42.64 Y177.839
G1 F1200 X29.659 Y164.858 E66.91125
G0 F6000 X29.659 Y164.292
G1 F1200 X43.206 Y177.839 E67.54846
G0 F6000 X43.772 Y177.839
G1 F1200 X29.659 Y163.727 E68.21227
G0 F6000 X29.659 Y163.161
G1 F1200 X44.337 Y177.839 E68.90268
G0 F6000 X44.903 Y177.839
G1 F1200 X29.659 Y162.595 E69.61971
G0 F6000 X29.659 Y162.029
G1 F1200 X45.469 Y177.839 E70.36336
G0 F6000 X46.034 Y177.839
G1 F1200 X29.659 Y161.464 E71.13359
G0 F6000 X29.659 Y160.898
G1 F1200 X46.6 Y177.839 E71.93045
G0 F6000 X47.166 Y177.839
G1 F1200 X29.659 Y160.332 E72.75392
G0 F6000 X29.659 Y159.767
G1 F1200 X47.731 Y177.839 E73.60397
G0 F6000 X48.297 Y177.839
G1 F1200 X29.659 Y159.201 E74.48065
G0 F6000 X29.659 Y158.635
G1 F1200 X48.863 Y177.839 E75.38394
G0 F6000 X49.428 Y177.839
G1 F1200 X29.659 Y158.07 E76.31382
G0 F6000 X29.659 Y157.504
G1 F1200 X49.994 Y177.839 E77.27031
G0 F6000 X50.56 Y177.839
G1 F1200 X29.659 Y156.938 E78.25343
G0 F6000 X29.659 Y156.373
G1 F1200 X51.125 Y177.839 E79.26313
G0 F6000 X51.691 Y177.839
G1 F1200 X29.659 Y155.807 E80.29944
G0 F6000 X29.659 Y155.241
G1 F1200 X52.257 Y177.839 E81.36239
G0 F6000 X52.822 Y177.839
G1 F1200 X29.659 Y154.676 E82.4519
G0 F6000 X29.659 Y154.11
G1 F1200 X53.388 Y177.839 E83.56804
G0 F6000 X53.954 Y177.839
G1 F1200 X29.659 Y153.544 E84.7108
G0 F6000 X29.659 Y152.979
G1 F1200 X54.52 Y177.839 E85.88017
G0 F6000 X55.085 Y177.839
G1 F1200 X29.659 Y152.413 E87.07613
G0 F6000 X29.659 Y151.847
G1 F1200 X55.651 Y177.839 E88.29871
G0 F6000 X56.217 Y177.839
G1 F1200 X29.659 Y151.281 E89.54792
G0 F6000 X29.659 Y150.716
G1 F1200 X56.782 Y177.839 E90.8237
G0 F6000 X57.348 Y177.839
G1 F1200 X29.659 Y150.15 E92.12611
G0 F6000 X29.659 Y149.584
G1 F1200 X57.914 Y177.839 E93.45513
G0 F6000 X58.479 Y177.839
G1 F1200 X29.659 Y149.019 E94.81074
G0 F6000 X29.659 Y148.453
G1 F1200 X59.045 Y177.839 E96.19297
G0 F6000 X59.611 Y177.839
G1 F1200 X29.659 Y147.887 E97.60182
G0 F6000 X29.659 Y147.322
G1 F1200 X60.176 Y177.839 E99.03724
G0 F6000 X60.742 Y177.839
G1 F1200 X29.659 Y146.756 E100.49929
G0 F6000 X29.659 Y146.19
G1 F1200 X61.308 Y177.839 E101.98796
G0 F6000 X61.873 Y177.839
G1 F1200 X29.659 Y145.625 E103.50321
G0 F6000 X29.659 Y145.059
G1 F1200 X62.439 Y177.839 E105.04508
G0 F6000 X63.005 Y177.839
G1 F1200 X29.659 Y144.493 E106.61358
G0 F6000 X29.659 Y143.928
G1 F1200 X63.571 Y177.839 E108.20867
G0 F6000 X64.136 Y177.839
G1 F1200 X29.659 Y143.362 E109.83036
G0 F6000 X29.659 Y142.796
G1 F1200 X64.702 Y177.839 E111.47868
G0 F6000 X65.268 Y177.839
G1 F1200 X29.659 Y142.23 E113.15361
G0 F6000 X29.659 Y141.665
G1 F1200 X65.833 Y177.839 E114.85513
G0 F6000 X66.399 Y177.839
G1 F1200 X29.659 Y141.099 E116.58327
G0 F6000 X29.659 Y140.533
G1 F1200 X66.965 Y177.839 E118.33803
G0 F6000 X67.53 Y177.839
G1 F1200 X29.659 Y139.968 E120.11936
G0 F6000 X29.659 Y139.402
G1 F1200 X68.096 Y177.839 E121.92732
G0 F6000 X68.662 Y177.839
G1 F1200 X29.659 Y138.836 E123.7619
G0 F6000 X29.659 Y138.271
G1 F1200 X69.227 Y177.839 E125.62306
G0 F6000 X69.793 Y177.839
G1 F1200 X29.659 Y137.705 E127.51084
G0 F6000 X29.659 Y137.139
G1 F1200 X70.359 Y177.839 E129.42524
G0 F6000 X70.924 Y177.839
G1 F1200 X29.659 Y136.574 E131.36622
G0 F6000 X29.659 Y136.008
G1 F1200 X71.49 Y177.839 E133.33382
G0 F6000 X72.056 Y177.839
G1 F1200 X29.659 Y135.442 E135.32805
G0 F6000 X29.659 Y134.877
G1 F1200 X72.621 Y177.839 E137.34885
G0 F6000 X73.187 Y177.839
G1 F1200 X29.659 Y134.311 E139.39627
G0 F6000 X29.659 Y133.745
G1 F1200 X73.753 Y177.839 E141.47032
G0 F6000 X74.319 Y177.839
G1 F1200 X29.659 Y133.18 E143.57096
G0 F6000 X29.659 Y132.614
G1 F1200 X74.884 Y177.839 E145.69821
G0 F6000 X75.45 Y177.839
G1 F1200 X29.659 Y132.048 E147.85208
G0 F6000 X29.659 Y131.482
G1 F1200 X76.016 Y177.839 E150.03257
G0 F6000 X76.581 Y177.839
G1 F1200 X29.659 Y130.917 E152.23964
G0 F6000 X29.659 Y130.351
G1 F1200 X77.147 Y177.839 E154.47333
G0 F6000 X77.713 Y177.839
G1 F1200 X29.659 Y129.785 E156.73364
G0 F6000 X29.659 Y129.22
G1 F1200 X78.278 Y177.839 E159.02053
G0 F6000 X78.844 Y177.839
G1 F1200 X29.659 Y128.654 E161.33404
G0 F6000 X29.659 Y128.088
G1 F1200 X79.41 Y177.839 E163.67417
G0 F6000 X79.975 Y177.839
G1 F1200 X29.659 Y127.523 E166.04088
G0 F6000 X29.659 Y126.957
G1 F1200 X80.541 Y177.839 E168.43422
G0 F6000 X81.107 Y177.839
G1 F1200 X29.659 Y126.391 E170.85417
G0 F6000 X29.659 Y125.826
G1 F1200 X81.672 Y177.839 E173.30071
G0 F6000 X82.238 Y177.839
G1 F1200 X29.659 Y125.26 E175.77386
G0 F6000 X29.659 Y124.694
G1 F1200 X82.804 Y177.839 E178.27364
G0 F6000 X83.37 Y177.839
G1 F1200 X29.659 Y124.129 E180.80002
G0 F6000 X29.659 Y123.563
G1 F1200 X83.935 Y177.839 E183.35299
G0 F6000 X84.501 Y177.839
G1 F1200 X29.659 Y122.997 E185.93259
G0 F6000 X29.659 Y122.432
G1 F1200 X85.067 Y177.839 E188.53879
G0 F6000 X85.632 Y177.839
G1 F1200 X29.659 Y121.866 E191.17159
G0 F6000 X29.659 Y121.3
G1 F1200 X86.198 Y177.839 E193.83101
G0 F6000 X86.764 Y177.839
G1 F1200 X29.659 Y120.734 E196.51705
G0 F6000 X29.659 Y120.169
G1 F1200 X87.329 Y177.839 E199.22967
G0 F6000 X87.895 Y177.839
G1 F1200 X29.659 Y119.603 E201.96892
G0 F6000 X29.659 Y119.037
G1 F1200 X88.461 Y177.839 E204.73478
G0 F6000 X89.026 Y177.839
G1 F1200 X29.659 Y118.472 E207.52723
G0 F6000 X29.659 Y117.906
G1 F1200 X89.592 Y177.839 E210.34629
G0 F6000 X90.158 Y177.839
G1 F1200 X29.659 Y117.34 E213.19198
G0 F6000 X29.659 Y116.775
G1 F1200 X90.723 Y177.839 E216.06424
G0 F6000 X91.289 Y177.839
G1 F1200 X29.659 Y116.209 E218.96313
G0 F6000 X29.659 Y115.643
G1 F1200 X91.855 Y177.839 E221.88864
G0 F6000 X92.42 Y177.839
G1 F1200 X29.659 Y115.078 E224.84072
G0 F6000 X29.659 Y114.512
G1 F1200 X92.986 Y177.839 E227.81943
G0 F6000 X93.552 Y177.839
G1 F1200 X29.659 Y113.946 E230.82476
G0 F6000 X29.659 Y113.381
G1 F1200 X94.118 Y177.839 E233.85669
G0 F6000 X94.683 Y177.839
G1 F1200 X29.659 Y112.815 E236.91522
G0 F6000 X29.659 Y112.249
G1 F1200 X95.249 Y177.839 E240.00037
G0 F6000 X95.815 Y177.839
G1 F1200 X29.659 Y111.683 E243.11215
G0 F6000 X29.659 Y111.118
G1 F1200 X96.38 Y177.839 E246.2505
G0 F6000 X96.946 Y177.839
G1 F1200 X29.659 Y110.552 E249.41547
G0 F6000 X29.659 Y109.986
G1 F1200 X97.512 Y177.839 E252.60707
G0 F6000 X98.077 Y177.839
G1 F1200 X29.659 Y109.421 E255.82524
G0 F6000 X29.659 Y108.855
G1 F1200 X98.643 Y177.839 E259.07004
G0 F6000 X99.209 Y177.839
G1 F1200 X29.659 Y108.289 E262.34146
G0 F6000 X29.659 Y107.724
G1 F1200 X99.774 Y177.839 E265.63945
G0 F6000 X100.34 Y177.839
G1 F1200 X29.659 Y107.158 E268.96407
G0 F6000 X29.659 Y106.592
G1 F1200 X100.906 Y177.839 E272.31531
G0 F6000 X101.471 Y177.839
G1 F1200 X29.659 Y106.027 E275.69313
G0 F6000 X29.659 Y105.461
G1 F1200 X102.037 Y177.839 E279.09757
G0 F6000 X102.603 Y177.839
G1 F1200 X29.659 Y104.895 E282.52863
G0 F6000 X29.659 Y104.33
G1 F1200 X103.169 Y177.839 E285.98629
G0 F6000 X103.734 Y177.839
G1 F1200 X29.659 Y103.764 E289.47055
G0 F6000 X29.659 Y103.198
G1 F1200 X104.3 Y177.839 E292.98143
G0 F6000 X104.866 Y177.839
G1 F1200 X29.659 Y102.633 E296.51892
G0 F6000 X29.659 Y102.067
G1 F1200 X105.431 Y177.839 E300.083
G0 F6000 X105.997 Y177.839
G1 F1200 X29.659 Y101.501 E303.67371
G0 F6000 X29.659 Y100.935
G1 F1200 X106.563 Y177.839 E307.29103
G0 F6000 X107.128 Y177.839
G1 F1200 X29.659 Y100.37 E310.93494
G0 F6000 X29.659 Y99.804
G1 F1200 X107.694 Y177.839 E314.60547
G0 F6000 X108.26 Y177.839
G1 F1200 X29.659 Y99.238 E318.30262
G0 F6000 X29.659 Y98.673
G1 F1200 X108.825 Y177.839 E322.02634
G0 F6000 X109.391 Y177.839
G1 F1200 X29.659 Y98.107 E325.77669
G0 F6000 X29.659 Y97.541
G1 F1200 X109.957 Y177.839 E329.55366
G0 F6000 X110.522 Y177.839
G1 F1200 X29.659 Y96.976 E333.35721
G0 F6000 X29.659 Y96.41
G1 F1200 X111.088 Y177.839 E337.18738
G0 F6000 X111.654 Y177.839
G1 F1200 X29.659 Y95.844 E341.04417
G0 F6000 X29.659 Y95.279
G1 F1200 X112.219 Y177.839 E344.92754
G0 F6000 X112.785 Y177.839
G1 F1200 X29.659 Y94.713 E348.83753
G0 F6000 X29.659 Y94.147
G1 F1200 X113.351 Y177.839 E352.77415
G0 F6000 X113.917 Y177.839
G1 F1200 X29.659 Y93.582 E356.73736
G0 F6000 X29.659 Y93.016
G1 F1200 X114.482 Y177.839 E360.72718
G0 F6000 X115.048 Y177.839
G1 F1200 X29.659 Y92.45 E364.74361
G0 F6000 X29.659 Y91.884
G1 F1200 X115.614 Y177.839 E368.78667
G0 F6000 X116.179 Y177.839
G1 F1200 X29.659 Y91.319 E372.85631
G0 F6000 X29.659 Y90.753
G1 F1200 X116.745 Y177.839 E376.95257
G0 F6000 X117.311 Y177.839
G1 F1200 X29.659 Y90.187 E381.07545
G0 F6000 X29.659 Y89.622
G1 F1200 X117.876 Y177.839 E385.22491
G0 F6000 X118.442 Y177.839
G1 F1200 X29.659 Y89.056 E389.40099
G0 F6000 X29.659 Y88.49
G1 F1200 X119.008 Y177.839 E393.60369
G0 F6000 X119.573 Y177.839
G1 F1200 X29.659 Y87.925 E397.83297
G0 F6000 X29.659 Y87.359
G1 F1200 X120.139 Y177.839 E402.08887
G0 F6000 X120.705 Y177.839
G1 F1200 X29.659 Y86.793 E406.3714
G0 F6000 X29.659 Y86.228
G1 F1200 X121.27 Y177.839 E410.6805
G0 F6000 X121.836 Y177.839
G1 F1200 X29.659 Y85.662 E415.01622
G0 F6000 X29.659 Y85.096
G1 F1200 X122.402 Y177.839 E419.37857
G0 F6000 X122.967 Y177.839
G1 F1200 X29.659 Y84.531 E423.76749
G0 F6000 X29.659 Y83.965
G1 F1200 X123.533 Y177.839 E428.18303
G0 F6000 X124.099 Y177.839
G1 F1200 X29.659 Y83.399 E432.6252
G0 F6000 X29.659 Y82.834
G1 F1200 X124.665 Y177.839 E437.09397
G0 F6000 X125.23 Y177.839
G1 F1200 X29.659 Y82.268 E441.58934
G0 F6000 X29.659 Y81.702
G1 F1200 X125.796 Y177.839 E446.11133
G0 F6000 X126.362 Y177.839
G1 F1200 X29.659 Y81.136 E450.65994
G0 F6000 X29.659 Y80.571
G1 F1200 X126.927 Y177.839 E455.23513
G0 F6000 X127.493 Y177.839
G1 F1200 X29.659 Y80.005 E459.83694
G0 F6000 X29.659 Y79.439
G1 F1200 X128.059 Y177.839 E464.46537
G0 F6000 X128.624 Y177.839
G1 F1200 X29.659 Y78.874 E469.12038
G0 F6000 X29.659 Y78.308
G1 F1200 X129.19 Y177.839 E473.80202
G0 F6000 X129.756 Y177.839
G1 F1200 X29.659 Y77.742 E478.51027
G0 F6000 X29.659 Y77.177
G1 F1200 X130.321 Y177.839 E483.2451
G0 F6000 X130.887 Y177.839
G1 F1200 X29.659 Y76.611 E488.00656
G0 F6000 X29.659 Y76.045
G1 F1200 X131.453 Y177.839 E492.79464
G0 F6000 X132.018 Y177.839
G1 F1200 X29.659 Y75.48 E497.60929
G0 F6000 X29.659 Y74.914
G1 F1200 X132.584 Y177.839 E502.45057
G0 F6000 X133.15 Y177.839
G1 F1200 X29.659 Y74.348 E507.31846
G0 F6000 X29.659 Y73.783
G1 F1200 X133.716 Y177.839 E512.21296
G0 F6000 X134.281 Y177.839
G1 F1200 X29.659 Y73.217 E517.13406
G0 F6000 X29.659 Y72.651
G1 F1200 X134.847 Y177.839 E522.08178
G0 F6000 X135.413 Y177.839
G1 F1200 X29.659 Y72.086 E527.0561
G0 F6000 X29.659 Y71.52
G1 F1200 X135.978 Y177.839 E532.05702
G0 F6000 X136.544 Y177.839
G1 F1200 X29.659 Y70.954 E537.08457
G0 F6000 X29.659 Y70.388
G1 F1200 X137.11 Y177.839 E542.13873
G0 F6000 X137.675 Y177.839
G1 F1200 X29.659 Y69.823 E547.21947
G0 F6000 X29.659 Y69.257
G1 F1200 X138.241 Y177.839 E552.32684
G0 F6000 X138.807 Y177.839
G1 F1200 X29.659 Y68.691 E557.46082
G0 F6000 X29.659 Y68.126
G1 F1200 X139.372 Y177.839 E562.62139
G0 F6000 X139.938 Y177.839
G1 F1200 X29.659 Y67.56 E567.80857
G0 F6000 X29.659 Y66.994
G1 F1200 X140.504 Y177.839 E573.02238
G0 F6000 X141.069 Y177.839
G1 F1200 X29.659 Y66.429 E578.26277
G0 F6000 X29.659 Y65.863
G1 F1200 X141.635 Y177.839 E583.52978
G0 F6000 X142.201 Y177.839
G1 F1200 X29.659 Y65.297 E588.82341
G0 F6000 X29.659 Y64.732
G1 F1200 X142.766 Y177.839 E594.14361
G0 F6000 X143.332 Y177.839
G1 F1200 X29.659 Y64.166 E599.49044
G0 F6000 X29.659 Y63.6
G1 F1200 X143.898 Y177.839 E604.86389
G0 F6000 X144.464 Y177.839
G1 F1200 X29.659 Y63.035 E610.26395
G0 F6000 X29.659 Y62.469
G1 F1200 X145.029 Y177.839 E615.6906
G0 F6000 X145.595 Y177.839
G1 F1200 X29.659 Y61.903 E621.14387
G0 F6000 X29.659 Y61.337
G1 F1200 X146.161 Y177.839 E626.62377
G0 F6000 X146.726 Y177.839
G1 F1200 X29.659 Y60.772 E632.13024
G0 F6000 X29.659 Y60.206
G1 F1200 X147.292 Y177.839 E637.66334
G0 F6000 X147.858 Y177.839
G1 F1200 X29.659 Y59.64 E643.22305
G0 F6000 X29.659 Y59.075
G1 F1200 X148.423 Y177.839 E648.80935
G0 F6000 X148.989 Y177.839
G1 F1200 X29.659 Y58.509 E654.42227
G0 F6000 X29.659 Y57.943
G1 F1200 X149.555 Y177.839 E660.06181
G0 F6000 X150.12 Y177.839
G1 F1200 X29.659 Y57.378 E665.72792
G0 F6000 X30.006 Y57.159
G1 F1200 X150.686 Y177.839 E671.40434
G0 F6000 X151.252 Y177.839
G1 F1200 X30.572 Y57.159 E677.08076
G0 F6000 X31.138 Y57.159
G1 F1200 X151.817 Y177.839 E682.75715
G0 F6000 X152.383 Y177.839
G1 F1200 X31.703 Y57.159 E688.43357
G0 F6000 X32.269 Y57.159
G1 F1200 X152.949 Y177.839 E694.10999
G0 F6000 X153.515 Y177.839
G1 F1200 X32.835 Y57.159 E699.7864
G0 F6000 X33.4 Y57.159
G1 F1200 X154.08 Y177.839 E705.46282
G0 F6000 X154.646 Y177.839
G1 F1200 X33.966 Y57.159 E711.13924
G0 F6000 X34.532 Y57.159
G1 F1200 X155.212 Y177.839 E716.81565
G0 F6000 X155.777 Y177.839
G1 F1200 X35.097 Y57.159 E722.49207
G0 F6000 X35.663 Y57.159
G1 F1200 X156.343 Y177.839 E728.16849
G0 F6000 X156.909 Y177.839
G1 F1200 X36.229 Y57.159 E733.84491
G0 F6000 X36.795 Y57.159
G1 F1200 X157.474 Y177.839 E739.5213
G0 F6000 X158.04 Y177.839
G1 F1200 X37.36 Y57.159 E745.19772
G0 F6000 X37.926 Y57.159
G1 F1200 X158.606 Y177.839 E750.87413
G0 F6000 X159.171 Y177.839
G1 F1200 X38.492 Y57.159 E756.55053
G0 F6000 X39.057 Y57.159
G1 F1200 X159.737 Y177.839 E762.22694
G0 F6000 X160.303 Y177.839
G1 F1200 X39.623 Y57.159 E767.90336
G0 F6000 X40.189 Y57.159
G1 F1200 X160.868 Y177.839 E773.57976
