;FLAVOR:Marlin
;TIME:33224
;Filament used: 24.8087m
;Layer height: 0.2
;MINX:40.2
;MINY:70.2
;MINZ:0.2
;MAXX:194.8
;MAXY:164.8
;MAXZ:70
;Generated with Cura_SteamEngine 5.2.1
M140 S60
M105
M190 S60
M104 S200
M105
M109 S200
M82 ;absolute extrusion mode
M201 X500.00 Y500.00 Z100.00 E5000.00 ;Setup machine max acceleration
M203 X500.00 Y500.00 Z10.00 E50.00 ;Setup machine max feedrate
M204 P500.00 R1000.00 T500.00 ;Setup Print/Retract/Travel acceleration
M205 X8.00 Y8.00 Z0.40 E5.00 ;Setup Jerk
M220 S100 ;Reset Feedrate
M221 S100 ;Reset Flowrate

G28 ;Home

G92 E0 ;Reset Extruder
G1 Z2.0 F3000 ;Move Z Axis up
G1 X10.1 Y20 Z0.28 F5000.0 ;Move to start position
G1 X10.1 Y200.0 Z0.28 F1500.0 E15 ;Draw the first line
G1 X10.4 Y200.0 Z0.28 F5000.0 ;Move to side a little
G1 X10.4 Y20 Z0.28 F1500.0 E30 ;Draw the second line
G92 E0 ;Reset Extruder
G1 Z2.0 F3000 ;Move Z Axis up

G92 E0
G92 E0
G1 F1500 E-6.5
;LAYER_COUNT:350
;LAYER:0
M107
;MESH:agricola-cards-2.stl
G0 F6000 X40.6 Y164.4 Z0.2
;TYPE:WALL-INNER
G1 F1500 E0
G1 F1200 X194.4 Y164.4 E5.11541
G1 X194.4 Y70.6 E8.23521
G1 X40.6 Y70.6 E13.35062
G1 X40.6 Y164.4 E16.47042
G0 F6000 X40.2 Y164.8
;TYPE:WALL-OUTER
G1 F1200 X194.8 Y164.8 E21.61244
G1 X194.8 Y70.2 E24.75884
G1 X40.2 Y70.2 E29.90086
G1 X40.2 Y164.8 E33.04727
G0 F6000 X40.47 Y164.53
G0 X40.7 Y164.04
G0 X40.96 Y164.04
;TYPE:SKIN
G1 F1200 X194.04 Y164.04 E38.13873
G1 X194.04 Y70.96 E41.23459
G1 X40.96 Y70.96 E46.32605
G1 X40.96 Y164.04 E49.4219
G0 F6000 X41.65 Y163.838
G1 F1200 X41.159 Y163.348 E49.44497
G0 F6000 X41.159 Y162.782
G1 F1200 X42.216 Y163.838 E49.49467
G0 F6000 X42.782 Y163.838
G1 F1200 X41.159 Y162.216 E49.57098
G0 F6000 X41.159 Y161.65
G1 F1200 X43.347 Y163.838 E49.6739
G0 F6000 X43.913 Y163.838
G1 F1200 X41.159 Y161.085 E49.80342
G0 F6000 X41.159 Y160.519
G1 F1200 X44.479 Y163.838 E49.95956
G0 F6000 X45.044 Y163.838
G1 F1200 X41.159 Y159.953 E50.14229
G0 F6000 X41.159 Y159.388
G1 F1200 X45.61 Y163.838 E50.35163
G0 F6000 X46.176 Y163.838
G1 F1200 X41.159 Y158.822 E50.58759
G0 F6000 X41.159 Y158.256
G1 F1200 X46.741 Y163.838 E50.85015
G0 F6000 X47.307 Y163.838
G1 F1200 X41.159 Y157.691 E51.13931
G0 F6000 X41.159 Y157.125
G1 F1200 X47.873 Y163.838 E51.45509
G0 F6000 X48.438 Y163.838
G1 F1200 X41.159 Y156.559 E51.79748
G0 F6000 X41.159 Y155.994
G1 F1200 X49.004 Y163.838 E52.16646
G0 F6000 X49.57 Y163.838
G1 F1200 X41.159 Y155.428 E52.56206
G0 F6000 X41.159 Y154.862
G1 F1200 X50.135 Y163.838 E52.98427
G0 F6000 X50.701 Y163.838
G1 F1200 X41.159 Y154.297 E53.43307
G0 F6000 X41.159 Y153.731
G1 F1200 X51.267 Y163.838 E53.90849
G0 F6000 X51.833 Y163.838
G1 F1200 X41.159 Y153.165 E54.41054
G0 F6000 X41.159 Y152.6
G1 F1200 X52.398 Y163.838 E54.93917
G0 F6000 X52.964 Y163.838
G1 F1200 X41.159 Y152.034 E55.49442
G0 F6000 X41.159 Y151.468
G1 F1200 X53.53 Y163.838 E56.07629
G0 F6000 X54.095 Y163.838
G1 F1200 X41.159 Y150.902 E56.68476
G0 F6000 X41.159 Y150.337
G1 F1200 X54.661 Y163.838 E57.31982
G0 F6000 X55.227 Y163.838
G1 F1200 X41.159 Y149.771 E57.98152
G0 F6000 X41.159 Y149.205
G1 F1200 X55.792 Y163.838 E58.66981
G0 F6000 X56.358 Y163.838
G1 F1200 X41.159 Y148.64 E59.3847
G0 F6000 X41.159 Y148.074
G1 F1200 X56.924 Y163.838 E60.12621
G0 F6000 X57.489 Y163.838
G1 F1200 X41.159 Y147.508 E60.89433
G0 F6000 X41.159 Y146.943
G1 F1200 X58.055 Y163.838 E61.68904
G0 F6000 X58.621 Y163.838
G1 F1200 X41.159 Y146.377 E62.51037
G0 F6000 X41.159 Y145.811
G1 F1200 X59.186 Y163.838 E63.35831
G0 F6000 X59.752 Y163.838
G1 F1200 X41.159 Y145.246 E64.23284
G0 F6000 X41.159 Y144.68
G1 F1200 X60.318 Y163.838 E65.134
G0 F6000 X60.884 Y163.838
G1 F1200 X41.159 Y144.114 E66.06178
G0 F6000 X41.159 Y143.549
G1 F1200 X61.449 Y163.838 E67.01614
G0 F6000 X62.015 Y163.838
G1 F1200 X41.159 Y142.983 E67.99711
G0 F6000 X41.159 Y142.417
G1 F1200 X62.581 Y163.838 E69.00472
G0 F6000 X63.146 Y163.838
G1 F1200 X41.159 Y141.851 E70.03892
G0 F6000 X41.159 Y141.286
G1 F1200 X63.712 Y163.838 E71.09972
G0 F6000 X64.278 Y163.838
G1 F1200 X41.159 Y140.72 E72.18714
G0 F6000 X41.159 Y140.154
G1 F1200 X64.843 Y163.838 E73.30116
G0 F6000 X65.409 Y163.838
G1 F1200 X41.159 Y139.589 E74.44179
G0 F6000 X41.159 Y139.023
G1 F1200 X65.975 Y163.838 E75.60903
G0 F6000 X66.54 Y163.838
G1 F1200 X41.159 Y138.457 E76.80288
G0 F6000 X41.159 Y137.892
G1 F1200 X67.106 Y163.838 E78.02332
G0 F6000 X67.672 Y163.838
G1 F1200 X41.159 Y137.326 E79.27039
G0 F6000 X41.159 Y136.76
G1 F1200 X68.237 Y163.838 E80.54405
G0 F6000 X68.803 Y163.838
G1 F1200 X41.159 Y136.195 E81.84432
G0 F6000 X41.159 Y135.629
G1 F1200 X69.369 Y163.838 E83.17121
G0 F6000 X69.934 Y163.838
G1 F1200 X41.159 Y135.063 E84.52469
G0 F6000 X41.159 Y134.498
G1 F1200 X70.5 Y163.838 E85.90478
G0 F6000 X71.066 Y163.838
G1 F1200 X41.159 Y133.932 E87.31149
G0 F6000 X41.159 Y133.366
G1 F1200 X71.632 Y163.838 E88.74482
G0 F6000 X72.197 Y163.838
G1 F1200 X41.159 Y132.801 E90.20473
G0 F6000 X41.159 Y132.235
G1 F1200 X72.763 Y163.838 E91.69126
G0 F6000 X73.329 Y163.838
G1 F1200 X41.159 Y131.669 E93.20442
G0 F6000 X41.159 Y131.103
G1 F1200 X73.894 Y163.838 E94.74417
G0 F6000 X74.46 Y163.838
G1 F1200 X41.159 Y130.538 E96.31053
G0 F6000 X41.159 Y129.972
G1 F1200 X75.026 Y163.838 E97.9035
G0 F6000 X75.591 Y163.838
G1 F1200 X41.159 Y129.406 E99.52308
G0 F6000 X41.159 Y128.841
G1 F1200 X76.157 Y163.838 E101.16925
G0 F6000 X76.723 Y163.838
G1 F1200 X41.159 Y128.275 E102.84205
G0 F6000 X41.159 Y127.709
G1 F1200 X77.288 Y163.838 E104.54145
G0 F6000 X77.854 Y163.838
G1 F1200 X41.159 Y127.144 E106.26745
G0 F6000 X41.159 Y126.578
G1 F1200 X78.42 Y163.838 E108.02007
G0 F6000 X78.985 Y163.838
G1 F1200 X41.159 Y126.012 E109.79928
G0 F6000 X41.159 Y125.447
G1 F1200 X79.551 Y163.838 E111.6051
G0 F6000 X80.117 Y163.838
G1 F1200 X41.159 Y124.881 E113.43754
G0 F6000 X41.159 Y124.315
G1 F1200 X80.683 Y163.838 E115.29661
G0 F6000 X81.248 Y163.838
G1 F1200 X41.159 Y123.75 E117.18225
G0 F6000 X41.159 Y123.184
G1 F1200 X81.814 Y163.838 E119.09451
G0 F6000 X82.38 Y163.838
G1 F1200 X41.159 Y122.618 E121.0334
G0 F6000 X41.159 Y122.052
G1 F1200 X82.945 Y163.838 E122.99888
G0 F6000 X83.511 Y163.838
G1 F1200 X41.159 Y121.487 E124.99097
G0 F6000 X41.159 Y120.921
G1 F1200 X84.077 Y163.838 E127.00968
G0 F6000 X84.642 Y163.838
G1 F1200 X41.159 Y120.355 E129.05498
G0 F6000 X41.159 Y119.79
G1 F1200 X85.208 Y163.838 E131.12689
G0 F6000 X85.774 Y163.838
G1 F1200 X41.159 Y119.224 E133.22542
G0 F6000 X41.159 Y118.658
G1 F1200 X86.339 Y163.838 E135.35055
G0 F6000 X86.905 Y163.838
G1 F1200 X41.159 Y118.093 E137.50227
G0 F6000 X41.159 Y117.527
G1 F1200 X87.471 Y163.838 E139.68063
G0 F6000 X88.036 Y163.838
G1 F1200 X41.159 Y116.961 E141.88558
G0 F6000 X41.159 Y116.396
G1 F1200 X88.602 Y163.838 E144.11713
G0 F6000 X89.168 Y163.838
G1 F1200 X41.159 Y115.83 E146.3753
G0 F6000 X41.159 Y115.264
G1 F1200 X89.733 Y163.838 E148.66007
G0 F6000 X90.299 Y163.838
G1 F1200 X41.159 Y114.699 E150.97144
G0 F6000 X41.159 Y114.133
G1 F1200 X90.865 Y163.838 E153.30944
G0 F6000 X91.431 Y163.838
G1 F1200 X41.159 Y113.567 E155.67405
G0 F6000 X41.159 Y113.002
G1 F1200 X91.996 Y163.838 E158.06525
G0 F6000 X92.562 Y163.838
G1 F1200 X41.159 Y112.436 E160.48306
G0 F6000 X41.159 Y111.87
G1 F1200 X93.128 Y163.838 E162.9275
G0 F6000 X93.693 Y163.838
G1 F1200 X41.159 Y111.304 E165.39854
G0 F6000 X41.159 Y110.739
G1 F1200 X94.259 Y163.838 E167.89618
G0 F6000 X94.825 Y163.838
G1 F1200 X41.159 Y110.173 E170.42044
G0 F6000 X41.159 Y109.607
G1 F1200 X95.39 Y163.838 E172.9713
G0 F6000 X95.956 Y163.838
G1 F1200 X41.159 Y109.042 E175.54876
G0 F6000 X41.159 Y108.476
G1 F1200 X96.522 Y163.838 E178.15284
G0 F6000 X97.087 Y163.838
G1 F1200 X41.159 Y107.91 E180.78352
G0 F6000 X41.159 Y107.345
G1 F1200 X97.653 Y163.838 E183.4408
G0 F6000 X98.219 Y163.838
G1 F1200 X41.159 Y106.779 E186.12471
G0 F6000 X41.159 Y106.213
G1 F1200 X98.784 Y163.838 E188.83521
G0 F6000 X99.35 Y163.838
G1 F1200 X41.159 Y105.648 E191.57231
G0 F6000 X41.159 Y105.082
G1 F1200 X99.916 Y163.838 E194.33604
G0 F6000 X100.481 Y163.838
G1 F1200 X41.159 Y104.516 E197.12636
G0 F6000 X41.159 Y103.951
G1 F1200 X101.047 Y163.838 E199.94329
G0 F6000 X101.613 Y163.838
G1 F1200 X41.159 Y103.385 E202.78683
G0 F6000 X41.159 Y102.819
G1 F1200 X102.179 Y163.838 E205.657
G0 F6000 X102.744 Y163.838
G1 F1200 X41.159 Y102.254 E208.55375
G0 F6000 X41.159 Y101.688
G1 F1200 X103.31 Y163.838 E211.47712
G0 F6000 X103.876 Y163.838
G1 F1200 X41.159 Y101.122 E214.42711
G0 F6000 X41.159 Y100.556
G1 F1200 X104.441 Y163.838 E217.4037
G0 F6000 X105.007 Y163.838
G1 F1200 X41.159 Y99.991 E220.40689
G0 F6000 X41.159 Y99.425
G1 F1200 X105.573 Y163.838 E223.43671
G0 F6000 X106.138 Y163.838
G1 F1200 X41.159 Y98.859 E226.49312
G0 F6000 X41.159 Y98.294
G1 F1200 X106.704 Y163.838 E229.57613
G0 F6000 X107.27 Y163.838
G1 F1200 X41.159 Y97.728 E232.68577
G0 F6000 X41.159 Y97.162
G1 F1200 X107.835 Y163.838 E235.822
G0 F6000 X108.401 Y163.838
G1 F1200 X41.159 Y96.597 E238.98484
G0 F6000 X41.159 Y96.031
G1 F1200 X108.967 Y163.838 E242.17429
G0 F6000 X109.532 Y163.838
G1 F1200 X41.159 Y95.465 E245.39035
G0 F6000 X41.159 Y94.9
G1 F1200 X110.098 Y163.838 E248.63301
G0 F6000 X110.664 Y163.838
G1 F1200 X41.159 Y94.334 E251.90228
G0 F6000 X41.159 Y93.768
G1 F1200 X111.23 Y163.838 E255.19819
G0 F6000 X111.795 Y163.838
G1 F1200 X41.159 Y93.203 E258.52066
G0 F6000 X41.159 Y92.637
G1 F1200 X112.361 Y163.838 E261.86976
G0 F6000 X112.927 Y163.838
G1 F1200 X41.159 Y92.071 E265.24549
G0 F6000 X41.159 Y91.505
G1 F1200 X113.492 Y163.838 E268.64781
G0 F6000 X114.058 Y163.838
G1 F1200 X41.159 Y90.94 E272.07673
G0 F6000 X41.159 Y90.374
G1 F1200 X114.624 Y163.838 E275.53228
G0 F6000 X115.189 Y163.838
G1 F1200 X41.159 Y89.808 E279.01442
G0 F6000 X41.159 Y89.243
G1 F1200 X115.755 Y163.838 E282.52316
G0 F6000 X116.321 Y163.838
G1 F1200 X41.159 Y88.677 E286.05853
G0 F6000 X41.159 Y88.111
G1 F1200 X116.886 Y163.838 E289.6205
G0 F6000 X117.452 Y163.838
G1 F1200 X41.159 Y87.546 E293.20906
G0 F6000 X41.159 Y86.98
G1 F1200 X118.018 Y163.838 E296.82425
G0 F6000 X118.583 Y163.838
G1 F1200 X41.159 Y86.414 E300.46604
G0 F6000 X41.159 Y85.849
G1 F1200 X119.149 Y163.838 E304.13442
G0 F6000 X119.715 Y163.838
G1 F1200 X41.159 Y85.283 E307.82943
G0 F6000 X41.159 Y84.717
G1 F1200 X120.28 Y163.838 E311.55104
G0 F6000 X120.846 Y163.838
G1 F1200 X41.159 Y84.152 E315.29925
G0 F6000 X41.159 Y83.586
G1 F1200 X121.412 Y163.838 E319.07408
G0 F6000 X121.978 Y163.838
G1 F1200 X41.159 Y83.02 E322.87554
G0 F6000 X41.159 Y82.455
G1 F1200 X122.543 Y163.838 E326.70357
G0 F6000 X123.109 Y163.838
G1 F1200 X41.159 Y81.889 E330.55822
G0 F6000 X41.159 Y81.323
G1 F1200 X123.675 Y163.838 E334.4395
G0 F6000 X124.24 Y163.838
G1 F1200 X41.159 Y80.757 E338.34737
G0 F6000 X41.159 Y80.192
G1 F1200 X124.806 Y163.838 E342.28185
G0 F6000 X125.372 Y163.838
G1 F1200 X41.159 Y79.626 E346.24295
G0 F6000 X41.159 Y79.06
G1 F1200 X125.937 Y163.838 E350.23064
G0 F6000 X126.503 Y163.838
G1 F1200 X41.159 Y78.495 E354.24494
G0 F6000 X41.159 Y77.929
G1 F1200 X127.069 Y163.838 E358.28586
G0 F6000 X127.634 Y163.838
G1 F1200 X41.159 Y77.363 E362.35338
G0 F6000 X41.159 Y76.798
G1 F1200 X128.2 Y163.838 E366.4475
G0 F6000 X128.766 Y163.838
G1 F1200 X41.159 Y76.232 E370.56824
G0 F6000 X41.159 Y75.666
G1 F1200 X129.331 Y163.838 E374.71558
G0 F6000 X129.897 Y163.838
G1 F1200 X41.159 Y75.101 E378.88952
G0 F6000 X41.159 Y74.535
G1 F1200 X130.463 Y163.838 E383.09008
G0 F6000 X131.029 Y163.838
G1 F1200 X41.159 Y73.969 E387.31727
G0 F6000 X41.159 Y73.404
G1 F1200 X131.594 Y163.838 E391.57103
G0 F6000 X132.16 Y163.838
G1 F1200 X41.159 Y72.838 E395.85141
G0 F6000 X41.159 Y72.272
G1 F1200 X132.726 Y163.838 E400.15842
G0 F6000 X133.291 Y163.838
G1 F1200 X41.159 Y71.706 E404.49203
G0 F6000 X41.179 Y71.16
G1 F1200 X133.857 Y163.838 E408.85132
G0 F6000 X134.423 Y163.838
G1 F1200 X41.744 Y71.16 E413.21063
G0 F6000 X42.31 Y71.16
G1 F1200 X134.988 Y163.838 E417.56992
G0 F6000 X135.554 Y163.838
G1 F1200 X42.876 Y71.16 E421.92921
G0 F6000 X43.441 Y71.16
G1 F1200 X136.12 Y163.838 E426.28852
G0 F6000 X136.685 Y163.838
G1 F1200 X44.007 Y71.16 E430.64781
G0 F6000 X44.573 Y71.16
G1 F1200 X137.251 Y163.838 E435.0071
G0 F6000 X137.817 Y163.838
G1 F1200 X45.138 Y71.16 E439.36641
G0 F6000 X45.704 Y71.16
G1 F1200 X138.382 Y163.838 E443.7257
G0 F6000 X138.948 Y163.838
G1 F1200 X46.27 Y71.16 E448.08499
G0 F6000 X46.835 Y71.16
G1 F1200 X139.514 Y163.838 E452.4443
G0 F6000 X140.079 Y163.838
G1 F1200 X47.401 Y71.16 E456.80359
G0 F6000 X47.967 Y71.16
G1 F1200 X140.645 Y163.838 E461.16288
G0 F6000 X141.211 Y163.838
G1 F1200 X48.532 Y71.16 E465.52219
G0 F6000 X49.098 Y71.16
G1 F1200 X141.777 Y163.838 E469.8815
G0 F6000 X142.342 Y163.838
G1 F1200 X49.664 Y71.16 E474.24079
G0 F6000 X50.23 Y71.16
G1 F1200 X142.908 Y163.838 E478.60008
G0 F6000 X143.474 Y163.838
G1 F1200 X50.795 Y71.16 E482.95939
G0 F6000 X51.361 Y71.16
G1 F1200 X144.039 Y163.838 E487.31868
G0 F6000 X144.605 Y163.838
G1 F1200 X51.927 Y71.16 E491.67797
G0 F6000 X52.492 Y71.16
G1 F1200 X145.171 Y163.838 E496.03728
G0 F6000 X145.736 Y163.838
G1 F1200 X53.058 Y71.16 E500.39657
G0 F6000 X53.624 Y71.16
G1 F1200 X146.302 Y163.838 E504.75586
G0 F6000 X146.868 Y163.838
G1 F1200 X54.189 Y71.16 E509.11517
G0 F6000 X54.755 Y71.16
G1 F1200 X147.433 Y163.838 E513.47446
G0 F6000 X147.999 Y163.838
G1 F1200 X55.321 Y71.16 E517.83375
G0 F6000 X55.886 Y71.16
G1 F1200 X148.565 Y163.838 E522.19306
G0 F6000 X149.13 Y163.838
G1 F1200 X56.452 Y71.16 E526.55235
G0 F6000 X57.018 Y71.16
G1 F1200 X149.696 Y163.838 E530.91164
G0 F6000 X150.262 Y163.838
G1 F1200 X57.583 Y71.16 E535.27095
G0 F6000 X58.149 Y71.16
G1 F1200 X150.827 Y163.838 E539.63024
G0 F6000 X151.393 Y163.838
G1 F1200 X58.715 Y71.16 E543.98953
G0 F6000 X59.281 Y71.16
G1 F1200 X151.959 Y163.838 E548.34882
G0 F6000 X152.525 Y163.838
G1 F1200 X59.846 Y71.16 E552.70813
G0 F6000 X60.412 Y71.16
G1 F1200 X153.09 Y163.838 E557.06742
G0 F6000 X153.656 Y163.838
G1 F1200 X60.978 Y71.16 E561.42671
G0 F6000 X61.543 Y71.16
G1 F1200 X154.222 Y163.838 E565.78602
G0 F6000 X154.787 Y163.838
G1 F1200 X62.109 Y71.16 E570.14531
G0 F6000 X62.675 Y71.16
G1 F1200 X155.353 Y163.838 E574.5046
G0 F6000 X155.919 Y163.838
G1 F1200 X63.24 Y71.16 E578.86391
G0 F6000 X63.806 Y71.16
G1 F1200 X156.484 Y163.838 E583.2232
G0 F6000 X157.05 Y163.838
G1 F1200 X64.372 Y71.16 E587.58249
G0 F6000 X64.937 Y71.16
G1 F1200 X157.616 Y163.838 E591.94181
G0 F6000 X158.181 Y163.838
G1 F1200 X65.503 Y71.16 E596.30109
G0 F6000 X66.069 Y71.16
G1 F1200 X158.747 Y163.838 E600.66038
G0 F6000 X159.313 Y163.838
G1 F1200 X66.634 Y71.16 E605.0197
G0 F6000 X67.2 Y71.16
G1 F1200 X159.878 Y163.838 E609.37898
G0 F6000 X160.444 Y163.838
G1 F1200 X67.766 Y71.16 E613.73827
G0 F6000 X68.331 Y71.16
G1 F1200 X161.01 Y163.838 E618.09759
G0 F6000 X161.576 Y163.838
G1 F1200 X68.897 Y71.16 E622.4569
G0 F6000 X69.463 Y71.16
G1 F1200 X162.141 Y163.838 E626.81619
G0 F6000 X162.707 Y163.838
G1 F1200 X70.029 Y71.16 E631.17548
G0 F6000 X70.594 Y71.16
G1 F1200 X163.273 Y163.838 E635.53479
G0 F6000 X163.838 Y163.838
G1 F1200 X71.16 Y71.16 E639.89408
G0 F6000 X71.726 Y71.16
G1 F1200 X164.404 Y163.838 E644.25337
G0 F6000 X164.97 Y163.838
G1 F1200 X72.291 Y71.16 E648.61268
G0 F6000 X72.857 Y71.16
G1 F1200 X165.535 Y163.838 E652.97197
G0 F6000 X166.101 Y163.838
G1 F1200 X73.423 Y71.16 E657.33126
G0 F6000 X73.988 Y71.16
G1 F1200 X166.667 Y163.838 E661.69057
G0 F6000 X167.232 Y163.838
G1 F1200 X74.554 Y71.16 E666.04986
G0 F6000 X75.12 Y71.16
G1 F1200 X167.798 Y163.838 E670.40915
G0 F6000 X168.364 Y163.838
G1 F1200 X75.685 Y71.16 E674.76846
G0 F6000 X76.251 Y71.16
G1 F1200 X168.929 Y163.838 E679.12775
G0 F6000 X169.495 Y163.838
G1 F1200 X76.817 Y71.16 E683.48704
G0 F6000 X77.382 Y71.16
G1 F1200 X170.061 Y163.838 E687.84635
G0 F6000 X170.626 Y163.838
G1 F1200 X77.948 Y71.16 E692.20564
G0 F6000 X78.514 Y71.16
G1 F1200 X171.192 Y163.838 E696.56493
G0 F6000 X171.758 Y163.838
G1 F1200 X79.079 Y71.16 E700.92424
G0 F6000 X79.645 Y71.16
G1 F1200 X172.324 Y163.838 E705.28355
G0 F6000 X172.889 Y163.838
G1 F1200 X80.211 Y71.16 E709.64284
G0 F6000 X80.777 Y71.16
