;FLAVOR:Marlin
;TIME:10024
;Filament used: 6.93043m
;Layer height: 0.2
;MINX:55.335
;MINY:96.835
;MINZ:0.2
;MAXX:178.8
;MAXY:137.3
;MAXZ:40
;Generated with Cura_SteamEngine 5.2.1
M140 S60
M105
M190 S60
M104 S200
M105
M109 S200
M82 ;absolute extrusion mode
M201 X500.00 Y500.00 Z100.00 E5000.00 ;Setup machine max acceleration
M203 X500.00 Y500.00 Z10.00 E50.00 ;Setup machine max feedrate
M204 P500.00 R1000.00 T500.00 ;Setup Print/Retract/Travel acceleration
M205 X8.00 Y8.00 Z0.40 E5.00 ;Setup Jerk
M220 S100 ;Reset Feedrate
M221 S100 ;Reset Flowrate

G28 ;Home

G92 E0 ;Reset Extruder
G1 Z2.0 F3000 ;Move Z Axis up
G1 X10.1 Y20 Z0.28 F5000.0 ;Move to start position
G1 X10.1 Y200.0 Z0.28 F1500.0 E15 ;Draw the first line
G1 X10.4 Y200.0 Z0.28 F5000.0 ;Move to side a little
G1 X10.4 Y20 Z0.28 F1500.0 E30 ;Draw the second line
G92 E0 ;Reset Extruder
G1 Z2.0 F3000 ;Move Z Axis up

G92 E0
G92 E0
G1 F1500 E-6.5
;LAYER_COUNT:200
;LAYER:0
M107
;MESH:agricola-fields-tokens.stl
G0 F6000 X56.6 Y136.9 Z0.2
;TYPE:WALL-INNER
G1 F1500 E0
G1 F1200 X178.4 Y136.9 E4.05108
G1 X178.4 Y98.1 E5.34158
G1 X56.6 Y98.1 E9.39266
G1 X56.6 Y117.5 E10.03791
G1 X56.6 Y136.9 E10.68316
G0 F6000 X56.2 Y137.3
;TYPE:WALL-OUTER
G1 F1200 X178.8 Y137.3 E14.76085
G1 X178.8 Y97.7 E16.07795
G1 X56.2 Y97.7 E20.15564
G1 X56.2 Y117.5 E20.81419
G1 X56.2 Y137.3 E21.47274
G0 F6000 X56.47 Y137.03
G0 X56.7 Y136.54
G0 X56.96 Y136.54
;TYPE:SKIN
G1 F1200 X178.04 Y136.54 E25.49988
G1 X178.04 Y98.46 E26.76643
G1 X56.96 Y98.46 E30.79356
G1 X56.96 Y136.54 E32.06011
G0 F6000 X57.709 Y136.339
G1 F1200 X57.16 Y135.79 E32.08593
G0 F6000 X57.16 Y135.224
G1 F1200 X58.274 Y136.339 E32.13836
G0 F6000 X58.84 Y136.339
G1 F1200 X57.16 Y134.659 E32.21738
G0 F6000 X57.16 Y134.093
G1 F1200 X59.406 Y136.339 E32.32302
G0 F6000 X59.971 Y136.339
G1 F1200 X57.16 Y133.527 E32.45527
G0 F6000 X57.16 Y132.962
G1 F1200 X60.537 Y136.339 E32.61411
G0 F6000 X61.103 Y136.339
G1 F1200 X57.16 Y132.396 E32.79958
G0 F6000 X57.16 Y131.83
G1 F1200 X61.668 Y136.339 E33.01164
G0 F6000 X62.234 Y136.339
G1 F1200 X57.16 Y131.265 E33.25031
G0 F6000 X57.16 Y130.699
G1 F1200 X62.8 Y136.339 E33.5156
G0 F6000 X63.365 Y136.339
G1 F1200 X57.16 Y130.133 E33.80748
G0 F6000 X57.16 Y129.568
G1 F1200 X63.931 Y136.339 E34.12597
G0 F6000 X64.497 Y136.339
G1 F1200 X57.16 Y129.002 E34.47108
G0 F6000 X57.16 Y128.436
G1 F1200 X65.063 Y136.339 E34.84281
G0 F6000 X65.628 Y136.339
G1 F1200 X57.16 Y127.871 E35.24112
G0 F6000 X57.16 Y127.305
G1 F1200 X66.194 Y136.339 E35.66605
G0 F6000 X66.76 Y136.339
G1 F1200 X57.16 Y126.739 E36.11761
G0 F6000 X57.16 Y126.174
G1 F1200 X67.325 Y136.339 E36.59574
G0 F6000 X67.891 Y136.339
G1 F1200 X57.16 Y125.608 E37.10049
G0 F6000 X57.16 Y125.042
G1 F1200 X68.457 Y136.339 E37.63187
G0 F6000 X69.022 Y136.339
G1 F1200 X57.16 Y124.476 E38.18985
G0 F6000 X57.16 Y123.911
G1 F1200 X69.588 Y136.339 E38.77442
G0 F6000 X70.154 Y136.339
G1 F1200 X57.16 Y123.345 E39.38562
G0 F6000 X57.16 Y122.779
G1 F1200 X70.719 Y136.339 E40.02342
G0 F6000 X71.285 Y136.339
G1 F1200 X57.16 Y122.214 E40.68781
G0 F6000 X57.16 Y121.648
G1 F1200 X71.851 Y136.339 E41.37883
G0 F6000 X72.416 Y136.339
G1 F1200 X57.16 Y121.082 E42.09645
G0 F6000 X57.16 Y120.517
G1 F1200 X72.982 Y136.339 E42.84067
G0 F6000 X73.548 Y136.339
G1 F1200 X57.16 Y119.951 E43.61151
G0 F6000 X57.16 Y119.385
G1 F1200 X74.113 Y136.339 E44.40895
G0 F6000 X74.679 Y136.339
G1 F1200 X57.16 Y118.82 E45.23299
G0 F6000 X57.16 Y118.254
G1 F1200 X75.245 Y136.339 E46.08365
G0 F6000 X75.811 Y136.339
G1 F1200 X57.16 Y117.688 E46.96094
G0 F6000 X57.16 Y117.123
G1 F1200 X76.376 Y136.339 E47.8648
G0 F6000 X76.942 Y136.339
G1 F1200 X57.16 Y116.557 E48.79529
G0 F6000 X57.16 Y115.991
G1 F1200 X77.508 Y136.339 E49.75239
G0 F6000 X78.073 Y136.339
G1 F1200 X57.16 Y115.425 E50.7361
G0 F6000 X57.16 Y114.86
G1 F1200 X78.639 Y136.339 E51.74641
G0 F6000 X79.205 Y136.339
G1 F1200 X57.16 Y114.294 E52.78334
G0 F6000 X57.16 Y113.728
G1 F1200 X79.77 Y136.339 E53.84686
G0 F6000 X80.336 Y136.339
G1 F1200 X57.16 Y113.163 E54.93699
G0 F6000 X57.16 Y112.597
G1 F1200 X80.902 Y136.339 E56.05374
G0 F6000 X81.467 Y136.339
G1 F1200 X57.16 Y112.031 E57.19709
G0 F6000 X57.16 Y111.466
G1 F1200 X82.033 Y136.339 E58.36704
G0 F6000 X82.599 Y136.339
G1 F1200 X57.16 Y110.9 E59.56362
G0 F6000 X57.16 Y110.334
G1 F1200 X83.164 Y136.339 E60.78679
G0 F6000 X83.73 Y136.339
G1 F1200 X57.16 Y109.769 E62.03656
G0 F6000 X57.16 Y109.203
G1 F1200 X84.296 Y136.339 E63.31295
G0 F6000 X84.862 Y136.339
G1 F1200 X57.16 Y108.637 E64.61597
G0 F6000 X57.16 Y108.072
G1 F1200 X85.427 Y136.339 E65.94556
G0 F6000 X85.993 Y136.339
G1 F1200 X57.16 Y107.506 E67.30178
G0 F6000 X57.16 Y106.94
G1 F1200 X86.559 Y136.339 E68.68462
G0 F6000 X87.124 Y136.339
G1 F1200 X57.16 Y106.375 E70.09403
G0 F6000 X57.16 Y105.809
G1 F1200 X87.69 Y136.339 E71.53007
G0 F6000 X88.256 Y136.339
G1 F1200 X57.16 Y105.243 E72.99273
G0 F6000 X57.16 Y104.677
G1 F1200 X88.821 Y136.339 E74.48199
G0 F6000 X89.387 Y136.339
G1 F1200 X57.16 Y104.112 E75.99785
G0 F6000 X57.16 Y103.546
G1 F1200 X89.953 Y136.339 E77.54033
G0 F6000 X90.518 Y136.339
G1 F1200 X57.16 Y102.98 E79.10941
G0 F6000 X57.16 Y102.415
G1 F1200 X91.084 Y136.339 E80.7051
G0 F6000 X91.65 Y136.339
G1 F1200 X57.16 Y101.849 E82.3274
G0 F6000 X57.16 Y101.283
G1 F1200 X92.215 Y136.339 E83.9763
G0 F6000 X92.781 Y136.339
G1 F1200 X57.16 Y100.718 E85.6518
G0 F6000 X57.16 Y100.152
G1 F1200 X93.347 Y136.339 E87.35393
G0 F6000 X93.912 Y136.339
G1 F1200 X57.16 Y99.586 E89.08266
G0 F6000 X57.16 Y99.021
G1 F1200 X94.478 Y136.339 E90.83798
G0 F6000 X95.044 Y136.339
G1 F1200 X57.364 Y98.659 E92.61033
G0 F6000 X57.93 Y98.659
G1 F1200 X95.61 Y136.339 E94.38268
G0 F6000 X96.175 Y136.339
G1 F1200 X58.496 Y98.659 E96.15501
G0 F6000 X59.061 Y98.659
G1 F1200 X96.741 Y136.339 E97.92736
G0 F6000 X97.307 Y136.339
G1 F1200 X59.627 Y98.659 E99.69971
G0 F6000 X60.193 Y98.659
G1 F1200 X97.872 Y136.339 E101.47204
G0 F6000 X98.438 Y136.339
G1 F1200 X60.758 Y98.659 E103.24439
G0 F6000 X61.324 Y98.659
G1 F1200 X99.004 Y136.339 E105.01675
G0 F6000 X99.569 Y136.339
G1 F1200 X61.89 Y98.659 E106.78907
G0 F6000 X62.455 Y98.659
G1 F1200 X100.135 Y136.339 E108.56143
G0 F6000 X100.701 Y136.339
G1 F1200 X63.021 Y98.659 E110.33378
G0 F6000 X63.587 Y98.659
G1 F1200 X101.266 Y136.339 E112.10611
G0 F6000 X101.832 Y136.339
G1 F1200 X64.152 Y98.659 E113.87846
G0 F6000 X64.718 Y98.659
G1 F1200 X102.398 Y136.339 E115.65081
G0 F6000 X102.963 Y136.339
G1 F1200 X65.284 Y98.659 E117.42314
G0 F6000 X65.85 Y98.659
G1 F1200 X103.529 Y136.339 E119.19547
G0 F6000 X104.095 Y136.339
G1 F1200 X66.415 Y98.659 E120.96782
G0 F6000 X66.981 Y98.659
G1 F1200 X104.66 Y136.339 E122.74015
G0 F6000 X105.226 Y136.339
G1 F1200 X67.547 Y98.659 E124.51247
G0 F6000 X68.112 Y98.659
G1 F1200 X105.792 Y136.339 E126.28482
G0 F6000 X106.358 Y136.339
G1 F1200 X68.678 Y98.659 E128.05718
G0 F6000 X69.244 Y98.659
G1 F1200 X106.923 Y136.339 E129.8295
G0 F6000 X107.489 Y136.339
G1 F1200 X69.809 Y98.659 E131.60186
G0 F6000 X70.375 Y98.659
G1 F1200 X108.055 Y136.339 E133.37421
G0 F6000 X108.62 Y136.339
G1 F1200 X70.941 Y98.659 E135.14654
G0 F6000 X71.506 Y98.659
G1 F1200 X109.186 Y136.339 E136.91889
G0 F6000 X109.752 Y136.339
G1 F1200 X72.072 Y98.659 E138.69124
G0 F6000 X72.638 Y98.659
G1 F1200 X110.317 Y136.339 E140.46357
G0 F6000 X110.883 Y136.339
G1 F1200 X73.203 Y98.659 E142.23592
G0 F6000 X73.769 Y98.659
G1 F1200 X111.449 Y136.339 E144.00827
G0 F6000 X112.014 Y136.339
G1 F1200 X74.335 Y98.659 E145.7806
G0 F6000 X74.9 Y98.659
G1 F1200 X112.58 Y136.339 E147.55295
G0 F6000 X113.146 Y136.339
G1 F1200 X75.466 Y98.659 E149.3253
G0 F6000 X76.032 Y98.659
G1 F1200 X113.711 Y136.339 E151.09763
G0 F6000 X114.277 Y136.339
G1 F1200 X76.598 Y98.659 E152.86996
G0 F6000 X77.163 Y98.659
G1 F1200 X114.843 Y136.339 E154.64231
G0 F6000 X115.409 Y136.339
G1 F1200 X77.729 Y98.659 E156.41466
G0 F6000 X78.295 Y98.659
G1 F1200 X115.974 Y136.339 E158.18699
G0 F6000 X116.54 Y136.339
G1 F1200 X78.86 Y98.659 E159.95934
G0 F6000 X79.426 Y98.659
G1 F1200 X117.106 Y136.339 E161.73169
G0 F6000 X117.671 Y136.339
G1 F1200 X79.992 Y98.659 E163.50402
G0 F6000 X80.557 Y98.659
G1 F1200 X118.237 Y136.339 E165.27637
G0 F6000 X118.803 Y136.339
G1 F1200 X81.123 Y98.659 E167.04873
G0 F6000 X81.689 Y98.659
G1 F1200 X119.368 Y136.339 E168.82105
G0 F6000 X119.934 Y136.339
G1 F1200 X82.254 Y98.659 E170.59341
G0 F6000 X82.82 Y98.659
G1 F1200 X120.5 Y136.339 E172.36576
G0 F6000 X121.065 Y136.339
G1 F1200 X83.386 Y98.659 E174.13809
G0 F6000 X83.951 Y98.659
G1 F1200 X121.631 Y136.339 E175.91044
G0 F6000 X122.197 Y136.339
G1 F1200 X84.517 Y98.659 E177.68279
G0 F6000 X85.083 Y98.659
G1 F1200 X122.762 Y136.339 E179.45512
G0 F6000 X123.328 Y136.339
G1 F1200 X85.649 Y98.659 E181.22744
G0 F6000 X86.214 Y98.659
G1 F1200 X123.894 Y136.339 E182.9998
G0 F6000 X124.459 Y136.339
G1 F1200 X86.78 Y98.659 E184.77212
G0 F6000 X87.346 Y98.659
G1 F1200 X125.025 Y136.339 E186.54445
G0 F6000 X125.591 Y136.339
G1 F1200 X87.911 Y98.659 E188.3168
G0 F6000 X88.477 Y98.659
G1 F1200 X126.157 Y136.339 E190.08916
G0 F6000 X126.722 Y136.339
G1 F1200 X89.043 Y98.659 E191.86148
G0 F6000 X89.608 Y98.659
G1 F1200 X127.288 Y136.339 E193.63384
G0 F6000 X127.854 Y136.339
G1 F1200 X90.174 Y98.659 E195.40619
G0 F6000 X90.74 Y98.659
G1 F1200 X128.419 Y136.339 E197.17852
G0 F6000 X128.985 Y136.339
G1 F1200 X91.305 Y98.659 E198.95087
G0 F6000 X91.871 Y98.659
G1 F1200 X129.551 Y136.339 E200.72322
G0 F6000 X130.116 Y136.339
G1 F1200 X92.437 Y98.659 E202.49555
G0 F6000 X93.002 Y98.659
G1 F1200 X130.682 Y136.339 E204.2679
G0 F6000 X131.248 Y136.339
G1 F1200 X93.568 Y98.659 E206.04025
G0 F6000 X94.134 Y98.659
G1 F1200 X131.813 Y136.339 E207.81258
G0 F6000 X132.379 Y136.339
G1 F1200 X94.699 Y98.659 E209.58493
G0 F6000 X95.265 Y98.659
G1 F1200 X132.945 Y136.339 E211.35728
G0 F6000 X133.51 Y136.339
G1 F1200 X95.831 Y98.659 E213.12961
G0 F6000 X96.397 Y98.659
G1 F1200 X134.076 Y136.339 E214.90194
G0 F6000 X134.642 Y136.339
G1 F1200 X96.962 Y98.659 E216.67429
G0 F6000 X97.528 Y98.659
G1 F1200 X135.208 Y136.339 E218.44664
G0 F6000 X135.773 Y136.339
G1 F1200 X98.094 Y98.659 E220.21897
G0 F6000 X98.659 Y98.659
G1 F1200 X136.339 Y136.339 E221.99132
G0 F6000 X136.905 Y136.339
G1 F1200 X99.225 Y98.659 E223.76367
G0 F6000 X99.791 Y98.659
G1 F1200 X137.47 Y136.339 E225.536
G0 F6000 X138.036 Y136.339
G1 F1200 X100.356 Y98.659 E227.30835
G0 F6000 X100.922 Y98.659
G1 F1200 X138.602 Y136.339 E229.0807
G0 F6000 X139.167 Y136.339
G1 F1200 X101.488 Y98.659 E230.85303
G0 F6000 X102.053 Y98.659
G1 F1200 X139.733 Y136.339 E232.62538
G0 F6000 X140.299 Y136.339
G1 F1200 X102.619 Y98.659 E234.39774
G0 F6000 X103.185 Y98.659
G1 F1200 X140.864 Y136.339 E236.17006
G0 F6000 X141.43 Y136.339
G1 F1200 X103.75 Y98.659 E237.94242
G0 F6000 X104.316 Y98.659
G1 F1200 X141.996 Y136.339 E239.71477
G0 F6000 X142.561 Y136.339
G1 F1200 X104.882 Y98.659 E241.4871
G0 F6000 X105.448 Y98.659
G1 F1200 X143.127 Y136.339 E243.25942
G0 F6000 X143.693 Y136.339
G1 F1200 X106.013 Y98.659 E245.03178
G0 F6000 X106.579 Y98.659
G1 F1200 X144.258 Y136.339 E246.8041
G0 F6000 X144.824 Y136.339
G1 F1200 X107.145 Y98.659 E248.57643
G0 F6000 X107.71 Y98.659
G1 F1200 X145.39 Y136.339 E250.34878
G0 F6000 X145.956 Y136.339
G1 F1200 X108.276 Y98.659 E252.12114
G0 F6000 X108.842 Y98.659
G1 F1200 X146.521 Y136.339 E253.89346
G0 F6000 X147.087 Y136.339
G1 F1200 X109.407 Y98.659 E255.66582
G0 F6000 X109.973 Y98.659
G1 F1200 X147.653 Y136.339 E257.43817
G0 F6000 X148.218 Y136.339
G1 F1200 X110.539 Y98.659 E259.2105
G0 F6000 X111.104 Y98.659
G1 F1200 X148.784 Y136.339 E260.98285
G0 F6000 X149.35 Y136.339
G1 F1200 X111.67 Y98.659 E262.7552
G0 F6000 X112.236 Y98.659
G1 F1200 X149.915 Y136.339 E264.52753
G0 F6000 X150.481 Y136.339
G1 F1200 X112.801 Y98.659 E266.29988
G0 F6000 X113.367 Y98.659
G1 F1200 X151.047 Y136.339 E268.07223
G0 F6000 X151.612 Y136.339
G1 F1200 X113.933 Y98.659 E269.84456
G0 F6000 X114.498 Y98.659
G1 F1200 X152.178 Y136.339 E271.61691
G0 F6000 X152.744 Y136.339
G1 F1200 X115.064 Y98.659 E273.38926
G0 F6000 X115.63 Y98.659
G1 F1200 X153.309 Y136.339 E275.16159
G0 F6000 X153.875 Y136.339
G1 F1200 X116.196 Y98.659 E276.93392
G0 F6000 X116.761 Y98.659
G1 F1200 X154.441 Y136.339 E278.70627
G0 F6000 X155.006 Y136.339
G1 F1200 X117.327 Y98.659 E280.4786
G0 F6000 X117.893 Y98.66
G1 F1200 X155.572 Y136.339 E282.2509
G0 F6000 X156.138 Y136.339
G1 F1200 X118.459 Y98.66 E284.02321
G0 F6000 X119.025 Y98.66
G1 F1200 X156.704 Y136.339 E285.79551
G0 F6000 X157.269 Y136.339
G1 F1200 X119.59 Y98.66 E287.56782
G0 F6000 X120.156 Y98.66
G1 F1200 X157.835 Y136.339 E289.34012
G0 F6000 X158.401 Y136.339
G1 F1200 X120.722 Y98.66 E291.11243
G0 F6000 X121.287 Y98.66
G1 F1200 X158.966 Y136.339 E292.88473
G0 F6000 X159.532 Y136.339
G1 F1200 X121.853 Y98.66 E294.65703
G0 F6000 X122.419 Y98.66
G1 F1200 X160.098 Y136.339 E296.42934
G0 F6000 X160.663 Y136.339
G1 F1200 X122.984 Y98.66 E298.20164
G0 F6000 X123.55 Y98.66
G1 F1200 X161.229 Y136.339 E299.97395
G0 F6000 X161.795 Y136.339
G1 F1200 X124.116 Y98.66 E301.74625
G0 F6000 X124.682 Y98.66
G1 F1200 X162.36 Y136.339 E303.51853
G0 F6000 X162.926 Y136.339
G1 F1200 X125.247 Y98.66 E305.29084
G0 F6000 X125.813 Y98.66
G1 F1200 X163.492 Y136.339 E307.06314
G0 F6000 X164.057 Y136.339
G1 F1200 X126.379 Y98.66 E308.83542
G0 F6000 X126.944 Y98.66
G1 F1200 X164.623 Y136.339 E310.60773
G0 F6000 X165.189 Y136.339
G1 F1200 X127.51 Y98.66 E312.38003
G0 F6000 X128.076 Y98.66
G1 F1200 X165.755 Y136.339 E314.15234
G0 F6000 X166.32 Y136.339
G1 F1200 X128.641 Y98.66 E315.92464
G0 F6000 X129.207 Y98.66
G1 F1200 X166.886 Y136.339 E317.69695
G0 F6000 X167.452 Y136.339
G1 F1200 X129.773 Y98.66 E319.46925
G0 F6000 X130.338 Y98.66
G1 F1200 X168.017 Y136.339 E321.24156
G0 F6000 X168.583 Y136.339
G1 F1200 X130.904 Y98.66 E323.01386
G0 F6000 X131.47 Y98.66
G1 F1200 X169.149 Y136.339 E324.78617
G0 F6000 X169.714 Y136.339
G1 F1200 X132.035 Y98.66 E326.55847
G0 F6000 X132.601 Y98.66
G1 F1200 X170.28 Y136.339 E328.33078
G0 F6000 X170.846 Y136.339
G1 F1200 X133.167 Y98.66 E330.10308
G0 F6000 X133.732 Y98.66
G1 F1200 X171.411 Y136.339 E331.87539
G0 F6000 X171.977 Y136.339
G1 F1200 X134.298 Y98.66 E333.64769
G0 F6000 X134.864 Y98.66
G1 F1200 X172.543 Y136.339 E335.41999
G0 F6000 X173.108 Y136.339
G1 F1200 X135.43 Y98.66 E337.19228
G0 F6000 X135.995 Y98.66
G1 F1200 X173.674 Y136.339 E338.96458
G0 F6000 X174.24 Y136.339
G1 F1200 X136.561 Y98.66 E340.73688
G0 F6000 X137.127 Y98.66
G1 F1200 X174.805 Y136.339 E342.50917
G0 F6000 X175.371 Y136.339
G1 F1200 X137.692 Y98.66 E344.28147
G0 F6000 X138.258 Y98.66
G1 F1200 X175.937 Y136.339 E346.05378
G0 F6000 X176.503 Y136.339
G1 F1200 X138.824 Y98.66 E347.82608
G0 F6000 X139.389 Y98.66
G1 F1200 X177.068 Y136.339 E349.59838
G0 F6000 X177.634 Y136.339
G1 F1200 X139.955 Y98.66 E351.37069
G0 F6000 X140.521 Y98.66
G1 F1200 X177.839 Y135.978 E353.12601
G0 F6000 X177.839 Y135.413
G1 F1200 X141.086 Y98.66 E354.85476
G0 F6000 X141.652 Y98.66
G1 F1200 X177.839 Y134.847 E356.55689
G0 F6000 X177.839 Y134.281
G1 F1200 X142.218 Y98.66 E358.23239
G0 F6000 X142.783 Y98.66
G1 F1200 X177.839 Y133.716 E359.88132
G0 F6000 X177.839 Y133.15
G1 F1200 X143.349 Y98.66 E361.50362
G0 F6000 X143.915 Y98.66
G1 F1200 X177.839 Y132.584 E363.0993
G0 F6000 X177.839 Y132.018
G1 F1200 X144.481 Y98.66 E364.66836
G0 F6000 X145.046 Y98.66
G1 F1200 X177.839 Y131.453 E366.21084
G0 F6000 X177.839 Y130.887
G1 F1200 X145.612 Y98.66 E367.7267
G0 F6000 X146.178 Y98.66
G1 F1200 X177.839 Y130.321 E369.21594
G0 F6000 X177.839 Y129.756
G1 F1200 X146.743 Y98.66 E370.6786
G0 F6000 X147.309 Y98.66
G1 F1200 X177.839 Y129.19 E372.11464
G0 F6000 X177.839 Y128.624
G1 F1200 X147.875 Y98.66 E373.52405
G0 F6000 X148.44 Y98.66
G1 F1200 X177.839 Y128.059 E374.90689
G0 F6000 X177.839 Y127.493
G1 F1200 X149.006 Y98.66 E376.2631
G0 F6000 X149.572 Y98.66
G1 F1200 X177.839 Y126.927 E377.5927
G0 F6000 X177.839 Y126.362
G1 F1200 X150.137 Y98.66 E378.89572
G0 F6000 X150.703 Y98.66
G1 F1200 X177.839 Y125.796 E380.17211
G0 F6000 X177.839 Y125.23
