;FLAVOR:Marlin
;TIME:18470
;Filament used: 13.5726m
;Layer height: 0.2
;MINX:7.835
;MINY:97.7
;MINZ:0.2
;MAXX:226.3
;MAXY:137.3
;MAXZ:40
;Generated with Cura_SteamEngine 5.2.1
M140 S60
M105
M190 S60
M104 S200
M105
M109 S200
M82 ;absolute extrusion mode
M201 X500.00 Y500.00 Z100.00 E5000.00 ;Setup machine max acceleration
M203 X500.00 Y500.00 Z10.00 E50.00 ;Setup machine max feedrate
M204 P500.00 R1000.00 T500.00 ;Setup Print/Retract/Travel acceleration
M205 X8.00 Y8.00 Z0.40 E5.00 ;Setup Jerk
M220 S100 ;Reset Feedrate
M221 S100 ;Reset Flowrate

G28 ;Home

G92 E0 ;Reset Extruder
G1 Z2.0 F3000 ;Move Z Axis up
G1 X10.1 Y20 Z0.28 F5000.0 ;Move to start position
G1 X10.1 Y200.0 Z0.28 F1500.0 E15 ;Draw the first line
G1 X10.4 Y200.0 Z0.28 F5000.0 ;Move to side a little
G1 X10.4 Y20 Z0.28 F1500.0 E30 ;Draw the second line
G92 E0 ;Reset Extruder
G1 Z2.0 F3000 ;Move Z Axis up

G92 E0
G92 E0
G1 F1500 E-6.5
;LAYER_COUNT:200
;LAYER:0
M107
;MESH:agricola-beggar-clay-moor.stl
G0 F6000 X9.1 Y136.9 Z0.2
;TYPE:WALL-INNER
G1 F1500 E0
G1 F1200 X225.9 Y136.9 E7.2108
G1 X225.9 Y98.1 E8.50129
G1 X9.1 Y98.1 E15.71209
G1 X9.1 Y136.9 E17.00258
G0 F6000 X8.7 Y137.3
;TYPE:WALL-OUTER
G1 F1200 X226.3 Y137.3 E24.23999
G1 X226.3 Y97.7 E25.55709
G1 X8.7 Y97.7 E32.79449
G1 X8.7 Y137.3 E34.11159
G0 F6000 X8.97 Y137.03
G0 X9.2 Y136.54
G0 X9.46 Y136.54
;TYPE:SKIN
G1 F1200 X225.54 Y136.54 E41.29844
G1 X225.54 Y98.46 E42.56499
G1 X9.46 Y98.46 E49.75184
G1 X9.46 Y136.54 E51.01839
G0 F6000 X10.191 Y136.339
G1 F1200 X9.659 Y135.807 E51.04341
G0 F6000 X9.659 Y135.241
G1 F1200 X10.757 Y136.339 E51.09506
G0 F6000 X11.322 Y136.339
G1 F1200 X9.659 Y134.676 E51.17328
G0 F6000 X9.659 Y134.11
G1 F1200 X11.888 Y136.339 E51.27812
G0 F6000 X12.454 Y136.339
G1 F1200 X9.659 Y133.544 E51.40959
G0 F6000 X9.659 Y132.979
G1 F1200 X13.019 Y136.339 E51.56764
G0 F6000 X13.585 Y136.339
G1 F1200 X9.659 Y132.413 E51.7523
G0 F6000 X9.659 Y131.847
G1 F1200 X14.151 Y136.339 E51.96359
G0 F6000 X14.717 Y136.339
G1 F1200 X9.659 Y131.282 E52.20148
G0 F6000 X9.659 Y130.716
G1 F1200 X15.282 Y136.339 E52.46597
G0 F6000 X15.848 Y136.339
G1 F1200 X9.659 Y130.15 E52.75708
G0 F6000 X9.659 Y129.585
G1 F1200 X16.414 Y136.339 E53.07479
G0 F6000 X16.979 Y136.339
G1 F1200 X9.659 Y129.019 E53.4191
G0 F6000 X9.659 Y128.453
G1 F1200 X17.545 Y136.339 E53.79004
G0 F6000 X18.111 Y136.339
G1 F1200 X9.659 Y127.888 E54.18757
G0 F6000 X9.659 Y127.322
G1 F1200 X18.676 Y136.339 E54.6117
G0 F6000 X19.242 Y136.339
G1 F1200 X9.659 Y126.756 E55.06246
G0 F6000 X9.659 Y126.19
G1 F1200 X19.808 Y136.339 E55.53984
G0 F6000 X20.373 Y136.339
G1 F1200 X9.659 Y125.625 E56.04379
G0 F6000 X9.659 Y125.059
G1 F1200 X20.939 Y136.339 E56.57437
G0 F6000 X21.505 Y136.339
G1 F1200 X9.659 Y124.493 E57.13157
G0 F6000 X9.659 Y123.928
G1 F1200 X22.07 Y136.339 E57.71534
G0 F6000 X22.636 Y136.339
G1 F1200 X9.659 Y123.362 E58.32574
G0 F6000 X9.659 Y122.796
G1 F1200 X23.202 Y136.339 E58.96276
G0 F6000 X23.767 Y136.339
G1 F1200 X9.659 Y122.231 E59.62636
G0 F6000 X9.659 Y121.665
G1 F1200 X24.333 Y136.339 E60.31658
G0 F6000 X24.899 Y136.339
G1 F1200 X9.659 Y121.099 E61.03342
G0 F6000 X9.659 Y120.534
G1 F1200 X25.465 Y136.339 E61.77686
G0 F6000 X26.03 Y136.339
G1 F1200 X9.659 Y119.968 E62.5469
G0 F6000 X9.659 Y119.402
G1 F1200 X26.596 Y136.339 E63.34357
G0 F6000 X27.162 Y136.339
G1 F1200 X9.659 Y118.837 E64.16683
G0 F6000 X9.659 Y118.271
G1 F1200 X27.727 Y136.339 E65.0167
G0 F6000 X28.293 Y136.339
G1 F1200 X9.659 Y117.705 E65.89318
G0 F6000 X9.659 Y117.14
G1 F1200 X28.859 Y136.339 E66.79627
G0 F6000 X29.424 Y136.339
G1 F1200 X9.659 Y116.574 E67.72595
G0 F6000 X9.659 Y116.008
G1 F1200 X29.99 Y136.339 E68.68226
G0 F6000 X30.556 Y136.339
G1 F1200 X9.659 Y115.442 E69.66519
G0 F6000 X9.659 Y114.877
G1 F1200 X31.121 Y136.339 E70.6747
G0 F6000 X31.687 Y136.339
G1 F1200 X9.659 Y114.311 E71.71083
G0 F6000 X9.659 Y113.745
G1 F1200 X32.253 Y136.339 E72.77358
G0 F6000 X32.818 Y136.339
G1 F1200 X9.659 Y113.18 E73.86291
G0 F6000 X9.659 Y112.614
G1 F1200 X33.384 Y136.339 E74.97886
G0 F6000 X33.95 Y136.339
G1 F1200 X9.659 Y112.048 E76.12143
G0 F6000 X9.659 Y111.483
G1 F1200 X34.516 Y136.339 E77.29061
G0 F6000 X35.081 Y136.339
G1 F1200 X9.659 Y110.917 E78.48638
G0 F6000 X9.659 Y110.351
G1 F1200 X35.647 Y136.339 E79.70878
G0 F6000 X36.213 Y136.339
G1 F1200 X9.659 Y109.786 E80.95777
G0 F6000 X9.659 Y109.22
G1 F1200 X36.778 Y136.339 E82.23337
G0 F6000 X37.344 Y136.339
G1 F1200 X9.659 Y108.654 E83.53558
G0 F6000 X9.659 Y108.089
G1 F1200 X37.91 Y136.339 E84.8644
G0 F6000 X38.475 Y136.339
G1 F1200 X9.659 Y107.523 E86.21982
G0 F6000 X9.659 Y106.957
G1 F1200 X39.041 Y136.339 E87.60186
G0 F6000 X39.607 Y136.339
G1 F1200 X9.659 Y106.391 E89.01052
G0 F6000 X9.659 Y105.826
G1 F1200 X40.172 Y136.339 E90.44576
G0 F6000 X40.738 Y136.339
G1 F1200 X9.659 Y105.26 E91.90762
G0 F6000 X9.659 Y104.694
G1 F1200 X41.304 Y136.339 E93.3961
G0 F6000 X41.869 Y136.339
G1 F1200 X9.659 Y104.129 E94.91116
G0 F6000 X9.659 Y103.563
G1 F1200 X42.435 Y136.339 E96.45284
G0 F6000 X43.001 Y136.339
G1 F1200 X9.659 Y102.997 E98.02115
G0 F6000 X9.659 Y102.432
G1 F1200 X43.566 Y136.339 E99.61603
G0 F6000 X44.132 Y136.339
G1 F1200 X9.659 Y101.866 E101.23753
G0 F6000 X9.659 Y101.3
G1 F1200 X44.698 Y136.339 E102.88566
G0 F6000 X45.264 Y136.339
G1 F1200 X9.659 Y100.735 E104.56039
G0 F6000 X9.659 Y100.169
G1 F1200 X45.829 Y136.339 E106.26171
G0 F6000 X46.395 Y136.339
G1 F1200 X9.659 Y99.603 E107.98966
G0 F6000 X9.659 Y99.038
G1 F1200 X46.961 Y136.339 E109.74421
G0 F6000 X47.526 Y136.339
G1 F1200 X9.847 Y98.659 E111.51654
G0 F6000 X10.412 Y98.659
G1 F1200 X48.092 Y136.339 E113.28889
G0 F6000 X48.658 Y136.339
G1 F1200 X10.978 Y98.659 E115.06124
G0 F6000 X11.544 Y98.659
G1 F1200 X49.223 Y136.339 E116.83357
G0 F6000 X49.789 Y136.339
G1 F1200 X12.109 Y98.659 E118.60592
G0 F6000 X12.675 Y98.659
G1 F1200 X50.355 Y136.339 E120.37827
G0 F6000 X50.92 Y136.339
G1 F1200 X13.241 Y98.659 E122.1506
G0 F6000 X13.806 Y98.659
G1 F1200 X51.486 Y136.339 E123.92295
G0 F6000 X52.052 Y136.339
G1 F1200 X14.372 Y98.659 E125.6953
G0 F6000 X14.938 Y98.659
G1 F1200 X52.617 Y136.339 E127.46763
G0 F6000 X53.183 Y136.339
G1 F1200 X15.504 Y98.659 E129.23996
G0 F6000 X16.069 Y98.659
G1 F1200 X53.749 Y136.339 E131.01231
G0 F6000 X54.314 Y136.339
G1 F1200 X16.635 Y98.659 E132.78464
G0 F6000 X17.201 Y98.659
G1 F1200 X54.88 Y136.339 E134.55697
G0 F6000 X55.446 Y136.339
G1 F1200 X17.766 Y98.659 E136.32932
G0 F6000 X18.332 Y98.659
G1 F1200 X56.012 Y136.339 E138.10167
G0 F6000 X56.577 Y136.339
G1 F1200 X18.898 Y98.659 E139.874
G0 F6000 X19.463 Y98.659
G1 F1200 X57.143 Y136.339 E141.64635
G0 F6000 X57.709 Y136.339
G1 F1200 X20.029 Y98.659 E143.4187
G0 F6000 X20.595 Y98.659
G1 F1200 X58.274 Y136.339 E145.19103
G0 F6000 X58.84 Y136.339
G1 F1200 X21.16 Y98.659 E146.96338
G0 F6000 X21.726 Y98.659
G1 F1200 X59.406 Y136.339 E148.73574
G0 F6000 X59.971 Y136.339
G1 F1200 X22.292 Y98.659 E150.50806
G0 F6000 X22.857 Y98.659
G1 F1200 X60.537 Y136.339 E152.28042
G0 F6000 X61.103 Y136.339
G1 F1200 X23.423 Y98.659 E154.05277
G0 F6000 X23.989 Y98.659
G1 F1200 X61.668 Y136.339 E155.8251
G0 F6000 X62.234 Y136.339
G1 F1200 X24.554 Y98.659 E157.59745
G0 F6000 X25.12 Y98.659
G1 F1200 X62.8 Y136.339 E159.3698
G0 F6000 X63.365 Y136.339
G1 F1200 X25.686 Y98.659 E161.14213
G0 F6000 X26.252 Y98.659
G1 F1200 X63.931 Y136.339 E162.91445
G0 F6000 X64.497 Y136.339
G1 F1200 X26.817 Y98.659 E164.68681
G0 F6000 X27.383 Y98.659
G1 F1200 X65.063 Y136.339 E166.45916
G0 F6000 X65.628 Y136.339
G1 F1200 X27.949 Y98.659 E168.23149
G0 F6000 X28.514 Y98.659
G1 F1200 X66.194 Y136.339 E170.00384
G0 F6000 X66.76 Y136.339
G1 F1200 X29.08 Y98.659 E171.77619
G0 F6000 X29.646 Y98.659
G1 F1200 X67.325 Y136.339 E173.54852
G0 F6000 X67.891 Y136.339
G1 F1200 X30.211 Y98.659 E175.32087
G0 F6000 X30.777 Y98.659
G1 F1200 X68.457 Y136.339 E177.09322
G0 F6000 X69.022 Y136.339
G1 F1200 X31.343 Y98.659 E178.86555
G0 F6000 X31.908 Y98.659
G1 F1200 X69.588 Y136.339 E180.6379
G0 F6000 X70.154 Y136.339
G1 F1200 X32.474 Y98.659 E182.41025
G0 F6000 X33.04 Y98.659
G1 F1200 X70.719 Y136.339 E184.18258
G0 F6000 X71.285 Y136.339
G1 F1200 X33.605 Y98.659 E185.95493
G0 F6000 X34.171 Y98.659
G1 F1200 X71.851 Y136.339 E187.72728
G0 F6000 X72.416 Y136.339
G1 F1200 X34.737 Y98.659 E189.49961
G0 F6000 X35.303 Y98.659
G1 F1200 X72.982 Y136.339 E191.27194
G0 F6000 X73.548 Y136.339
G1 F1200 X35.868 Y98.659 E193.04429
G0 F6000 X36.434 Y98.659
G1 F1200 X74.113 Y136.339 E194.81662
G0 F6000 X74.679 Y136.339
G1 F1200 X37 Y98.659 E196.58895
G0 F6000 X37.565 Y98.659
G1 F1200 X75.245 Y136.339 E198.3613
G0 F6000 X75.811 Y136.339
G1 F1200 X38.131 Y98.659 E200.13365
G0 F6000 X38.697 Y98.659
G1 F1200 X76.376 Y136.339 E201.90598
G0 F6000 X76.942 Y136.339
G1 F1200 X39.262 Y98.659 E203.67833
G0 F6000 X39.828 Y98.659
G1 F1200 X77.508 Y136.339 E205.45068
G0 F6000 X78.073 Y136.339
G1 F1200 X40.394 Y98.659 E207.22301
G0 F6000 X40.959 Y98.659
G1 F1200 X78.639 Y136.339 E208.99536
G0 F6000 X79.205 Y136.339
G1 F1200 X41.525 Y98.659 E210.76771
G0 F6000 X42.091 Y98.659
G1 F1200 X79.77 Y136.339 E212.54004
G0 F6000 X80.336 Y136.339
G1 F1200 X42.656 Y98.659 E214.31239
G0 F6000 X43.222 Y98.659
G1 F1200 X80.902 Y136.339 E216.08475
G0 F6000 X81.467 Y136.339
G1 F1200 X43.788 Y98.659 E217.85707
G0 F6000 X44.353 Y98.659
G1 F1200 X82.033 Y136.339 E219.62943
G0 F6000 X82.599 Y136.339
G1 F1200 X44.919 Y98.659 E221.40178
G0 F6000 X45.485 Y98.659
G1 F1200 X83.164 Y136.339 E223.17411
G0 F6000 X83.73 Y136.339
G1 F1200 X46.051 Y98.659 E224.94643
G0 F6000 X46.616 Y98.659
G1 F1200 X84.296 Y136.339 E226.71879
G0 F6000 X84.862 Y136.339
G1 F1200 X47.182 Y98.659 E228.49114
G0 F6000 X47.748 Y98.659
G1 F1200 X85.427 Y136.339 E230.26347
G0 F6000 X85.993 Y136.339
G1 F1200 X48.313 Y98.659 E232.03582
G0 F6000 X48.879 Y98.659
G1 F1200 X86.559 Y136.339 E233.80817
G0 F6000 X87.124 Y136.339
G1 F1200 X49.445 Y98.659 E235.5805
G0 F6000 X50.01 Y98.659
G1 F1200 X87.69 Y136.339 E237.35285
G0 F6000 X88.256 Y136.339
G1 F1200 X50.576 Y98.659 E239.1252
G0 F6000 X51.142 Y98.659
G1 F1200 X88.821 Y136.339 E240.89753
G0 F6000 X89.387 Y136.339
G1 F1200 X51.707 Y98.659 E242.66988
G0 F6000 X52.273 Y98.659
G1 F1200 X89.953 Y136.339 E244.44223
G0 F6000 X90.518 Y136.339
G1 F1200 X52.839 Y98.659 E246.21456
G0 F6000 X53.404 Y98.659
G1 F1200 X91.084 Y136.339 E247.98691
G0 F6000 X91.65 Y136.339
G1 F1200 X53.97 Y98.659 E249.75926
G0 F6000 X54.536 Y98.659
G1 F1200 X92.215 Y136.339 E251.53159
G0 F6000 X92.781 Y136.339
G1 F1200 X55.102 Y98.659 E253.30392
G0 F6000 X55.667 Y98.659
G1 F1200 X93.347 Y136.339 E255.07627
G0 F6000 X93.912 Y136.339
G1 F1200 X56.233 Y98.659 E256.8486
G0 F6000 X56.799 Y98.659
G1 F1200 X94.478 Y136.339 E258.62093
G0 F6000 X95.044 Y136.339
G1 F1200 X57.364 Y98.659 E260.39328
G0 F6000 X57.93 Y98.659
G1 F1200 X95.61 Y136.339 E262.16563
G0 F6000 X96.175 Y136.339
G1 F1200 X58.496 Y98.659 E263.93796
G0 F6000 X59.061 Y98.659
G1 F1200 X96.741 Y136.339 E265.71031
G0 F6000 X97.307 Y136.339
G1 F1200 X59.627 Y98.659 E267.48266
G0 F6000 X60.193 Y98.659
G1 F1200 X97.872 Y136.339 E269.25499
G0 F6000 X98.438 Y136.339
G1 F1200 X60.758 Y98.659 E271.02734
G0 F6000 X61.324 Y98.659
G1 F1200 X99.004 Y136.339 E272.79969
G0 F6000 X99.569 Y136.339
G1 F1200 X61.89 Y98.659 E274.57202
G0 F6000 X62.455 Y98.659
G1 F1200 X100.135 Y136.339 E276.34437
G0 F6000 X100.701 Y136.339
G1 F1200 X63.021 Y98.659 E278.11673
G0 F6000 X63.587 Y98.659
G1 F1200 X101.266 Y136.339 E279.88905
G0 F6000 X101.832 Y136.339
G1 F1200 X64.152 Y98.659 E281.66141
G0 F6000 X64.718 Y98.659
G1 F1200 X102.398 Y136.339 E283.43376
G0 F6000 X102.963 Y136.339
G1 F1200 X65.284 Y98.659 E285.20609
G0 F6000 X65.85 Y98.659
G1 F1200 X103.529 Y136.339 E286.97841
G0 F6000 X104.095 Y136.339
G1 F1200 X66.415 Y98.659 E288.75077
G0 F6000 X66.981 Y98.659
G1 F1200 X104.66 Y136.339 E290.52309
G0 F6000 X105.226 Y136.339
G1 F1200 X67.547 Y98.659 E292.29542
G0 F6000 X68.112 Y98.659
G1 F1200 X105.792 Y136.339 E294.06777
G0 F6000 X106.358 Y136.339
G1 F1200 X68.678 Y98.659 E295.84012
G0 F6000 X69.244 Y98.659
G1 F1200 X106.923 Y136.339 E297.61245
G0 F6000 X107.489 Y136.339
G1 F1200 X69.809 Y98.659 E299.3848
G0 F6000 X70.375 Y98.659
G1 F1200 X108.055 Y136.339 E301.15716
G0 F6000 X108.62 Y136.339
G1 F1200 X70.941 Y98.659 E302.92948
G0 F6000 X71.506 Y98.659
G1 F1200 X109.186 Y136.339 E304.70184
G0 F6000 X109.752 Y136.339
G1 F1200 X72.072 Y98.659 E306.47419
G0 F6000 X72.638 Y98.659
G1 F1200 X110.317 Y136.339 E308.24652
G0 F6000 X110.883 Y136.339
G1 F1200 X73.203 Y98.659 E310.01887
G0 F6000 X73.769 Y98.659
G1 F1200 X111.449 Y136.339 E311.79122
G0 F6000 X112.014 Y136.339
G1 F1200 X74.335 Y98.659 E313.56355
G0 F6000 X74.9 Y98.659
G1 F1200 X112.58 Y136.339 E315.3359
G0 F6000 X113.146 Y136.339
G1 F1200 X75.466 Y98.659 E317.10825
G0 F6000 X76.032 Y98.659
G1 F1200 X113.711 Y136.339 E318.88058
G0 F6000 X114.277 Y136.339
G1 F1200 X76.598 Y98.659 E320.65291
G0 F6000 X77.163 Y98.659
G1 F1200 X114.843 Y136.339 E322.42526
G0 F6000 X115.409 Y136.339
G1 F1200 X77.729 Y98.659 E324.19761
G0 F6000 X78.295 Y98.659
G1 F1200 X115.974 Y136.339 E325.96994
G0 F6000 X116.54 Y136.339
G1 F1200 X78.86 Y98.659 E327.74229
G0 F6000 X79.426 Y98.659
G1 F1200 X117.106 Y136.339 E329.51464
G0 F6000 X117.671 Y136.339
G1 F1200 X79.992 Y98.659 E331.28697
G0 F6000 X80.557 Y98.659
G1 F1200 X118.237 Y136.339 E333.05932
G0 F6000 X118.803 Y136.339
G1 F1200 X81.123 Y98.659 E334.83167
G0 F6000 X81.689 Y98.659
G1 F1200 X119.368 Y136.339 E336.604
G0 F6000 X119.934 Y136.339
G1 F1200 X82.254 Y98.659 E338.37635
G0 F6000 X82.82 Y98.659
G1 F1200 X120.5 Y136.339 E340.14871
G0 F6000 X121.065 Y136.339
G1 F1200 X83.386 Y98.659 E341.92103
G0 F6000 X83.951 Y98.659
G1 F1200 X121.631 Y136.339 E343.69338
G0 F6000 X122.197 Y136.339
G1 F1200 X84.517 Y98.659 E345.46574
G0 F6000 X85.083 Y98.659
G1 F1200 X122.762 Y136.339 E347.23806
G0 F6000 X123.328 Y136.339
G1 F1200 X85.649 Y98.659 E349.01039
G0 F6000 X86.214 Y98.659
G1 F1200 X123.894 Y136.339 E350.78274
G0 F6000 X124.459 Y136.339
G1 F1200 X86.78 Y98.659 E352.55507
G0 F6000 X87.346 Y98.659
G1 F1200 X125.025 Y136.339 E354.3274
G0 F6000 X125.591 Y136.339
G1 F1200 X87.911 Y98.659 E356.09975
G0 F6000 X88.477 Y98.659
G1 F1200 X126.157 Y136.339 E357.8721
G0 F6000 X126.722 Y136.339
G1 F1200 X89.043 Y98.659 E359.64443
G0 F6000 X89.608 Y98.659
G1 F1200 X127.288 Y136.339 E361.41678
G0 F6000 X127.854 Y136.339
G1 F1200 X90.174 Y98.659 E363.18914
G0 F6000 X90.74 Y98.659
G1 F1200 X128.419 Y136.339 E364.96146
G0 F6000 X128.985 Y136.339
G1 F1200 X91.305 Y98.659 E366.73382
G0 F6000 X91.871 Y98.659
G1 F1200 X129.551 Y136.339 E368.50617
G0 F6000 X130.116 Y136.339
G1 F1200 X92.437 Y98.659 E370.2785
G0 F6000 X93.002 Y98.659
G1 F1200 X130.682 Y136.339 E372.05085
G0 F6000 X131.248 Y136.339
G1 F1200 X93.568 Y98.659 E373.8232
G0 F6000 X94.134 Y98.659
G1 F1200 X131.813 Y136.339 E375.59553
G0 F6000 X132.379 Y136.339
G1 F1200 X94.699 Y98.659 E377.36788
G0 F6000 X95.265 Y98.659
G1 F1200 X132.945 Y136.339 E379.14023
G0 F6000 X133.51 Y136.339
G1 F1200 X95.831 Y98.659 E380.91256
G0 F6000 X96.397 Y98.659
G1 F1200 X134.076 Y136.339 E382.68489
G0 F6000 X134.642 Y136.339
G1 F1200 X96.962 Y98.659 E384.45724
G0 F6000 X97.528 Y98.659
G1 F1200 X135.208 Y136.339 E386.22959
G0 F6000 X135.773 Y136.339
G1 F1200 X98.094 Y98.659 E388.00192
G0 F6000 X98.659 Y98.659
G1 F1200 X136.339 Y136.339 E389.77427
G0 F6000 X136.905 Y136.339
G1 F1200 X99.225 Y98.659 E391.54662
G0 F6000 X99.791 Y98.659
G1 F1200 X137.47 Y136.339 E393.31895
G0 F6000 X138.036 Y136.339
G1 F1200 X100.356 Y98.659 E395.0913
G0 F6000 X100.922 Y98.659
G1 F1200 X138.602 Y136.339 E396.86365
G0 F6000 X139.167 Y136.339
G1 F1200 X101.488 Y98.659 E398.63598
G0 F6000 X102.053 Y98.659
G1 F1200 X139.733 Y136.339 E400.40833
G0 F6000 X140.299 Y136.339
G1 F1200 X102.619 Y98.659 E402.18068
G0 F6000 X103.185 Y98.659
G1 F1200 X140.864 Y136.339 E403.95301
G0 F6000 X141.43 Y136.339
G1 F1200 X103.75 Y98.659 E405.72536
G0 F6000 X104.316 Y98.659
G1 F1200 X141.996 Y136.339 E407.49772
G0 F6000 X142.561 Y136.339
G1 F1200 X104.882 Y98.659 E409.27004
