;FLAVOR:Marlin
;TIME:10153
;Filament used: 7.02967m
;Layer height: 0.2
;MINX:54.335
;MINY:96.835
;MINZ:0.2
;MAXX:179.8
;MAXY:137.3
;MAXZ:40
;Generated with Cura_SteamEngine 5.2.1
M140 S60
M105
M190 S60
M104 S200
M105
M109 S200
M82 ;absolute extrusion mode
M201 X500.00 Y500.00 Z100.00 E5000.00 ;Setup machine max acceleration
M203 X500.00 Y500.00 Z10.00 E50.00 ;Setup machine max feedrate
M204 P500.00 R1000.00 T500.00 ;Setup Print/Retract/Travel acceleration
M205 X8.00 Y8.00 Z0.40 E5.00 ;Setup Jerk
M220 S100 ;Reset Feedrate
M221 S100 ;Reset Flowrate

G28 ;Home

G92 E0 ;Reset Extruder
G1 Z2.0 F3000 ;Move Z Axis up
G1 X10.1 Y20 Z0.28 F5000.0 ;Move to start position
G1 X10.1 Y200.0 Z0.28 F1500.0 E15 ;Draw the first line
G1 X10.4 Y200.0 Z0.28 F5000.0 ;Move to side a little
G1 X10.4 Y20 Z0.28 F1500.0 E30 ;Draw the second line
G92 E0 ;Reset Extruder
G1 Z2.0 F3000 ;Move Z Axis up

G92 E0
G92 E0
G1 F1500 E-6.5
;LAYER_COUNT:200
;LAYER:0
M107
;MESH:agricola-fields-tokens.stl
G0 F6000 X55.6 Y136.9 Z0.2
;TYPE:WALL-INNER
G1 F1500 E0
G1 F1200 X179.4 Y136.9 E4.1176
G1 X179.4 Y98.1 E5.4081
G1 X55.6 Y98.1 E9.5257
G1 X55.6 Y136.9 E10.8162
G0 F6000 X55.2 Y137.3
;TYPE:WALL-OUTER
G1 F1200 X179.8 Y137.3 E14.96041
G1 X179.8 Y97.7 E16.27751
G1 X55.2 Y97.7 E20.42172
G1 X55.2 Y137.3 E21.73882
G0 F6000 X55.47 Y137.03
G0 X55.7 Y136.54
G0 X55.96 Y136.54
;TYPE:SKIN
G1 F1200 X179.04 Y136.54 E25.83248
G1 X179.04 Y98.46 E27.09903
G1 X55.96 Y98.46 E31.19269
G1 X55.96 Y136.54 E32.45923
G0 F6000 X56.577 Y136.339
G1 F1200 X56.159 Y135.921 E32.47889
G0 F6000 X56.159 Y135.355
G1 F1200 X57.143 Y136.339 E32.52518
G0 F6000 X57.709 Y136.339
G1 F1200 X56.159 Y134.79 E32.59806
G0 F6000 X56.159 Y134.224
G1 F1200 X58.274 Y136.339 E32.69754
G0 F6000 X58.84 Y136.339
G1 F1200 X56.159 Y133.658 E32.82365
G0 F6000 X56.159 Y133.093
G1 F1200 X59.406 Y136.339 E32.97636
G0 F6000 X59.971 Y136.339
G1 F1200 X56.159 Y132.527 E33.15566
G0 F6000 X56.159 Y131.961
G1 F1200 X60.537 Y136.339 E33.36159
G0 F6000 X61.103 Y136.339
G1 F1200 X56.159 Y131.395 E33.59414
G0 F6000 X56.159 Y130.83
G1 F1200 X61.668 Y136.339 E33.85326
G0 F6000 X62.234 Y136.339
G1 F1200 X56.159 Y130.264 E34.13901
G0 F6000 X56.159 Y129.698
G1 F1200 X62.8 Y136.339 E34.45139
G0 F6000 X63.365 Y136.339
G1 F1200 X56.159 Y129.133 E34.79033
G0 F6000 X56.159 Y128.567
G1 F1200 X63.931 Y136.339 E35.15591
G0 F6000 X64.497 Y136.339
G1 F1200 X56.159 Y128.001 E35.5481
G0 F6000 X56.159 Y127.436
G1 F1200 X65.063 Y136.339 E35.96689
G0 F6000 X65.628 Y136.339
G1 F1200 X56.159 Y126.87 E36.41229
G0 F6000 X56.159 Y126.304
G1 F1200 X66.194 Y136.339 E36.8843
G0 F6000 X66.76 Y136.339
G1 F1200 X56.159 Y125.739 E37.38292
G0 F6000 X56.159 Y125.173
G1 F1200 X67.325 Y136.339 E37.90813
G0 F6000 X67.891 Y136.339
G1 F1200 X56.159 Y124.607 E38.45997
G0 F6000 X56.159 Y124.042
G1 F1200 X68.457 Y136.339 E39.0384
G0 F6000 X69.022 Y136.339
G1 F1200 X56.159 Y123.476 E39.64344
G0 F6000 X56.159 Y122.91
G1 F1200 X69.588 Y136.339 E40.2751
G0 F6000 X70.154 Y136.339
G1 F1200 X56.159 Y122.345 E40.93336
G0 F6000 X56.159 Y121.779
G1 F1200 X70.719 Y136.339 E41.61822
G0 F6000 X71.285 Y136.339
G1 F1200 X56.159 Y121.213 E42.3297
G0 F6000 X56.159 Y120.647
G1 F1200 X71.851 Y136.339 E43.0678
G0 F6000 X72.416 Y136.339
G1 F1200 X56.159 Y120.082 E43.83248
G0 F6000 X56.159 Y119.516
G1 F1200 X72.982 Y136.339 E44.62378
G0 F6000 X73.548 Y136.339
G1 F1200 X56.159 Y118.95 E45.44171
G0 F6000 X56.159 Y118.385
G1 F1200 X74.113 Y136.339 E46.28621
G0 F6000 X74.679 Y136.339
G1 F1200 X56.159 Y117.819 E47.15733
G0 F6000 X56.159 Y117.253
G1 F1200 X75.245 Y136.339 E48.05508
G0 F6000 X75.811 Y136.339
G1 F1200 X56.159 Y116.688 E48.97943
G0 F6000 X56.159 Y116.122
G1 F1200 X76.376 Y136.339 E49.93037
G0 F6000 X76.942 Y136.339
G1 F1200 X56.159 Y115.556 E50.90794
G0 F6000 X56.159 Y114.991
G1 F1200 X77.508 Y136.339 E51.91211
G0 F6000 X78.073 Y136.339
G1 F1200 X56.159 Y114.425 E52.94288
G0 F6000 X56.159 Y113.859
G1 F1200 X78.639 Y136.339 E54.00027
G0 F6000 X79.205 Y136.339
G1 F1200 X56.159 Y113.294 E55.08425
G0 F6000 X56.159 Y112.728
G1 F1200 X79.77 Y136.339 E56.19484
G0 F6000 X80.336 Y136.339
G1 F1200 X56.159 Y112.162 E57.33206
G0 F6000 X56.159 Y111.597
G1 F1200 X80.902 Y136.339 E58.49587
G0 F6000 X81.467 Y136.339
G1 F1200 X56.159 Y111.031 E59.68628
G0 F6000 X56.159 Y110.465
G1 F1200 X82.033 Y136.339 E60.90331
G0 F6000 X82.599 Y136.339
G1 F1200 X56.159 Y109.899 E62.14697
G0 F6000 X56.159 Y109.334
G1 F1200 X83.164 Y136.339 E63.4172
G0 F6000 X83.73 Y136.339
G1 F1200 X56.159 Y108.768 E64.71406
G0 F6000 X56.159 Y108.202
G1 F1200 X84.296 Y136.339 E66.03753
G0 F6000 X84.862 Y136.339
G1 F1200 X56.159 Y107.637 E67.38761
G0 F6000 X56.159 Y107.071
G1 F1200 X85.427 Y136.339 E68.76429
G0 F6000 X85.993 Y136.339
G1 F1200 X56.159 Y106.505 E70.16759
G0 F6000 X56.159 Y105.94
G1 F1200 X86.559 Y136.339 E71.59749
G0 F6000 X87.124 Y136.339
G1 F1200 X56.159 Y105.374 E73.05399
G0 F6000 X56.159 Y104.808
G1 F1200 X87.69 Y136.339 E74.53711
G0 F6000 X88.256 Y136.339
G1 F1200 X56.159 Y104.243 E76.04683
G0 F6000 X56.159 Y103.677
G1 F1200 X88.821 Y136.339 E77.58315
G0 F6000 X89.387 Y136.339
G1 F1200 X56.159 Y103.111 E79.14609
G0 F6000 X56.159 Y102.546
G1 F1200 X89.953 Y136.339 E80.73564
G0 F6000 X90.518 Y136.339
G1 F1200 X56.159 Y101.98 E82.35178
G0 F6000 X56.159 Y101.414
G1 F1200 X91.084 Y136.339 E83.99454
G0 F6000 X91.65 Y136.339
G1 F1200 X56.159 Y100.848 E85.66393
G0 F6000 X56.159 Y100.283
G1 F1200 X92.215 Y136.339 E87.35989
G0 F6000 X92.781 Y136.339
G1 F1200 X56.159 Y99.717 E89.08248
G0 F6000 X56.159 Y99.151
G1 F1200 X93.347 Y136.339 E90.83169
G0 F6000 X93.912 Y136.339
G1 F1200 X56.234 Y98.66 E92.60397
G0 F6000 X56.799 Y98.66
G1 F1200 X94.478 Y136.339 E94.37628
G0 F6000 X95.044 Y136.339
G1 F1200 X57.365 Y98.66 E96.14858
G0 F6000 X57.931 Y98.66
G1 F1200 X95.61 Y136.339 E97.92088
G0 F6000 X96.175 Y136.339
G1 F1200 X58.496 Y98.66 E99.69319
G0 F6000 X59.062 Y98.66
G1 F1200 X96.741 Y136.339 E101.46549
G0 F6000 X97.307 Y136.339
G1 F1200 X59.628 Y98.66 E103.2378
G0 F6000 X60.193 Y98.66
G1 F1200 X97.872 Y136.339 E105.0101
G0 F6000 X98.438 Y136.339
G1 F1200 X60.759 Y98.66 E106.78241
G0 F6000 X61.325 Y98.66
G1 F1200 X99.004 Y136.339 E108.55471
G0 F6000 X99.569 Y136.339
G1 F1200 X61.89 Y98.66 E110.32702
G0 F6000 X62.456 Y98.66
G1 F1200 X100.135 Y136.339 E112.09932
G0 F6000 X100.701 Y136.339
G1 F1200 X63.022 Y98.66 E113.87163
G0 F6000 X63.587 Y98.66
G1 F1200 X101.266 Y136.339 E115.64393
G0 F6000 X101.832 Y136.339
G1 F1200 X64.153 Y98.66 E117.41624
G0 F6000 X64.719 Y98.66
G1 F1200 X102.398 Y136.339 E119.18854
G0 F6000 X102.963 Y136.339
G1 F1200 X65.285 Y98.66 E120.96082
G0 F6000 X65.85 Y98.66
G1 F1200 X103.529 Y136.339 E122.73313
G0 F6000 X104.095 Y136.339
G1 F1200 X66.416 Y98.66 E124.50543
G0 F6000 X66.982 Y98.66
G1 F1200 X104.66 Y136.339 E126.27771
G0 F6000 X105.226 Y136.339
G1 F1200 X67.547 Y98.66 E128.05002
G0 F6000 X68.113 Y98.66
G1 F1200 X105.792 Y136.339 E129.82232
G0 F6000 X106.358 Y136.339
G1 F1200 X68.679 Y98.66 E131.59463
G0 F6000 X69.244 Y98.66
G1 F1200 X106.923 Y136.339 E133.36693
G0 F6000 X107.489 Y136.339
G1 F1200 X69.81 Y98.66 E135.13924
G0 F6000 X70.376 Y98.66
G1 F1200 X108.055 Y136.339 E136.91154
G0 F6000 X108.62 Y136.339
G1 F1200 X70.941 Y98.66 E138.68384
G0 F6000 X71.507 Y98.66
G1 F1200 X109.186 Y136.339 E140.45615
G0 F6000 X109.752 Y136.339
G1 F1200 X72.073 Y98.66 E142.22845
G0 F6000 X72.638 Y98.66
G1 F1200 X110.317 Y136.339 E144.00076
G0 F6000 X110.883 Y136.339
G1 F1200 X73.204 Y98.66 E145.77306
G0 F6000 X73.77 Y98.66
G1 F1200 X111.449 Y136.339 E147.54537
G0 F6000 X112.014 Y136.339
G1 F1200 X74.336 Y98.66 E149.31765
G0 F6000 X74.901 Y98.66
G1 F1200 X112.58 Y136.339 E151.08995
G0 F6000 X113.146 Y136.339
G1 F1200 X75.467 Y98.66 E152.86226
G0 F6000 X76.033 Y98.66
G1 F1200 X113.711 Y136.339 E154.63454
G0 F6000 X114.277 Y136.339
G1 F1200 X76.598 Y98.66 E156.40684
G0 F6000 X77.164 Y98.66
G1 F1200 X114.843 Y136.339 E158.17915
G0 F6000 X115.409 Y136.339
G1 F1200 X77.73 Y98.66 E159.95145
G0 F6000 X78.295 Y98.66
G1 F1200 X115.974 Y136.339 E161.72376
G0 F6000 X116.54 Y136.339
G1 F1200 X78.861 Y98.66 E163.49606
G0 F6000 X79.427 Y98.66
G1 F1200 X117.106 Y136.339 E165.26837
G0 F6000 X117.671 Y136.339
G1 F1200 X79.992 Y98.66 E167.04067
G0 F6000 X80.558 Y98.66
G1 F1200 X118.237 Y136.339 E168.81298
G0 F6000 X118.803 Y136.339
G1 F1200 X81.124 Y98.66 E170.58528
G0 F6000 X81.689 Y98.66
G1 F1200 X119.368 Y136.339 E172.35759
G0 F6000 X119.934 Y136.339
G1 F1200 X82.255 Y98.66 E174.12989
G0 F6000 X82.821 Y98.66
G1 F1200 X120.5 Y136.339 E175.90219
G0 F6000 X121.065 Y136.339
G1 F1200 X83.386 Y98.66 E177.6745
G0 F6000 X83.952 Y98.66
G1 F1200 X121.631 Y136.339 E179.4468
G0 F6000 X122.197 Y136.339
G1 F1200 X84.518 Y98.66 E181.21911
G0 F6000 X85.084 Y98.66
G1 F1200 X122.762 Y136.339 E182.99139
G0 F6000 X123.328 Y136.339
G1 F1200 X85.649 Y98.66 E184.76369
G0 F6000 X86.215 Y98.66
G1 F1200 X123.894 Y136.339 E186.536
G0 F6000 X124.459 Y136.339
G1 F1200 X86.781 Y98.66 E188.30828
G0 F6000 X87.346 Y98.66
G1 F1200 X125.025 Y136.339 E190.08059
G0 F6000 X125.591 Y136.339
G1 F1200 X87.912 Y98.66 E191.85289
G0 F6000 X88.478 Y98.66
G1 F1200 X126.157 Y136.339 E193.62519
G0 F6000 X126.722 Y136.339
G1 F1200 X89.043 Y98.66 E195.3975
G0 F6000 X89.609 Y98.66
G1 F1200 X127.288 Y136.339 E197.1698
G0 F6000 X127.854 Y136.339
G1 F1200 X90.175 Y98.66 E198.94211
G0 F6000 X90.74 Y98.66
G1 F1200 X128.419 Y136.339 E200.71441
G0 F6000 X128.985 Y136.339
G1 F1200 X91.306 Y98.66 E202.48672
G0 F6000 X91.872 Y98.66
G1 F1200 X129.551 Y136.339 E204.25902
G0 F6000 X130.116 Y136.339
G1 F1200 X92.437 Y98.66 E206.03133
G0 F6000 X93.003 Y98.66
G1 F1200 X130.682 Y136.339 E207.80363
G0 F6000 X131.248 Y136.339
G1 F1200 X93.569 Y98.66 E209.57594
G0 F6000 X94.135 Y98.66
G1 F1200 X131.813 Y136.339 E211.34822
G0 F6000 X132.379 Y136.339
G1 F1200 X94.7 Y98.66 E213.12052
G0 F6000 X95.266 Y98.66
G1 F1200 X132.945 Y136.339 E214.89283
G0 F6000 X133.51 Y136.339
G1 F1200 X95.832 Y98.66 E216.66511
G0 F6000 X96.397 Y98.66
G1 F1200 X134.076 Y136.339 E218.43741
G0 F6000 X134.642 Y136.339
G1 F1200 X96.963 Y98.66 E220.20972
G0 F6000 X97.529 Y98.66
G1 F1200 X135.208 Y136.339 E221.98202
G0 F6000 X135.773 Y136.339
G1 F1200 X98.094 Y98.66 E223.75433
G0 F6000 X98.66 Y98.66
G1 F1200 X136.339 Y136.339 E225.52663
G0 F6000 X136.905 Y136.339
G1 F1200 X99.226 Y98.66 E227.29894
G0 F6000 X99.791 Y98.66
G1 F1200 X137.47 Y136.339 E229.07124
G0 F6000 X138.036 Y136.339
G1 F1200 X100.357 Y98.66 E230.84354
G0 F6000 X100.923 Y98.66
G1 F1200 X138.602 Y136.339 E232.61585
G0 F6000 X139.167 Y136.339
G1 F1200 X101.488 Y98.66 E234.38815
G0 F6000 X102.054 Y98.66
G1 F1200 X139.733 Y136.339 E236.16046
G0 F6000 X140.299 Y136.339
G1 F1200 X102.62 Y98.66 E237.93276
G0 F6000 X103.185 Y98.66
G1 F1200 X140.864 Y136.339 E239.70507
G0 F6000 X141.43 Y136.339
G1 F1200 X103.751 Y98.66 E241.47737
G0 F6000 X104.317 Y98.66
G1 F1200 X141.996 Y136.339 E243.24968
G0 F6000 X142.561 Y136.339
G1 F1200 X104.883 Y98.66 E245.02196
G0 F6000 X105.448 Y98.66
G1 F1200 X143.127 Y136.339 E246.79426
G0 F6000 X143.693 Y136.339
G1 F1200 X106.014 Y98.66 E248.56657
G0 F6000 X106.58 Y98.66
G1 F1200 X144.258 Y136.339 E250.33885
G0 F6000 X144.824 Y136.339
G1 F1200 X107.145 Y98.66 E252.11115
G0 F6000 X107.711 Y98.66
G1 F1200 X145.39 Y136.339 E253.88346
G0 F6000 X145.956 Y136.339
G1 F1200 X108.277 Y98.66 E255.65576
G0 F6000 X108.842 Y98.66
G1 F1200 X146.521 Y136.339 E257.42807
G0 F6000 X147.087 Y136.339
G1 F1200 X109.408 Y98.66 E259.20037
G0 F6000 X109.974 Y98.66
G1 F1200 X147.653 Y136.339 E260.97268
G0 F6000 X148.218 Y136.339
G1 F1200 X110.539 Y98.66 E262.74498
G0 F6000 X111.105 Y98.66
G1 F1200 X148.784 Y136.339 E264.51729
G0 F6000 X149.35 Y136.339
G1 F1200 X111.671 Y98.66 E266.28959
G0 F6000 X112.236 Y98.66
G1 F1200 X149.915 Y136.339 E268.0619
G0 F6000 X150.481 Y136.339
G1 F1200 X112.802 Y98.66 E269.8342
G0 F6000 X113.368 Y98.66
G1 F1200 X151.047 Y136.339 E271.6065
G0 F6000 X151.612 Y136.339
G1 F1200 X113.933 Y98.66 E273.37881
G0 F6000 X114.499 Y98.66
G1 F1200 X152.178 Y136.339 E275.15111
G0 F6000 X152.744 Y136.339
G1 F1200 X115.065 Y98.66 E276.92342
G0 F6000 X115.631 Y98.66
G1 F1200 X153.309 Y136.339 E278.6957
G0 F6000 X153.875 Y136.339
G1 F1200 X116.196 Y98.66 E280.468
G0 F6000 X116.762 Y98.66
G1 F1200 X154.441 Y136.339 E282.24031
G0 F6000 X155.006 Y136.339
G1 F1200 X117.328 Y98.66 E284.01259
G0 F6000 X117.893 Y98.66
G1 F1200 X155.572 Y136.339 E285.78489
G0 F6000 X156.138 Y136.339
G1 F1200 X118.459 Y98.66 E287.5572
G0 F6000 X119.025 Y98.66
G1 F1200 X156.704 Y136.339 E289.3295
G0 F6000 X157.269 Y136.339
G1 F1200 X119.59 Y98.66 E291.10181
G0 F6000 X120.156 Y98.66
G1 F1200 X157.835 Y136.339 E292.87411
G0 F6000 X158.401 Y136.339
G1 F1200 X120.722 Y98.66 E294.64642
G0 F6000 X121.287 Y98.66
G1 F1200 X158.966 Y136.339 E296.41872
G0 F6000 X159.532 Y136.339
G1 F1200 X121.853 Y98.66 E298.19103
G0 F6000 X122.419 Y98.66
G1 F1200 X160.098 Y136.339 E299.96333
G0 F6000 X160.663 Y136.339
G1 F1200 X122.984 Y98.66 E301.73564
G0 F6000 X123.55 Y98.66
G1 F1200 X161.229 Y136.339 E303.50794
G0 F6000 X161.795 Y136.339
G1 F1200 X124.116 Y98.66 E305.28025
G0 F6000 X124.682 Y98.66
G1 F1200 X162.36 Y136.339 E307.05253
G0 F6000 X162.926 Y136.339
G1 F1200 X125.247 Y98.66 E308.82483
G0 F6000 X125.813 Y98.66
G1 F1200 X163.492 Y136.339 E310.59714
G0 F6000 X164.057 Y136.339
G1 F1200 X126.379 Y98.66 E312.36942
G0 F6000 X126.944 Y98.66
G1 F1200 X164.623 Y136.339 E314.14172
G0 F6000 X165.189 Y136.339
G1 F1200 X127.51 Y98.66 E315.91403
G0 F6000 X128.076 Y98.66
G1 F1200 X165.755 Y136.339 E317.68633
G0 F6000 X166.32 Y136.339
G1 F1200 X128.641 Y98.66 E319.45864
G0 F6000 X129.207 Y98.66
G1 F1200 X166.886 Y136.339 E321.23094
G0 F6000 X167.452 Y136.339
G1 F1200 X129.773 Y98.66 E323.00324
G0 F6000 X130.338 Y98.66
G1 F1200 X168.017 Y136.339 E324.77555
G0 F6000 X168.583 Y136.339
G1 F1200 X130.904 Y98.66 E326.54785
G0 F6000 X131.47 Y98.66
G1 F1200 X169.149 Y136.339 E328.32016
G0 F6000 X169.714 Y136.339
G1 F1200 X132.035 Y98.66 E330.09246
G0 F6000 X132.601 Y98.66
G1 F1200 X170.28 Y136.339 E331.86477
G0 F6000 X170.846 Y136.339
G1 F1200 X133.167 Y98.66 E333.63707
G0 F6000 X133.732 Y98.66
G1 F1200 X171.411 Y136.339 E335.40938
G0 F6000 X171.977 Y136.339
G1 F1200 X134.298 Y98.66 E337.18168
G0 F6000 X134.864 Y98.66
G1 F1200 X172.543 Y136.339 E338.95399
G0 F6000 X173.108 Y136.339
G1 F1200 X135.43 Y98.66 E340.72627
G0 F6000 X135.995 Y98.66
G1 F1200 X173.674 Y136.339 E342.49857
G0 F6000 X174.24 Y136.339
G1 F1200 X136.561 Y98.66 E344.27088
G0 F6000 X137.127 Y98.66
G1 F1200 X174.805 Y136.339 E346.04316
G0 F6000 X175.371 Y136.339
G1 F1200 X137.692 Y98.66 E347.81546
G0 F6000 X138.258 Y98.66
G1 F1200 X175.937 Y136.339 E349.58777
G0 F6000 X176.503 Y136.339
G1 F1200 X138.824 Y98.66 E351.36007
G0 F6000 X139.389 Y98.66
G1 F1200 X177.068 Y136.339 E353.13238
G0 F6000 X177.634 Y136.339
G1 F1200 X139.955 Y98.66 E354.90468
G0 F6000 X140.521 Y98.66
G1 F1200 X178.2 Y136.339 E356.67699
G0 F6000 X178.765 Y136.339
G1 F1200 X141.086 Y98.66 E358.44929
G0 F6000 X141.652 Y98.66
G1 F1200 X178.839 Y135.847 E360.19845
G0 F6000 X178.839 Y135.281
G1 F1200 X142.218 Y98.66 E361.92099
G0 F6000 X142.783 Y98.66
G1 F1200 X178.839 Y134.715 E363.61693
G0 F6000 X178.839 Y134.15
G1 F1200 X143.349 Y98.66 E365.28627
G0 F6000 X143.915 Y98.66
G1 F1200 X178.839 Y133.584 E366.92899
G0 F6000 X178.839 Y133.018
G1 F1200 X144.481 Y98.66 E368.54509
G0 F6000 X145.046 Y98.66
G1 F1200 X178.839 Y132.453 E370.13461
G0 F6000 X178.839 Y131.887
G1 F1200 X145.612 Y98.66 E371.6975
G0 F6000 X146.178 Y98.66
G1 F1200 X178.839 Y131.321 E373.23378
G0 F6000 X178.839 Y130.756
G1 F1200 X146.743 Y98.66 E374.74347
G0 F6000 X147.309 Y98.66
G1 F1200 X178.839 Y130.19 E376.22655
G0 F6000 X178.839 Y129.624
G1 F1200 X147.875 Y98.66 E377.683
G0 F6000 X148.44 Y98.66
G1 F1200 X178.839 Y129.059 E379.11287
G0 F6000 X178.839 Y128.493
G1 F1200 X149.006 Y98.66 E380.51613
G0 F6000 X149.572 Y98.66
G1 F1200 X178.839 Y127.927 E381.89276
G0 F6000 X178.839 Y127.361
G1 F1200 X150.137 Y98.66 E383.24279
G0 F6000 X150.703 Y98.66
G1 F1200 X178.839 Y126.796 E384.56622
