;FLAVOR:Marlin
;TIME:17150
;Filament used: 12.8375m
;Layer height: 0.2
;MINX:8.7
;MINY:77.7
;MINZ:0.2
;MAXX:226.3
;MAXY:157.3
;MAXZ:30
;Generated with Cura_SteamEngine 5.2.1
M140 S60
M105
M190 S60
M104 S200
M105
M109 S200
M82 ;absolute extrusion mode
M201 X500.00 Y500.00 Z100.00 E5000.00 ;Setup machine max acceleration
M203 X500.00 Y500.00 Z10.00 E50.00 ;Setup machine max feedrate
M204 P500.00 R1000.00 T500.00 ;Setup Print/Retract/Travel acceleration
M205 X8.00 Y8.00 Z0.40 E5.00 ;Setup Jerk
M220 S100 ;Reset Feedrate
M221 S100 ;Reset Flowrate

G28 ;Home

G92 E0 ;Reset Extruder
G1 Z2.0 F3000 ;Move Z Axis up
G1 X10.1 Y20 Z0.28 F5000.0 ;Move to start position
G1 X10.1 Y200.0 Z0.28 F1500.0 E15 ;Draw the first line
G1 X10.4 Y200.0 Z0.28 F5000.0 ;Move to side a little
G1 X10.4 Y20 Z0.28 F1500.0 E30 ;Draw the second line
G92 E0 ;Reset Extruder
G1 Z2.0 F3000 ;Move Z Axis up

G92 E0
G92 E0
G1 F1500 E-6.5
;LAYER_COUNT:150
;LAYER:0
M107
;MESH:agricola-beds.stl
G0 F6000 X131.312 Y118.071 Z0.2
;TYPE:WALL-INNER
G1 F1500 E0
G1 F1200 X131.101 Y117.949 E0.00811
G1 X130.93 Y117.691 E0.0184
G1 X130.9 Y117.525 E0.02401
G1 X130.9 Y78.1 E1.33529
G1 X9.1 Y78.1 E5.38638
G1 X9.1 Y156.9 E8.00728
G1 X225.9 Y156.9 E15.21807
G1 X225.9 Y118.1 E16.50857
G1 X131.452 Y118.099 E19.64992
G1 X131.312 Y118.071 E19.65467
G0 F6000 X131.343 Y117.626
;TYPE:WALL-OUTER
G1 F1200 X131.3 Y117.517 E19.65857
G1 X131.3 Y77.7 E20.98288
G1 X8.7 Y77.7 E25.06058
G1 X8.7 Y157.3 E27.70808
G1 X226.3 Y157.3 E34.94549
G1 X226.3 Y117.7 E36.26259
G1 X131.437 Y117.691 E39.41775
G1 X131.343 Y117.626 E39.42155
G0 F6000 X131.234 Y118.426
;TYPE:SKIN
G1 F1200 X130.944 Y118.286 E39.43226
G1 X130.755 Y118.109 E39.44087
G1 X130.543 Y117.725 E39.45546
G1 X130.54 Y78.46 E40.76142
G1 X9.46 Y78.46 E44.78856
G1 X9.46 Y156.54 E47.38551
G1 X225.54 Y156.54 E54.57236
G1 X225.54 Y118.46 E55.8389
G1 X131.44 Y118.458 E58.96868
G1 X131.234 Y118.426 E58.97562
G1 F1500 E52.47562
G0 F6000 X131.307 Y118.174
G0 X225.728 Y118.272
G0 X225.8 Y118.99
G1 F1500 E58.97562
G0 F6000 X225.339 Y118.99
G1 F1200 X225.008 Y118.659 E58.99119
G0 F6000 X224.442 Y118.659
G1 F1200 X225.339 Y119.556 E59.03338
G0 F6000 X225.339 Y120.121
G1 F1200 X223.877 Y118.659 E59.10215
G0 F6000 X223.311 Y118.659
G1 F1200 X225.339 Y120.687 E59.19754
G0 F6000 X225.339 Y121.253
G1 F1200 X222.745 Y118.659 E59.31955
G0 F6000 X222.18 Y118.659
G1 F1200 X225.339 Y121.818 E59.46814
G0 F6000 X225.339 Y122.384
G1 F1200 X221.614 Y118.659 E59.64335
G0 F6000 X221.048 Y118.659
G1 F1200 X225.339 Y122.95 E59.84519
G0 F6000 X225.339 Y123.515
G1 F1200 X220.482 Y118.659 E60.07362
G0 F6000 X219.917 Y118.659
G1 F1200 X225.339 Y124.081 E60.32866
G0 F6000 X225.339 Y124.647
G1 F1200 X219.351 Y118.659 E60.61031
G0 F6000 X218.785 Y118.659
G1 F1200 X225.339 Y125.213 E60.91859
G0 F6000 X225.339 Y125.778
G1 F1200 X218.22 Y118.659 E61.25345
G0 F6000 X217.654 Y118.659
G1 F1200 X225.339 Y126.344 E61.61493
G0 F6000 X225.339 Y126.91
G1 F1200 X217.088 Y118.659 E62.00303
G0 F6000 X216.523 Y118.659
G1 F1200 X225.339 Y127.475 E62.41771
G0 F6000 X225.339 Y128.041
G1 F1200 X215.957 Y118.659 E62.85901
G0 F6000 X215.391 Y118.659
G1 F1200 X225.339 Y128.607 E63.32693
G0 F6000 X225.339 Y129.172
G1 F1200 X214.826 Y118.659 E63.82143
G0 F6000 X214.26 Y118.659
G1 F1200 X225.339 Y129.738 E64.34255
G0 F6000 X225.339 Y130.304
G1 F1200 X213.694 Y118.659 E64.8903
G0 F6000 X213.129 Y118.659
G1 F1200 X225.339 Y130.869 E65.46462
G0 F6000 X225.339 Y131.435
G1 F1200 X212.563 Y118.659 E66.06556
G0 F6000 X211.997 Y118.659
G1 F1200 X225.339 Y132.001 E66.69313
G0 F6000 X225.339 Y132.566
G1 F1200 X211.431 Y118.659 E67.3473
G0 F6000 X210.866 Y118.659
G1 F1200 X225.339 Y133.132 E68.02806
G0 F6000 X225.339 Y133.698
G1 F1200 X210.3 Y118.659 E68.73545
G0 F6000 X209.734 Y118.659
G1 F1200 X225.339 Y134.264 E69.46946
G0 F6000 X225.339 Y134.829
G1 F1200 X209.169 Y118.659 E70.23005
G0 F6000 X208.603 Y118.659
G1 F1200 X225.339 Y135.395 E71.01726
G0 F6000 X225.339 Y135.961
G1 F1200 X208.037 Y118.659 E71.83109
G0 F6000 X207.472 Y118.659
G1 F1200 X225.339 Y136.526 E72.6715
G0 F6000 X225.339 Y137.092
G1 F1200 X206.906 Y118.659 E73.53853
G0 F6000 X206.34 Y118.659
G1 F1200 X225.339 Y137.658 E74.43219
G0 F6000 X225.339 Y138.223
G1 F1200 X205.775 Y118.659 E75.35242
G0 F6000 X205.209 Y118.659
G1 F1200 X225.339 Y138.789 E76.29927
G0 F6000 X225.339 Y139.355
G1 F1200 X204.643 Y118.659 E77.27275
G0 F6000 X204.078 Y118.659
G1 F1200 X225.339 Y139.92 E78.2728
G0 F6000 X225.339 Y140.486
G1 F1200 X203.512 Y118.659 E79.29948
G0 F6000 X202.946 Y118.659
G1 F1200 X225.339 Y141.052 E80.35277
G0 F6000 X225.339 Y141.617
G1 F1200 X202.381 Y118.659 E81.43265
G0 F6000 X201.815 Y118.659
G1 F1200 X225.339 Y142.183 E82.53914
G0 F6000 X225.339 Y142.749
G1 F1200 X201.249 Y118.659 E83.67226
G0 F6000 X200.683 Y118.659
G1 F1200 X225.339 Y143.314 E84.83198
G0 F6000 X225.339 Y143.88
G1 F1200 X200.118 Y118.659 E86.0183
G0 F6000 X199.552 Y118.659
G1 F1200 X225.339 Y144.446 E87.23124
G0 F6000 X225.339 Y145.012
G1 F1200 X198.986 Y118.659 E88.47081
G0 F6000 X198.421 Y118.659
G1 F1200 X225.339 Y145.577 E89.73695
G0 F6000 X225.339 Y146.143
G1 F1200 X197.855 Y118.659 E91.02971
G0 F6000 X197.289 Y118.659
G1 F1200 X225.339 Y146.709 E92.3491
G0 F6000 X225.339 Y147.274
G1 F1200 X196.724 Y118.659 E93.69506
G0 F6000 X196.158 Y118.659
G1 F1200 X225.339 Y147.84 E95.06764
G0 F6000 X225.339 Y148.406
G1 F1200 X195.592 Y118.659 E96.46685
G0 F6000 X195.027 Y118.659
G1 F1200 X225.339 Y148.971 E97.89263
G0 F6000 X225.339 Y149.537
G1 F1200 X194.461 Y118.659 E99.34504
G0 F6000 X193.895 Y118.659
G1 F1200 X225.339 Y150.103 E100.82407
G0 F6000 X225.339 Y150.668
G1 F1200 X193.33 Y118.659 E102.32968
G0 F6000 X192.764 Y118.659
G1 F1200 X225.339 Y151.234 E103.8619
G0 F6000 X225.339 Y151.8
G1 F1200 X192.198 Y118.659 E105.42075
G0 F6000 X191.633 Y118.659
G1 F1200 X225.339 Y152.365 E107.00618
G0 F6000 X225.339 Y152.931
G1 F1200 X191.067 Y118.659 E108.61823
G0 F6000 X190.501 Y118.659
G1 F1200 X225.339 Y153.497 E110.2569
G0 F6000 X225.339 Y154.063
G1 F1200 X189.935 Y118.659 E111.9222
G0 F6000 X189.37 Y118.659
G1 F1200 X225.339 Y154.628 E113.61407
G0 F6000 X225.339 Y155.194
G1 F1200 X188.804 Y118.659 E115.33257
G0 F6000 X188.238 Y118.659
G1 F1200 X225.339 Y155.76 E117.07768
G0 F6000 X225.339 Y156.325
G1 F1200 X187.673 Y118.659 E118.84938
G0 F6000 X187.107 Y118.659
G1 F1200 X224.787 Y156.339 E120.62173
G0 F6000 X224.221 Y156.339
G1 F1200 X186.541 Y118.659 E122.39408
G0 F6000 X185.976 Y118.659
G1 F1200 X223.655 Y156.339 E124.16641
G0 F6000 X223.09 Y156.339
G1 F1200 X185.41 Y118.659 E125.93876
G0 F6000 X184.844 Y118.659
G1 F1200 X222.524 Y156.339 E127.71111
G0 F6000 X221.958 Y156.339
G1 F1200 X184.279 Y118.659 E129.48344
G0 F6000 X183.713 Y118.659
G1 F1200 X221.393 Y156.339 E131.25579
G0 F6000 X220.827 Y156.339
G1 F1200 X183.147 Y118.659 E133.02814
G0 F6000 X182.582 Y118.659
G1 F1200 X220.261 Y156.339 E134.80047
G0 F6000 X219.695 Y156.339
G1 F1200 X182.016 Y118.659 E136.5728
G0 F6000 X181.45 Y118.659
G1 F1200 X219.13 Y156.339 E138.34515
G0 F6000 X218.564 Y156.339
G1 F1200 X180.884 Y118.659 E140.1175
G0 F6000 X180.319 Y118.659
G1 F1200 X217.998 Y156.339 E141.88983
G0 F6000 X217.433 Y156.339
G1 F1200 X179.753 Y118.659 E143.66218
G0 F6000 X179.187 Y118.659
G1 F1200 X216.867 Y156.339 E145.43453
G0 F6000 X216.301 Y156.339
G1 F1200 X178.622 Y118.659 E147.20686
G0 F6000 X178.055 Y118.658
G1 F1200 X215.736 Y156.339 E148.97926
G0 F6000 X215.17 Y156.339
G1 F1200 X177.49 Y118.658 E150.75164
G0 F6000 X176.924 Y118.658
G1 F1200 X214.604 Y156.339 E152.52401
G0 F6000 X214.039 Y156.339
G1 F1200 X176.358 Y118.658 E154.29641
G0 F6000 X175.793 Y118.658
G1 F1200 X213.473 Y156.339 E156.06878
G0 F6000 X212.907 Y156.339
G1 F1200 X175.227 Y118.658 E157.84116
G0 F6000 X174.661 Y118.658
G1 F1200 X212.342 Y156.339 E159.61356
G0 F6000 X211.776 Y156.339
G1 F1200 X174.096 Y118.658 E161.38593
G0 F6000 X173.53 Y118.658
G1 F1200 X211.21 Y156.339 E163.15831
G0 F6000 X210.644 Y156.339
G1 F1200 X172.964 Y118.658 E164.93068
G0 F6000 X172.398 Y118.658
G1 F1200 X210.079 Y156.339 E166.70308
G0 F6000 X209.513 Y156.339
G1 F1200 X171.833 Y118.658 E168.47546
G0 F6000 X171.267 Y118.658
G1 F1200 X208.947 Y156.339 E170.24783
G0 F6000 X208.382 Y156.339
G1 F1200 X170.701 Y118.658 E172.02023
G0 F6000 X170.136 Y118.658
G1 F1200 X207.816 Y156.339 E173.79261
G0 F6000 X207.25 Y156.339
G1 F1200 X169.57 Y118.658 E175.56498
G0 F6000 X169.004 Y118.658
G1 F1200 X206.685 Y156.339 E177.33738
G0 F6000 X206.119 Y156.339
G1 F1200 X168.439 Y118.658 E179.10976
G0 F6000 X167.873 Y118.658
G1 F1200 X205.553 Y156.339 E180.88213
G0 F6000 X204.988 Y156.339
G1 F1200 X167.307 Y118.658 E182.65453
G0 F6000 X166.742 Y118.658
G1 F1200 X204.422 Y156.339 E184.42691
G0 F6000 X203.856 Y156.339
G1 F1200 X166.176 Y118.658 E186.19928
G0 F6000 X165.61 Y118.658
G1 F1200 X203.291 Y156.339 E187.97168
G0 F6000 X202.725 Y156.339
G1 F1200 X165.045 Y118.658 E189.74405
G0 F6000 X164.479 Y118.658
G1 F1200 X202.159 Y156.339 E191.51643
G0 F6000 X201.594 Y156.339
G1 F1200 X163.913 Y118.658 E193.28883
G0 F6000 X163.348 Y118.658
G1 F1200 X201.028 Y156.339 E195.0612
G0 F6000 X200.462 Y156.339
G1 F1200 X162.782 Y118.658 E196.83358
G0 F6000 X162.216 Y118.658
G1 F1200 X199.896 Y156.339 E198.60595
G0 F6000 X199.331 Y156.339
G1 F1200 X161.65 Y118.658 E200.37835
G0 F6000 X161.085 Y118.658
G1 F1200 X198.765 Y156.339 E202.15073
G0 F6000 X198.199 Y156.339
G1 F1200 X160.519 Y118.658 E203.9231
G0 F6000 X159.953 Y118.658
G1 F1200 X197.634 Y156.339 E205.6955
G0 F6000 X197.068 Y156.339
G1 F1200 X159.388 Y118.658 E207.46788
G0 F6000 X158.822 Y118.658
G1 F1200 X196.502 Y156.339 E209.24025
G0 F6000 X195.937 Y156.339
G1 F1200 X158.256 Y118.658 E211.01265
G0 F6000 X157.691 Y118.658
G1 F1200 X195.371 Y156.339 E212.78503
G0 F6000 X194.805 Y156.339
G1 F1200 X157.125 Y118.658 E214.5574
G0 F6000 X156.559 Y118.658
G1 F1200 X194.24 Y156.339 E216.3298
G0 F6000 X193.674 Y156.339
G1 F1200 X155.994 Y118.658 E218.10218
G0 F6000 X155.428 Y118.658
G1 F1200 X193.108 Y156.339 E219.87455
G0 F6000 X192.543 Y156.339
G1 F1200 X154.862 Y118.658 E221.64695
G0 F6000 X154.297 Y118.658
G1 F1200 X191.977 Y156.339 E223.41932
G0 F6000 X191.411 Y156.339
G1 F1200 X153.731 Y118.658 E225.1917
G0 F6000 X153.165 Y118.658
G1 F1200 X190.845 Y156.339 E226.96407
G0 F6000 X190.28 Y156.339
G1 F1200 X152.6 Y118.658 E228.73645
G0 F6000 X152.034 Y118.658
G1 F1200 X189.714 Y156.339 E230.50883
G0 F6000 X189.148 Y156.339
G1 F1200 X151.468 Y118.658 E232.2812
G0 F6000 X150.902 Y118.658
G1 F1200 X188.583 Y156.339 E234.0536
G0 F6000 X188.017 Y156.339
G1 F1200 X150.337 Y118.658 E235.82597
G0 F6000 X149.771 Y118.658
G1 F1200 X187.451 Y156.339 E237.59835
G0 F6000 X186.886 Y156.339
G1 F1200 X149.205 Y118.658 E239.37075
G0 F6000 X148.64 Y118.658
G1 F1200 X186.32 Y156.339 E241.14312
G0 F6000 X185.754 Y156.339
G1 F1200 X148.074 Y118.658 E242.9155
G0 F6000 X147.508 Y118.658
G1 F1200 X185.189 Y156.339 E244.6879
G0 F6000 X184.623 Y156.339
G1 F1200 X146.943 Y118.658 E246.46027
G0 F6000 X146.377 Y118.658
G1 F1200 X184.057 Y156.339 E248.23265
G0 F6000 X183.492 Y156.339
G1 F1200 X145.811 Y118.658 E250.00505
G0 F6000 X145.246 Y118.658
G1 F1200 X182.926 Y156.339 E251.77742
G0 F6000 X182.36 Y156.339
G1 F1200 X144.68 Y118.658 E253.5498
G0 F6000 X144.114 Y118.658
G1 F1200 X181.795 Y156.339 E255.3222
G0 F6000 X181.229 Y156.339
G1 F1200 X143.549 Y118.658 E257.09457
G0 F6000 X142.983 Y118.658
G1 F1200 X180.663 Y156.339 E258.86695
G0 F6000 X180.097 Y156.339
G1 F1200 X142.417 Y118.658 E260.63932
G0 F6000 X141.851 Y118.658
G1 F1200 X179.532 Y156.339 E262.41172
G0 F6000 X178.966 Y156.339
G1 F1200 X141.286 Y118.658 E264.18409
G0 F6000 X140.72 Y118.658
G1 F1200 X178.4 Y156.339 E265.95647
G0 F6000 X177.835 Y156.339
G1 F1200 X140.154 Y118.658 E267.72887
G0 F6000 X139.589 Y118.658
G1 F1200 X177.269 Y156.339 E269.50124
G0 F6000 X176.703 Y156.339
G1 F1200 X139.023 Y118.658 E271.27362
G0 F6000 X138.457 Y118.658
G1 F1200 X176.138 Y156.339 E273.04602
G0 F6000 X175.572 Y156.339
G1 F1200 X137.892 Y118.658 E274.81839
G0 F6000 X137.326 Y118.658
G1 F1200 X175.006 Y156.339 E276.59077
G0 F6000 X174.441 Y156.339
G1 F1200 X136.76 Y118.658 E278.36317
G0 F6000 X136.195 Y118.658
G1 F1200 X173.875 Y156.339 E280.13554
G0 F6000 X173.309 Y156.339
G1 F1200 X135.629 Y118.658 E281.90792
G0 F6000 X135.063 Y118.658
G1 F1200 X172.744 Y156.339 E283.68032
G0 F6000 X172.178 Y156.339
G1 F1200 X134.498 Y118.658 E285.45269
G0 F6000 X133.932 Y118.658
G1 F1200 X171.612 Y156.339 E287.22507
G0 F6000 X171.047 Y156.339
G1 F1200 X133.366 Y118.658 E288.99747
G0 F6000 X132.801 Y118.658
G1 F1200 X170.481 Y156.339 E290.76984
G0 F6000 X169.915 Y156.339
G1 F1200 X132.235 Y118.658 E292.54222
G0 F6000 X131.669 Y118.658
G1 F1200 X169.349 Y156.339 E294.31459
G0 F6000 X168.784 Y156.339
G1 F1200 X130.964 Y118.519 E296.09353
G0 F6000 X130.489 Y118.044
G1 F1200 X91.105 Y78.659 E297.94605
G0 F6000 X91.67 Y78.659
G1 F1200 X130.342 Y117.331 E299.76507
G0 F6000 X130.342 Y116.765
G1 F1200 X92.236 Y78.659 E301.55746
G0 F6000 X92.802 Y78.659
G1 F1200 X130.342 Y116.2 E303.32325
G0 F6000 X130.342 Y115.634
G1 F1200 X93.367 Y78.659 E305.06244
G0 F6000 X93.933 Y78.659
G1 F1200 X130.342 Y115.068 E306.775
G0 F6000 X130.342 Y114.503
G1 F1200 X94.499 Y78.659 E308.46097
G0 F6000 X95.064 Y78.659
G1 F1200 X130.342 Y113.937 E310.12034
G0 F6000 X130.342 Y113.371
G1 F1200 X95.63 Y78.659 E311.75309
G0 F6000 X96.196 Y78.659
G1 F1200 X130.342 Y112.806 E313.35923
G0 F6000 X130.342 Y112.24
G1 F1200 X96.761 Y78.659 E314.93878
G0 F6000 X97.327 Y78.659
G1 F1200 X130.342 Y111.674 E316.49171
G0 F6000 X130.342 Y111.109
G1 F1200 X97.893 Y78.659 E318.01803
G0 F6000 X98.458 Y78.659
G1 F1200 X130.342 Y110.543 E319.51776
G0 F6000 X130.342 Y109.977
G1 F1200 X99.024 Y78.659 E320.99086
G0 F6000 X99.59 Y78.659
G1 F1200 X130.342 Y109.412 E322.43736
G0 F6000 X130.342 Y108.846
G1 F1200 X100.156 Y78.659 E323.85724
G0 F6000 X100.721 Y78.659
G1 F1200 X130.342 Y108.28 E325.25052
G0 F6000 X130.341 Y107.714
G1 F1200 X101.287 Y78.659 E326.61716
G0 F6000 X101.853 Y78.659
G1 F1200 X130.341 Y107.148 E327.95717
G0 F6000 X130.341 Y106.582
G1 F1200 X102.418 Y78.659 E329.27058
G0 F6000 X102.984 Y78.659
G1 F1200 X130.341 Y106.017 E330.5574
G0 F6000 X130.341 Y105.451
G1 F1200 X103.55 Y78.659 E331.81759
G0 F6000 X104.115 Y78.659
G1 F1200 X130.341 Y104.885 E333.05118
G0 F6000 X130.341 Y104.32
G1 F1200 X104.681 Y78.659 E334.25817
G0 F6000 X105.247 Y78.659
G1 F1200 X130.341 Y103.754 E335.43854
G0 F6000 X130.341 Y103.188
G1 F1200 X105.812 Y78.659 E336.5923
G0 F6000 X106.378 Y78.659
G1 F1200 X130.341 Y102.623 E337.71947
G0 F6000 X130.341 Y102.057
G1 F1200 X106.944 Y78.659 E338.82002
G0 F6000 X107.509 Y78.659
G1 F1200 X130.341 Y101.491 E339.89397
G0 F6000 X130.341 Y100.926
G1 F1200 X108.075 Y78.659 E340.94132
G0 F6000 X108.641 Y78.659
G1 F1200 X130.341 Y100.36 E341.96204
G0 F6000 X130.341 Y99.794
G1 F1200 X109.206 Y78.659 E342.95617
G0 F6000 X109.772 Y78.659
G1 F1200 X130.341 Y99.229 E343.92369
G0 F6000 X130.341 Y98.663
G1 F1200 X110.338 Y78.659 E344.8646
G0 F6000 X110.904 Y78.659
G1 F1200 X130.34 Y98.096 E345.77883
G0 F6000 X130.34 Y97.531
G1 F1200 X111.469 Y78.659 E346.66649
G0 F6000 X112.035 Y78.659
G1 F1200 X130.34 Y96.965 E347.52752
G0 F6000 X130.34 Y96.399
G1 F1200 X112.601 Y78.659 E348.36193
G0 F6000 X113.166 Y78.659
G1 F1200 X130.34 Y95.834 E349.16977
G0 F6000 X130.34 Y95.268
G1 F1200 X113.732 Y78.659 E349.95098
G0 F6000 X114.298 Y78.659
G1 F1200 X130.34 Y94.702 E350.70557
G0 F6000 X130.34 Y94.137
G1 F1200 X114.863 Y78.659 E351.43359
G0 F6000 X115.429 Y78.659
G1 F1200 X130.34 Y93.571 E352.13498
G0 F6000 X130.34 Y93.005
G1 F1200 X115.995 Y78.659 E352.80975
G0 F6000 X116.56 Y78.659
G1 F1200 X130.34 Y92.44 E353.45794
G0 F6000 X130.34 Y91.874
G1 F1200 X117.126 Y78.659 E354.07951
G0 F6000 X117.692 Y78.659
G1 F1200 X130.34 Y91.308 E354.67445
G0 F6000 X130.34 Y90.743
G1 F1200 X118.257 Y78.659 E355.24283
G0 F6000 X118.823 Y78.659
G1 F1200 X130.34 Y90.177 E355.78457
G0 F6000 X130.34 Y89.611
G1 F1200 X119.389 Y78.659 E356.2997
G0 F6000 X119.955 Y78.659
