;FLAVOR:Marlin
;TIME:51424
;Filament used: 55.108m
;Layer height: 0.28
;MINX:40.7
;MINY:8.7
;MINZ:0.28
;MAXX:194.3
;MAXY:226.3
;MAXZ:33.88
;TARGET_MACHINE.NAME:Creality CR-6 SE
;Generated with Cura_SteamEngine 5.8.1
M140 S60
M105
M190 S60
M104 S200
M105
M109 S200
M82 ;absolute extrusion mode
M201 X500.00 Y500.00 Z100.00 E5000.00 ;Setup machine max acceleration
M203 X500.00 Y500.00 Z10.00 E50.00 ;Setup machine max feedrate
M204 P500.00 R1000.00 T500.00 ;Setup Print/Retract/Travel acceleration
M205 X8.00 Y8.00 Z0.40 E5.00 ;Setup Jerk
M220 S100 ;Reset Feedrate
M221 S100 ;Reset Flowrate

G28 ;Home

G92 E0 ;Reset Extruder
G1 Z2.0 F3000 ;Move Z Axis up
G1 X10.1 Y20 Z0.28 F5000.0 ;Move to start position
G1 X10.1 Y200.0 Z0.28 F1500.0 E15 ;Draw the first line
G1 X10.4 Y200.0 Z0.28 F5000.0 ;Move to side a little
G1 X10.4 Y20 Z0.28 F1500.0 E30 ;Draw the second line
G92 E0 ;Reset Extruder
G1 Z2.0 F3000 ;Move Z Axis up

G92 E0
G92 E0
G1 F1500 E-6.5
;LAYER_COUNT:121
;LAYER:0
M107
;MESH:kf_cards.stl
G0 F6000 X82.404 Y62.982 Z0.28
;TYPE:WALL-INNER
G1 F1500 E0
G1 F1200 X81.855 Y63.088 E0.02604
G1 X60.331 Y63.1 E1.02828
G1 X59.999 Y63.061 E1.04385
G1 X59.644 Y63.1 E1.06048
G1 X57.271 Y63.091 E1.17098
G1 X56.695 Y63.018 E1.19801
G1 X56.141 Y62.832 E1.22522
G1 X55.663 Y62.606 E1.24984
G1 X55.112 Y62.204 E1.2816
G1 X54.65 Y61.717 E1.31286
G1 X54.359 Y61.259 E1.33813
G1 X54.136 Y60.789 E1.36235
G1 X54.001 Y60.352 E1.38365
G1 X53.925 Y59.912 E1.40444
G1 X53.901 Y59.548 E1.42143
G1 X53.908 Y35.231 E2.55373
G1 X53.978 Y34.712 E2.57811
G1 X54.164 Y34.141 E2.60608
G1 X54.391 Y33.661 E2.6308
G1 X54.793 Y33.111 E2.66252
G1 X55.278 Y32.647 E2.69378
G1 X55.768 Y32.341 E2.72068
G1 X56.176 Y32.149 E2.74167
G1 X56.715 Y31.974 E2.76806
G1 X57.358 Y31.9 E2.7982
G1 X59.743 Y31.906 E2.90926
G1 X60.002 Y31.936 E2.9214
G1 X60.343 Y31.9 E2.93736
G1 X81.727 Y31.905 E3.93309
G1 X82.265 Y31.974 E3.95835
G1 X82.824 Y32.149 E3.98562
G1 X83.352 Y32.402 E4.01289
G1 X83.898 Y32.805 E4.04449
G1 X84.365 Y33.305 E4.07634
G1 X84.649 Y33.757 E4.1012
G1 X84.841 Y34.158 E4.1219
G1 X85.014 Y34.681 E4.14755
G1 X85.094 Y35.286 E4.17597
G1 X85.088 Y59.76 E5.31558
G1 X85.029 Y60.25 E5.33856
G1 X84.85 Y60.817 E5.36625
G1 X84.601 Y61.341 E5.39326
G1 X84.197 Y61.892 E5.42508
G1 X83.736 Y62.331 E5.45472
G1 X83.231 Y62.654 E5.48263
G1 X82.825 Y62.847 E5.50357
G1 X82.404 Y62.982 E5.52415
G1 F1500 E-0.97585
G0 F6000 X81.829 Y63.272
G0 X81.739 Y101.725
G0 X82.404 Y132.982
G1 F1500 E5.52415
G1 F1200 X81.855 Y133.088 E5.55019
G1 X60.331 Y133.1 E6.55244
G1 X59.999 Y133.061 E6.568
G1 X59.644 Y133.1 E6.58463
G1 X57.271 Y133.091 E6.69513
G1 X56.695 Y133.018 E6.72217
G1 X56.141 Y132.832 E6.74938
G1 X55.663 Y132.606 E6.774
G1 X55.112 Y132.204 E6.80576
G1 X54.65 Y131.717 E6.83701
G1 X54.359 Y131.259 E6.86228
G1 X54.136 Y130.789 E6.88651
G1 X54.001 Y130.352 E6.9078
G1 X53.925 Y129.912 E6.92859
G1 X53.901 Y129.548 E6.94558
G1 X53.908 Y105.231 E8.07788
G1 X53.978 Y104.712 E8.10227
G1 X54.164 Y104.141 E8.13023
G1 X54.391 Y103.661 E8.15495
G1 X54.793 Y103.111 E8.18668
G1 X55.278 Y102.647 E8.21793
G1 X55.768 Y102.341 E8.24483
G1 X56.176 Y102.149 E8.26583
G1 X56.712 Y101.975 E8.29207
G1 X57.307 Y101.901 E8.31999
G1 X59.743 Y101.906 E8.43342
G1 X60.002 Y101.936 E8.44556
G1 X60.349 Y101.9 E8.4618
G1 X81.747 Y101.906 E9.45818
G1 X82.302 Y101.982 E9.48427
G1 X82.825 Y102.149 E9.50983
G1 X83.331 Y102.389 E9.53591
G1 X83.873 Y102.783 E9.56711
G1 X84.34 Y103.271 E9.59856
G1 X84.667 Y103.79 E9.62713
G1 X84.843 Y104.162 E9.64629
G1 X85.026 Y104.73 E9.67408
G1 X85.095 Y105.294 E9.70053
G1 X85.088 Y129.76 E10.83977
G1 X85.029 Y130.25 E10.86276
G1 X84.85 Y130.817 E10.89044
G1 X84.601 Y131.341 E10.91746
G1 X84.197 Y131.892 E10.94927
G1 X83.736 Y132.331 E10.97891
G1 X83.231 Y132.654 E11.00683
G1 X82.825 Y132.847 E11.02776
G1 X82.404 Y132.982 E11.04835
G1 F1500 E4.54835
G0 F6000 X81.829 Y133.272
G0 X82.303 Y171.798
G0 X84.216 Y201.87
G1 F1500 E11.04835
G1 F1200 X83.733 Y202.333 E11.0795
G1 X83.23 Y202.654 E11.10729
G1 X82.825 Y202.846 E11.12816
G1 X82.353 Y202.994 E11.15119
G1 X81.856 Y203.088 E11.17474
G1 X60.331 Y203.1 E12.17704
G1 X59.999 Y203.061 E12.1926
G1 X59.651 Y203.1 E12.20891
G1 X57.305 Y203.093 E12.31815
G1 X56.732 Y203.026 E12.34501
G1 X56.141 Y202.832 E12.37397
G1 X55.663 Y202.606 E12.39859
G1 X55.112 Y202.204 E12.43035
G1 X54.65 Y201.717 E12.46161
G1 X54.359 Y201.259 E12.48688
G1 X54.136 Y200.787 E12.51119
G1 X53.978 Y200.283 E12.53578
G1 X53.904 Y199.689 E12.56365
G1 X53.9 Y175.365 E13.69628
G1 X53.978 Y174.714 E13.72681
G1 X54.164 Y174.141 E13.75486
G1 X54.391 Y173.661 E13.77959
G1 X54.793 Y173.111 E13.81131
G1 X55.278 Y172.647 E13.84256
G1 X55.768 Y172.341 E13.86946
G1 X56.176 Y172.149 E13.89046
G1 X56.712 Y171.975 E13.9167
G1 X57.307 Y171.901 E13.94462
G1 X59.743 Y171.906 E14.05805
G1 X60.002 Y171.936 E14.07019
G1 X60.349 Y171.9 E14.08644
G1 X81.747 Y171.906 E15.08282
G1 X82.302 Y171.982 E15.1089
G1 X82.825 Y172.149 E15.13447
G1 X83.331 Y172.389 E15.16054
G1 X83.873 Y172.783 E15.19174
G1 X84.34 Y173.271 E15.2232
G1 X84.667 Y173.79 E15.25176
G1 X84.843 Y174.162 E15.27092
G1 X85.026 Y174.73 E15.29871
G1 X85.096 Y175.305 E15.32568
G1 X85.09 Y199.742 E16.46357
G1 X85.014 Y200.315 E16.49049
G1 X84.851 Y200.814 E16.51493
G1 X84.59 Y201.358 E16.54303
G1 X84.216 Y201.87 E16.57255
G1 F1500 E10.07255
G0 F6000 X84.562 Y201.703
G0 X84.562 Y225.7
G0 X117.5 Y225.9
G1 F1500 E16.57255
G1 F1200 X193.9 Y225.9 E20.13005
G1 X193.9 Y9.1 E30.22517
G1 X41.101 Y9.101 E37.34013
G1 X41.1 Y225.9 E47.4352
G1 X117.5 Y225.9 E50.9927
G0 F6000 X117.5 Y226.3
;TYPE:WALL-OUTER
G1 F1200 X194.3 Y226.3 E54.56883
G1 X194.3 Y8.7 E64.7012
G1 X40.701 Y8.701 E71.85341
G1 X40.7 Y226.3 E81.98574
G1 X117.5 Y226.3 E85.56187
G1 F1500 E79.06187
G0 F6000 X117.5 Y226
G0 X84.151 Y225.7
G0 X83.807 Y202.505
G0 X83.907 Y201.616
G1 F1500 E85.56187
G1 F1200 X83.477 Y202.026 E85.58953
G1 X83.037 Y202.304 E85.61377
G1 X82.678 Y202.474 E85.63226
G1 X82.278 Y202.601 E85.6518
G1 X81.806 Y202.691 E85.67418
G1 X60.344 Y202.7 E86.67354
G1 X59.999 Y202.658 E86.68972
G1 X59.631 Y202.7 E86.70697
G1 X57.284 Y202.691 E86.81626
G1 X56.806 Y202.633 E86.83868
G1 X56.311 Y202.47 E86.86294
G1 X55.866 Y202.261 E86.88584
G1 X55.376 Y201.903 E86.91409
G1 X54.966 Y201.471 E86.94183
G1 X54.698 Y201.047 E86.96518
G1 X54.517 Y200.665 E86.98487
G1 X54.368 Y200.196 E87.00778
G1 X54.305 Y199.714 E87.03042
G1 X54.301 Y175.339 E88.16542
G1 X54.368 Y174.8 E88.19071
G1 X54.526 Y174.311 E88.21464
G1 X54.735 Y173.865 E88.23757
G1 X55.093 Y173.375 E88.26583
G1 X55.525 Y172.965 E88.29356
G1 X55.96 Y172.692 E88.31748
G1 X56.322 Y172.521 E88.33612
G1 X56.819 Y172.365 E88.36037
G1 X57.339 Y172.3 E88.38478
G1 X59.707 Y172.305 E88.49504
G1 X60.001 Y172.338 E88.50882
G1 X60.365 Y172.3 E88.52586
G1 X81.714 Y172.305 E89.51996
G1 X82.197 Y172.368 E89.54264
G1 X82.678 Y172.521 E89.56614
G1 X83.146 Y172.746 E89.59032
G1 X83.623 Y173.095 E89.61784
G1 X84.032 Y173.526 E89.64551
G1 X84.307 Y173.964 E89.66959
G1 X84.479 Y174.329 E89.68838
G1 X84.635 Y174.819 E89.71232
G1 X84.696 Y175.341 E89.7368
G1 X84.691 Y199.712 E90.87161
G1 X84.633 Y200.191 E90.89408
G1 X84.473 Y200.682 E90.91813
G1 X84.261 Y201.13 E90.9412
G1 X83.907 Y201.616 E90.9692
G1 F1500 E84.4692
G0 F6000 X84.151 Y201.794
G0 X84.699 Y200.765
G0 X84.866 Y200.253
G0 X84.933 Y199.715
G0 X84.935 Y175.313
G0 X84.867 Y174.749
G0 X84.515 Y173.843
G0 X84.278 Y173.472
G0 X82.89 Y171.981
G0 X81.829 Y133.272
G0 X82.672 Y132.477
G1 F1500 E90.9692
G1 F1200 X82.278 Y132.601 E90.98844
G1 X81.793 Y132.692 E91.01141
G1 X60.344 Y132.7 E92.01017
G1 X59.999 Y132.658 E92.02635
G1 X59.631 Y132.7 E92.0436
G1 X57.284 Y132.691 E92.15289
G1 X56.807 Y132.633 E92.17526
G1 X56.311 Y132.47 E92.19957
G1 X55.866 Y132.261 E92.22246
G1 X55.376 Y131.903 E92.25072
G1 X54.966 Y131.471 E92.27845
G1 X54.698 Y131.047 E92.30181
G1 X54.517 Y130.666 E92.32145
G1 X54.401 Y130.306 E92.33906
G1 X54.324 Y129.886 E92.35895
G1 X54.3 Y129.522 E92.37593
G1 X54.305 Y105.282 E93.50465
G1 X54.368 Y104.8 E93.52728
G1 X54.526 Y104.311 E93.55121
G1 X54.735 Y103.865 E93.57415
G1 X55.093 Y103.375 E93.6024
G1 X55.525 Y102.965 E93.63014
G1 X55.96 Y102.692 E93.65405
G1 X56.322 Y102.521 E93.67269
G1 X56.819 Y102.365 E93.69695
G1 X57.339 Y102.3 E93.72135
G1 X59.707 Y102.305 E93.83162
G1 X60.001 Y102.338 E93.84539
G1 X60.365 Y102.3 E93.86243
G1 X81.714 Y102.305 E94.85653
G1 X82.197 Y102.368 E94.87921
G1 X82.678 Y102.521 E94.90272
G1 X83.146 Y102.746 E94.9269
G1 X83.623 Y103.095 E94.95442
G1 X84.032 Y103.526 E94.98208
G1 X84.307 Y103.964 E95.00617
G1 X84.479 Y104.329 E95.02495
G1 X84.635 Y104.819 E95.0489
G1 X84.696 Y105.341 E95.07337
G1 X84.691 Y129.712 E96.20819
G1 X84.627 Y130.215 E96.2318
G1 X84.469 Y130.69 E96.25511
G1 X84.25 Y131.146 E96.27866
G1 X83.901 Y131.623 E96.30618
G1 X83.464 Y132.036 E96.33418
G1 X83.026 Y132.309 E96.35821
G1 X82.672 Y132.477 E96.37646
G1 F1500 E89.87646
G0 F6000 X82.764 Y132.763
G0 X83.615 Y132.223
G0 X84.087 Y131.781
G0 X84.47 Y131.253
G0 X84.866 Y130.253
G0 X84.933 Y129.715
G0 X84.935 Y105.313
G0 X84.867 Y104.749
G0 X84.515 Y103.843
G0 X84.223 Y103.385
G0 X83.865 Y103.003
G0 X82.303 Y101.798
G0 X81.829 Y63.272
G0 X82.278 Y62.601
G1 F1500 E96.37646
G1 F1200 X81.793 Y62.692 E96.39944
G1 X60.344 Y62.7 E97.39819
G1 X59.999 Y62.658 E97.41438
G1 X59.631 Y62.7 E97.43162
G1 X57.284 Y62.691 E97.54091
G1 X56.807 Y62.633 E97.56328
G1 X56.311 Y62.47 E97.5876
G1 X55.866 Y62.261 E97.61049
G1 X55.376 Y61.903 E97.63875
G1 X54.966 Y61.471 E97.66648
G1 X54.698 Y61.047 E97.68984
G1 X54.517 Y60.666 E97.70948
G1 X54.401 Y60.306 E97.72709
G1 X54.324 Y59.886 E97.74697
G1 X54.3 Y59.522 E97.76396
G1 X54.305 Y35.282 E98.89267
G1 X54.368 Y34.8 E98.91531
G1 X54.526 Y34.311 E98.93924
G1 X54.735 Y33.865 E98.96217
G1 X55.093 Y33.375 E98.99043
G1 X55.525 Y32.965 E99.01816
G1 X55.96 Y32.692 E99.04208
G1 X56.322 Y32.521 E99.06072
G1 X56.809 Y32.367 E99.0845
G1 X57.343 Y32.3 E99.10956
G1 X59.707 Y32.305 E99.21964
G1 X60.001 Y32.338 E99.23342
G1 X60.365 Y32.3 E99.25046
G1 X81.714 Y32.305 E100.24456
G1 X82.19 Y32.367 E100.26691
G1 X82.678 Y32.521 E100.29074
G1 X83.125 Y32.732 E100.31375
G1 X83.625 Y33.097 E100.34258
G1 X84.031 Y33.525 E100.37005
G1 X84.306 Y33.963 E100.39413
G1 X84.479 Y34.329 E100.41298
G1 X84.633 Y34.805 E100.43628
G1 X84.696 Y35.341 E100.46141
G1 X84.691 Y59.712 E101.59622
G1 X84.627 Y60.215 E101.61983
G1 X84.469 Y60.69 E101.64314
G1 X84.25 Y61.146 E101.6667
G1 X83.901 Y61.623 E101.69422
G1 X83.464 Y62.036 E101.72222
G1 X83.026 Y62.309 E101.74625
G1 X82.672 Y62.477 E101.7645
G1 X82.278 Y62.601 E101.78373
G1 F1500 E95.28373
G0 F6000 X82.333 Y62.898
G0 X82.432 Y63.161
G0 X82.432 Y225.7
G0 X117.5 Y225.54
;TYPE:SKIN
G1 F1500 E101.78373
G1 F1200 X41.461 Y225.539 E105.32442
G1 X41.46 Y9.46 E115.38597
G1 X193.54 Y9.46 E122.46745
G1 X193.54 Y225.54 E132.52904
G1 X117.5 Y225.54 E136.06978
G1 F1500 E129.56978
G0 F6000 X117.5 Y225.8
G0 X84.274 Y225.7
G0 X83.807 Y202.505
G0 X84.466 Y202.133
G1 F1500 E136.06978
G1 F1200 X84.917 Y201.522 E136.10514
G1 X85.182 Y200.957 E136.1342
G1 X85.371 Y200.383 E136.16234
G1 X85.447 Y199.751 E136.19198
G1 X85.456 Y175.305 E137.33029
G1 X85.375 Y174.639 E137.36153
G1 X85.179 Y174.029 E137.39136
G1 X84.979 Y173.612 E137.4129
G1 X84.651 Y173.079 E137.44204
G1 X84.13 Y172.531 E137.47725
G1 X83.539 Y172.095 E137.51145
G1 X82.959 Y171.814 E137.54146
G1 X82.345 Y171.621 E137.57143
G1 X81.766 Y171.545 E137.59862
G1 X60.345 Y171.54 E138.59607
G1 X60.006 Y171.57 E138.61192
G1 X59.779 Y171.545 E138.62255
G1 X57.279 Y171.54 E138.73896
G1 X56.614 Y171.627 E138.77019
G1 X56.046 Y171.809 E138.79796
G1 X55.581 Y172.03 E138.82194
G1 X55.073 Y172.35 E138.84989
G1 X54.521 Y172.875 E138.88537
G1 X54.08 Y173.472 E138.91993
G1 X53.825 Y174.01 E138.94765
G1 X53.624 Y174.633 E138.97813
G1 X53.54 Y175.373 E139.01281
G1 X53.545 Y199.703 E140.14572
G1 X53.62 Y200.362 E140.1766
G1 X53.816 Y200.973 E140.20648
G1 X54.044 Y201.437 E140.23055
G1 X54.366 Y201.94 E140.25836
G1 X54.882 Y202.487 E140.29338
G1 X55.495 Y202.926 E140.32849
G1 X56.039 Y203.179 E140.35642
G1 X56.659 Y203.377 E140.38673
G1 X57.24 Y203.447 E140.41398
G1 X59.651 Y203.46 E140.52625
G1 X59.995 Y203.422 E140.54236
G1 X60.313 Y203.46 E140.55727
G1 X81.842 Y203.448 E141.55975
G1 X82.481 Y203.335 E141.58997
G1 X82.95 Y203.183 E141.61293
G1 X83.349 Y202.998 E141.63341
G1 X83.928 Y202.639 E141.66513
G1 X84.466 Y202.133 E141.69952
G1 F1500 E135.19952
G0 F6000 X84.274 Y201.961
G0 X84.866 Y200.253
G0 X84.933 Y199.715
G0 X84.935 Y175.313
G0 X84.867 Y174.749
G0 X84.515 Y173.843
G0 X84.278 Y173.472
G0 X82.89 Y171.981
G0 X81.829 Y133.272
G0 X82.972 Y133.177
G1 F1500 E141.69952
G1 F1200 X83.409 Y132.964 E141.72216
G1 X83.928 Y132.639 E141.75067
G1 X84.458 Y132.142 E141.7845
G1 X84.915 Y131.509 E141.82086
G1 X85.182 Y130.95 E141.8497
G1 X85.371 Y130.37 E141.87811
G1 X85.443 Y129.805 E141.90463
G1 X85.456 Y105.305 E143.04545
G1 X85.375 Y104.639 E143.07669
G1 X85.179 Y104.029 E143.10653
G1 X84.979 Y103.612 E143.12806
G1 X84.651 Y103.079 E143.1572
G1 X84.13 Y102.531 E143.19241
G1 X83.539 Y102.095 E143.22661
G1 X82.959 Y101.814 E143.25662
G1 X82.345 Y101.621 E143.28659
G1 X81.766 Y101.545 E143.31378
G1 X60.345 Y101.54 E144.31123
G1 X60.006 Y101.57 E144.32708
G1 X59.779 Y101.545 E144.33771
G1 X57.279 Y101.54 E144.45413
G1 X56.614 Y101.627 E144.48535
G1 X56.046 Y101.809 E144.51313
G1 X55.581 Y102.03 E144.5371
G1 X55.073 Y102.35 E144.56506
G1 X54.521 Y102.875 E144.60053
G1 X54.08 Y103.472 E144.63509
G1 X53.835 Y103.986 E144.6616
G1 X53.625 Y104.643 E144.69372
G1 X53.549 Y105.179 E144.71893
G1 X53.54 Y129.586 E145.85542
G1 X53.564 Y129.938 E145.87185
G1 X53.667 Y130.505 E145.89869
G1 X53.84 Y131.025 E145.9242
G1 X54.044 Y131.437 E145.94561
G1 X54.366 Y131.94 E145.97342
G1 X54.882 Y132.487 E146.00844
G1 X55.474 Y132.913 E146.0424
G1 X56.034 Y133.177 E146.07123
G1 X56.614 Y133.369 E146.09967
G1 X57.235 Y133.447 E146.12882
G1 X59.642 Y133.46 E146.2409
G1 X59.995 Y133.422 E146.25743
G1 X60.314 Y133.46 E146.27239
G1 X81.837 Y133.448 E147.27459
G1 X82.464 Y133.337 E147.30424
G1 X82.972 Y133.177 E147.32904
G1 F1500 E140.82904
G0 F6000 X82.886 Y132.931
G0 X84.087 Y131.781
G0 X84.47 Y131.253
G0 X84.866 Y130.253
G0 X84.933 Y129.715
G0 X84.935 Y105.313
G0 X84.867 Y104.749
G0 X84.515 Y103.843
G0 X84.223 Y103.385
G0 X83.865 Y103.003
G0 X82.303 Y101.798
G0 X81.829 Y63.272
G0 X82.464 Y63.337
G1 F1500 E147.32904
G1 F1200 X82.972 Y63.177 E147.35384
G1 X83.409 Y62.964 E147.37648
G1 X83.928 Y62.639 E147.40499
G1 X84.458 Y62.142 E147.43882
G1 X84.915 Y61.509 E147.47518
G1 X85.182 Y60.95 E147.50402
G1 X85.371 Y60.37 E147.53243
G1 X85.443 Y59.805 E147.55895
G1 X85.452 Y35.301 E148.69996
G1 X85.377 Y34.629 E148.73145
G1 X85.188 Y34.053 E148.75967
G1 X84.964 Y33.583 E148.78392
G1 X84.627 Y33.053 E148.81316
G1 X84.141 Y32.538 E148.84614
G1 X83.493 Y32.064 E148.88352
G1 X82.953 Y31.813 E148.91125
G1 X82.335 Y31.62 E148.9414
G1 X81.762 Y31.545 E148.9683
G1 X60.337 Y31.54 E149.96594
G1 X60.006 Y31.57 E149.98142
G1 X59.779 Y31.545 E149.99205
G1 X57.295 Y31.54 E150.10772
G1 X56.601 Y31.63 E150.1403
G1 X56.038 Y31.813 E150.16787
G1 X55.589 Y32.026 E150.19101
G1 X55.073 Y32.35 E150.21938
G1 X54.521 Y32.875 E150.25485
G1 X54.08 Y33.472 E150.28941
G1 X53.835 Y33.986 E150.31593
G1 X53.625 Y34.643 E150.34805
G1 X53.549 Y35.179 E150.37325
G1 X53.54 Y59.586 E151.50975
G1 X53.564 Y59.938 E151.52617
G1 X53.667 Y60.505 E151.55301
G1 X53.84 Y61.025 E151.57853
G1 X54.044 Y61.437 E151.59993
G1 X54.366 Y61.94 E151.62774
G1 X54.882 Y62.487 E151.66276
G1 X55.474 Y62.913 E151.69672
G1 X56.034 Y63.177 E151.72555
G1 X56.614 Y63.369 E151.754
G1 X57.235 Y63.447 E151.78314
G1 X59.642 Y63.46 E151.89522
G1 X59.995 Y63.422 E151.91175
G1 X60.314 Y63.46 E151.92671
G1 X81.837 Y63.448 E152.92891
G1 X82.464 Y63.337 E152.95856
G1 F1500 E146.45856
G0 F6000 X82.412 Y63.084
G0 X83.615 Y62.223
G0 X83.997 Y61.865
G0 X85.201 Y60.311
G0 X85.201 Y9.3
G0 X192.943 Y9.66
G1 F1500 E152.95856
G1 F1200 X193.34 Y10.058 E152.98474
G0 F6000 X193.34 Y10.624
G1 F1200 X192.377 Y9.66 E153.04819
