;FLAVOR:Marlin
;TIME:33873
;Filament used: 26.0133m
;Layer height: 0.2
;MINX:62.5
;MINY:61.5
;MINZ:0.2
;MAXX:172.5
;MAXY:173.5
;MAXZ:66
;Generated with Cura_SteamEngine 5.2.1
M140 S60
M105
M190 S60
M104 S200
M105
M109 S200
M82 ;absolute extrusion mode
M201 X500.00 Y500.00 Z100.00 E5000.00 ;Setup machine max acceleration
M203 X500.00 Y500.00 Z10.00 E50.00 ;Setup machine max feedrate
M204 P500.00 R1000.00 T500.00 ;Setup Print/Retract/Travel acceleration
M205 X8.00 Y8.00 Z0.40 E5.00 ;Setup Jerk
M220 S100 ;Reset Feedrate
M221 S100 ;Reset Flowrate

G28 ;Home

G92 E0 ;Reset Extruder
G1 Z2.0 F3000 ;Move Z Axis up
G1 X10.1 Y20 Z0.28 F5000.0 ;Move to start position
G1 X10.1 Y200.0 Z0.28 F1500.0 E15 ;Draw the first line
G1 X10.4 Y200.0 Z0.28 F5000.0 ;Move to side a little
G1 X10.4 Y20 Z0.28 F1500.0 E30 ;Draw the second line
G92 E0 ;Reset Extruder
G1 Z2.0 F3000 ;Move Z Axis up

G92 E0
G92 E0
G1 F1500 E-6.5
;LAYER_COUNT:330
;LAYER:0
M107
G0 F6000 X65.698 Y64.764 Z0.2
;TYPE:SKIRT
G1 F1500 E0
G1 F1200 X66.386 Y64.127 E0.03119
G1 X67.126 Y63.551 E0.06237
G1 X67.912 Y63.039 E0.09357
G1 X68.739 Y62.597 E0.12476
G1 X69.601 Y62.227 E0.15596
G1 X70.491 Y61.931 E0.18716
G1 X71.403 Y61.713 E0.21835
G1 X72.33 Y61.572 E0.24953
G1 X73.201 Y61.513 E0.27857
G1 X73.83 Y61.5 E0.29949
G1 X160.951 Y61.501 E3.19715
G1 X161.649 Y61.511 E3.22037
G1 X162.585 Y61.565 E3.25155
G1 X163.513 Y61.697 E3.28273
G1 X164.427 Y61.909 E3.31393
G1 X165.319 Y62.198 E3.34512
G1 X166.184 Y62.561 E3.37632
G1 X167.014 Y62.997 E3.4075
G1 X167.805 Y63.502 E3.43872
G1 X168.549 Y64.073 E3.46991
G1 X169.242 Y64.705 E3.50111
G1 X169.879 Y65.393 E3.53229
G1 X170.454 Y66.134 E3.56349
G1 X170.965 Y66.92 E3.59467
G1 X171.407 Y67.748 E3.62589
G1 X171.776 Y68.61 E3.65707
G1 X172.071 Y69.5 E3.68826
G1 X172.289 Y70.412 E3.71945
G1 X172.429 Y71.34 E3.75066
G1 X172.487 Y72.201 E3.77936
G1 X172.5 Y72.83 E3.80029
G1 X172.499 Y161.9 E6.76277
G1 X172.49 Y162.627 E6.78695
G1 X172.439 Y163.564 E6.81816
G1 X172.307 Y164.492 E6.84934
G1 X172.098 Y165.406 E6.88052
G1 X171.811 Y166.299 E6.91172
G1 X171.449 Y167.165 E6.94294
G1 X171.015 Y167.996 E6.97412
G1 X170.511 Y168.787 E7.00531
G1 X169.942 Y169.532 E7.03649
G1 X169.311 Y170.227 E7.06771
G1 X168.624 Y170.865 E7.0989
G1 X167.885 Y171.442 E7.13008
G1 X167.099 Y171.954 E7.16128
G1 X166.273 Y172.397 E7.19246
G1 X165.411 Y172.769 E7.22368
G1 X164.522 Y173.065 E7.25485
G1 X163.61 Y173.285 E7.28605
G1 X162.683 Y173.426 E7.31724
G1 X161.799 Y173.487 E7.34671
G1 X161.17 Y173.5 E7.36763
G1 X74.065 Y173.499 E10.26476
G1 X73.367 Y173.49 E10.28797
G1 X72.431 Y173.438 E10.31915
G1 X71.502 Y173.306 E10.35036
G1 X70.588 Y173.096 E10.38156
G1 X69.695 Y172.809 E10.41275
G1 X68.83 Y172.446 E10.44395
G1 X67.999 Y172.012 E10.47513
G1 X67.208 Y171.508 E10.50633
G1 X66.463 Y170.938 E10.53753
G1 X65.769 Y170.307 E10.56873
G1 X65.132 Y169.62 E10.59989
G1 X64.555 Y168.88 E10.6311
G1 X64.043 Y168.094 E10.6623
G1 X63.6 Y167.267 E10.6935
G1 X63.229 Y166.406 E10.72468
G1 X62.933 Y165.516 E10.75588
G1 X62.714 Y164.604 E10.78707
G1 X62.573 Y163.677 E10.81826
G1 X62.513 Y162.788 E10.8479
G1 X62.5 Y162.158 E10.86886
G1 X62.501 Y73.025 E13.83343
G1 X62.51 Y72.36 E13.85555
G1 X62.563 Y71.424 E13.88673
G1 X62.695 Y70.495 E13.91794
G1 X62.906 Y69.581 E13.94914
G1 X63.194 Y68.689 E13.98032
G1 X63.557 Y67.824 E14.01152
G1 X63.992 Y66.993 E14.04271
G1 X64.496 Y66.203 E14.07388
G1 X65.066 Y65.458 E14.10508
G1 X65.698 Y64.764 E14.1363
G0 F6000 X66.089 Y64.939
G1 F1200 X66.774 Y64.323 E14.16694
G1 X67.51 Y63.77 E14.19756
G1 X68.291 Y63.282 E14.22819
G1 X69.111 Y62.864 E14.2588
G1 X69.965 Y62.519 E14.28944
G1 X70.845 Y62.249 E14.32005
G1 X71.745 Y62.057 E14.35066
G1 X72.659 Y61.943 E14.3813
G1 X73.212 Y61.913 E14.39972
G1 X73.83 Y61.9 E14.42028
G1 X160.945 Y61.901 E17.31773
G1 X161.643 Y61.911 E17.34095
G1 X162.562 Y61.964 E17.37157
G1 X163.473 Y62.097 E17.40219
G1 X164.369 Y62.308 E17.4328
G1 X165.243 Y62.596 E17.46341
G1 X166.09 Y62.959 E17.49406
G1 X166.901 Y63.394 E17.52467
G1 X167.671 Y63.898 E17.55528
G1 X168.395 Y64.467 E17.58591
G1 X169.067 Y65.097 E17.61654
G1 X169.682 Y65.782 E17.64716
G1 X170.235 Y66.518 E17.67778
G1 X170.722 Y67.299 E17.70839
G1 X171.139 Y68.12 E17.73902
G1 X171.484 Y68.974 E17.76965
G1 X171.753 Y69.854 E17.80026
G1 X171.945 Y70.755 E17.8309
G1 X172.058 Y71.668 E17.8615
G1 X172.087 Y72.212 E17.87962
G1 X172.1 Y72.83 E17.90018
G1 X172.099 Y161.895 E20.86249
G1 X172.09 Y162.622 E20.88667
G1 X172.039 Y163.541 E20.91729
G1 X171.908 Y164.453 E20.94793
G1 X171.698 Y165.349 E20.97854
G1 X171.412 Y166.224 E21.00916
G1 X171.051 Y167.071 E21.03978
G1 X170.617 Y167.883 E21.0704
G1 X170.115 Y168.655 E21.10103
G1 X169.547 Y169.38 E21.13166
G1 X168.919 Y170.053 E21.16228
G1 X168.235 Y170.669 E21.1929
G1 X167.5 Y171.223 E21.22351
G1 X166.72 Y171.712 E21.25413
G1 X165.9 Y172.131 E21.28476
G1 X165.047 Y172.477 E21.31537
G1 X164.167 Y172.748 E21.346
G1 X163.267 Y172.941 E21.37661
G1 X162.353 Y173.056 E21.40725
G1 X161.788 Y173.087 E21.42607
G1 X161.17 Y173.1 E21.44663
G1 X74.07 Y173.099 E24.34359
G1 X73.372 Y173.09 E24.36681
G1 X72.453 Y173.038 E24.39742
G1 X71.542 Y172.907 E24.42803
G1 X70.646 Y172.697 E24.45864
G1 X69.771 Y172.41 E24.48927
G1 X68.924 Y172.048 E24.51991
G1 X68.112 Y171.614 E24.55053
G1 X67.341 Y171.112 E24.58113
G1 X66.616 Y170.544 E24.61176
G1 X65.943 Y169.915 E24.6424
G1 X65.328 Y169.231 E24.67299
G1 X64.774 Y168.496 E24.70361
G1 X64.286 Y167.715 E24.73424
G1 X63.867 Y166.895 E24.76486
G1 X63.521 Y166.042 E24.79548
G1 X63.251 Y165.162 E24.8261
G1 X63.058 Y164.261 E24.85674
G1 X62.944 Y163.348 E24.88734
G1 X62.913 Y162.777 E24.90636
G1 X62.9 Y162.158 E24.92696
G1 X62.901 Y73.031 E27.89133
G1 X62.91 Y72.366 E27.91345
G1 X62.962 Y71.446 E27.9441
G1 X63.094 Y70.535 E27.97472
G1 X63.305 Y69.639 E28.00533
G1 X63.592 Y68.764 E28.03596
G1 X63.955 Y67.918 E28.06658
G1 X64.389 Y67.106 E28.0972
G1 X64.892 Y66.335 E28.12782
G1 X65.461 Y65.611 E28.15845
G1 X66.089 Y64.939 E28.18904
G0 F6000 X66.481 Y65.117
G1 F1200 X67.162 Y64.524 E28.21907
G1 X67.894 Y63.994 E28.24913
G1 X68.669 Y63.531 E28.27916
G1 X69.482 Y63.138 E28.30919
G1 X70.327 Y62.818 E28.33925
G1 X71.196 Y62.575 E28.36926
G1 X72.084 Y62.409 E28.3993
G1 X73.223 Y62.313 E28.43732
G1 X73.83 Y62.3 E28.45752
G1 X160.939 Y62.301 E31.35477
G1 X161.637 Y62.311 E31.37799
G1 X162.539 Y62.364 E31.40804
G1 X163.432 Y62.496 E31.43807
G1 X164.31 Y62.707 E31.4681
G1 X165.166 Y62.995 E31.49814
G1 X165.993 Y63.357 E31.52817
G1 X166.785 Y63.792 E31.55822
G1 X167.536 Y64.294 E31.58826
G1 X168.239 Y64.861 E31.6183
G1 X168.889 Y65.488 E31.64834
G1 X169.481 Y66.17 E31.67838
G1 X170.011 Y66.901 E31.70841
G1 X170.473 Y67.677 E31.73845
G1 X170.866 Y68.49 E31.76848
G1 X171.184 Y69.335 E31.79851
G1 X171.427 Y70.205 E31.82855
G1 X171.592 Y71.093 E31.85859
G1 X171.687 Y72.223 E31.89631
G1 X171.7 Y72.83 E31.9165
G1 X171.699 Y161.89 E34.87865
G1 X171.69 Y162.617 E34.90283
G1 X171.639 Y163.519 E34.93288
G1 X171.508 Y164.413 E34.96294
G1 X171.299 Y165.291 E34.99295
G1 X171.013 Y166.148 E35.023
G1 X170.652 Y166.976 E35.05305
G1 X170.22 Y167.768 E35.08305
G1 X169.719 Y168.52 E35.11311
G1 X169.153 Y169.224 E35.14315
G1 X168.528 Y169.875 E35.17317
G1 X167.847 Y170.469 E35.20322
G1 X167.116 Y171 E35.23327
G1 X166.342 Y171.464 E35.26329
G1 X165.529 Y171.858 E35.29334
G1 X164.685 Y172.178 E35.32336
G1 X163.815 Y172.423 E35.35342
G1 X162.928 Y172.589 E35.38343
G1 X161.777 Y172.687 E35.42185
G1 X161.17 Y172.7 E35.44205
G1 X74.075 Y172.699 E38.33884
G1 X73.377 Y172.69 E38.36206
G1 X72.476 Y172.639 E38.39207
G1 X71.582 Y172.507 E38.42213
G1 X70.704 Y172.298 E38.45215
G1 X69.847 Y172.011 E38.48221
G1 X69.02 Y171.65 E38.51222
G1 X68.227 Y171.217 E38.54227
G1 X67.476 Y170.716 E38.5723
G1 X66.772 Y170.15 E38.60234
G1 X66.121 Y169.524 E38.63238
G1 X65.528 Y168.843 E38.66241
G1 X64.998 Y168.112 E38.69244
G1 X64.534 Y167.337 E38.72249
G1 X64.14 Y166.524 E38.75254
G1 X63.82 Y165.68 E38.78256
G1 X63.576 Y164.81 E38.81261
G1 X63.41 Y163.922 E38.84266
G1 X63.313 Y162.767 E38.88121
G1 X63.3 Y162.158 E38.90147
G1 X63.301 Y73.036 E41.86568
G1 X63.31 Y72.371 E41.8878
G1 X63.362 Y71.469 E41.91785
G1 X63.494 Y70.576 E41.94787
G1 X63.704 Y69.698 E41.9779
G1 X63.991 Y68.841 E42.00796
G1 X64.353 Y68.014 E42.03798
G1 X64.786 Y67.222 E42.06801
G1 X65.288 Y66.471 E42.09805
G1 X65.855 Y65.767 E42.12812
G1 X66.481 Y65.117 E42.15813
G1 F1500 E35.65813
;MESH:eld-player-pieces.stl
G0 F6000 X73.92 Y71.835
G0 X74.1 Y161.9
;TYPE:WALL-INNER
G1 F1500 E42.15813
G1 F1200 X160.9 Y161.9 E45.04511
G1 X160.9 Y73.1 E47.99861
G1 X74.1 Y73.1 E50.88559
G1 X74.1 Y161.9 E53.83909
G0 F6000 X73.7 Y162.3
;TYPE:WALL-OUTER
G1 F1200 X161.3 Y162.3 E56.75268
G1 X161.3 Y72.7 E59.73279
G1 X73.7 Y72.7 E62.64637
G1 X73.7 Y162.3 E65.62648
G0 F6000 X73.97 Y162.03
G0 X74.2 Y161.54
G0 X74.46 Y161.54
;TYPE:SKIN
G1 F1200 X160.54 Y161.54 E68.48951
G1 X160.54 Y73.46 E71.41907
G1 X74.46 Y73.46 E74.2821
G1 X74.46 Y161.54 E77.21165
G0 F6000 X74.789 Y161.339
G1 F1200 X74.659 Y161.209 E77.21777
G0 F6000 X74.659 Y160.644
G1 F1200 X75.355 Y161.339 E77.25048
G0 F6000 X75.921 Y161.339
G1 F1200 X74.659 Y160.078 E77.30982
G0 F6000 X74.659 Y159.512
G1 F1200 X76.487 Y161.339 E77.39578
G0 F6000 X77.052 Y161.339
G1 F1200 X74.659 Y158.946 E77.50834
G0 F6000 X74.659 Y158.381
G1 F1200 X77.618 Y161.339 E77.6475
G0 F6000 X78.184 Y161.339
G1 F1200 X74.659 Y157.815 E77.81328
G0 F6000 X74.659 Y157.249
G1 F1200 X78.749 Y161.339 E78.00566
G0 F6000 X79.315 Y161.339
G1 F1200 X74.659 Y156.684 E78.22464
G0 F6000 X74.659 Y156.118
G1 F1200 X79.881 Y161.339 E78.47024
G0 F6000 X80.446 Y161.339
G1 F1200 X74.659 Y155.552 E78.74245
G0 F6000 X74.659 Y154.987
G1 F1200 X81.012 Y161.339 E79.04125
G0 F6000 X81.578 Y161.339
G1 F1200 X74.659 Y154.421 E79.36667
G0 F6000 X74.659 Y153.855
G1 F1200 X82.143 Y161.339 E79.7187
G0 F6000 X82.709 Y161.339
G1 F1200 X74.659 Y153.29 E80.09732
G0 F6000 X74.659 Y152.724
G1 F1200 X83.275 Y161.339 E80.50257
G0 F6000 X83.84 Y161.339
G1 F1200 X74.659 Y152.158 E80.93441
G0 F6000 X74.659 Y151.593
G1 F1200 X84.406 Y161.339 E81.39286
G0 F6000 X84.972 Y161.339
G1 F1200 X74.659 Y151.027 E81.87793
G0 F6000 X74.659 Y150.461
G1 F1200 X85.538 Y161.339 E82.38962
G0 F6000 X86.103 Y161.339
G1 F1200 X74.659 Y149.896 E82.92789
G0 F6000 X74.659 Y149.33
G1 F1200 X86.669 Y161.339 E83.49278
G0 F6000 X87.235 Y161.339
G1 F1200 X74.659 Y148.764 E84.08429
G0 F6000 X74.659 Y148.198
G1 F1200 X87.8 Y161.339 E84.7024
G0 F6000 X88.366 Y161.339
G1 F1200 X74.659 Y147.633 E85.34711
G0 F6000 X74.659 Y147.067
G1 F1200 X88.932 Y161.339 E86.01845
G0 F6000 X89.497 Y161.339
G1 F1200 X74.659 Y146.501 E86.71638
G0 F6000 X74.659 Y145.936
G1 F1200 X90.063 Y161.339 E87.44092
G0 F6000 X90.629 Y161.339
G1 F1200 X74.659 Y145.37 E88.19207
G0 F6000 X74.659 Y144.804
G1 F1200 X91.194 Y161.339 E88.96983
G0 F6000 X91.76 Y161.339
G1 F1200 X74.659 Y144.239 E89.77418
G0 F6000 X74.659 Y143.673
G1 F1200 X92.326 Y161.339 E90.60516
G0 F6000 X92.891 Y161.339
G1 F1200 X74.659 Y143.107 E91.46274
G0 F6000 X74.659 Y142.542
G1 F1200 X93.457 Y161.339 E92.34692
G0 F6000 X94.023 Y161.339
G1 F1200 X74.659 Y141.976 E93.25771
G0 F6000 X74.659 Y141.41
G1 F1200 X94.588 Y161.339 E94.19511
G0 F6000 X95.154 Y161.339
G1 F1200 X74.659 Y140.845 E95.15911
G0 F6000 X74.659 Y140.279
G1 F1200 X95.72 Y161.339 E96.14973
G0 F6000 X96.286 Y161.339
G1 F1200 X74.659 Y139.713 E97.16698
G0 F6000 X74.659 Y139.148
G1 F1200 X96.851 Y161.339 E98.2108
G0 F6000 X97.417 Y161.339
G1 F1200 X74.659 Y138.582 E99.28124
G0 F6000 X74.659 Y138.016
G1 F1200 X97.983 Y161.339 E100.37831
G0 F6000 X98.548 Y161.339
G1 F1200 X74.659 Y137.45 E101.50197
G0 F6000 X74.659 Y136.885
G1 F1200 X99.114 Y161.339 E102.65224
G0 F6000 X99.68 Y161.339
G1 F1200 X74.659 Y136.319 E103.82912
G0 F6000 X74.659 Y135.753
G1 F1200 X100.245 Y161.339 E105.03261
G0 F6000 X100.811 Y161.339
G1 F1200 X74.659 Y135.188 E106.2627
G0 F6000 X74.659 Y134.622
G1 F1200 X101.377 Y161.339 E107.51941
G0 F6000 X101.942 Y161.339
G1 F1200 X74.659 Y134.056 E108.80272
G0 F6000 X74.659 Y133.491
G1 F1200 X102.508 Y161.339 E110.11262
G0 F6000 X103.074 Y161.339
G1 F1200 X74.659 Y132.925 E111.44916
G0 F6000 X74.659 Y132.359
G1 F1200 X103.639 Y161.339 E112.81229
G0 F6000 X104.205 Y161.339
G1 F1200 X74.659 Y131.794 E114.20202
G0 F6000 X74.659 Y131.228
G1 F1200 X104.771 Y161.339 E115.61837
G0 F6000 X105.336 Y161.339
G1 F1200 X74.659 Y130.662 E117.06132
G0 F6000 X74.659 Y130.097
G1 F1200 X105.902 Y161.339 E118.53087
G0 F6000 X106.468 Y161.339
G1 F1200 X74.659 Y129.531 E120.02705
G0 F6000 X74.659 Y128.965
G1 F1200 X107.034 Y161.339 E121.54984
G0 F6000 X107.599 Y161.339
G1 F1200 X74.659 Y128.399 E123.09924
G0 F6000 X74.659 Y127.834
G1 F1200 X108.165 Y161.339 E124.67524
G0 F6000 X108.731 Y161.339
G1 F1200 X74.659 Y127.268 E126.27785
G0 F6000 X74.659 Y126.702
G1 F1200 X109.296 Y161.339 E127.90707
G0 F6000 X109.862 Y161.339
G1 F1200 X74.659 Y126.137 E129.56289
G0 F6000 X74.659 Y125.571
G1 F1200 X110.428 Y161.339 E131.24533
G0 F6000 X110.993 Y161.339
G1 F1200 X74.659 Y125.005 E132.95437
G0 F6000 X74.659 Y124.44
G1 F1200 X111.559 Y161.339 E134.69001
G0 F6000 X112.125 Y161.339
G1 F1200 X74.659 Y123.874 E136.45227
G0 F6000 X74.659 Y123.308
G1 F1200 X112.69 Y161.339 E138.24113
G0 F6000 X113.256 Y161.339
G1 F1200 X74.659 Y122.743 E140.05659
G0 F6000 X74.659 Y122.177
G1 F1200 X113.822 Y161.339 E141.89868
G0 F6000 X114.387 Y161.339
G1 F1200 X74.659 Y121.611 E143.76736
G0 F6000 X74.659 Y121.046
G1 F1200 X114.953 Y161.339 E145.66264
G0 F6000 X115.519 Y161.339
G1 F1200 X74.659 Y120.48 E147.58455
G0 F6000 X74.659 Y119.914
G1 F1200 X116.085 Y161.339 E149.53308
G0 F6000 X116.65 Y161.339
G1 F1200 X74.659 Y119.349 E151.50818
G0 F6000 X74.659 Y118.783
G1 F1200 X117.216 Y161.339 E153.50991
G0 F6000 X117.782 Y161.339
G1 F1200 X74.659 Y118.217 E155.53826
G0 F6000 X74.659 Y117.651
G1 F1200 X118.347 Y161.339 E157.59321
G0 F6000 X118.913 Y161.339
G1 F1200 X74.659 Y117.086 E159.67476
G0 F6000 X74.659 Y116.52
G1 F1200 X119.479 Y161.339 E161.78293
G0 F6000 X120.044 Y161.339
G1 F1200 X74.659 Y115.954 E163.9177
G0 F6000 X74.659 Y115.389
G1 F1200 X120.61 Y161.339 E166.07907
G0 F6000 X121.176 Y161.339
G1 F1200 X74.659 Y114.823 E168.26707
G0 F6000 X74.659 Y114.257
G1 F1200 X121.741 Y161.339 E170.48166
G0 F6000 X122.307 Y161.339
G1 F1200 X74.659 Y113.692 E172.72285
G0 F6000 X74.659 Y113.126
G1 F1200 X122.873 Y161.339 E174.99067
G0 F6000 X123.438 Y161.339
G1 F1200 X74.659 Y112.56 E177.28508
G0 F6000 X74.659 Y111.995
G1 F1200 X124.004 Y161.339 E179.6061
G0 F6000 X124.57 Y161.339
G1 F1200 X74.659 Y111.429 E181.95373
G0 F6000 X74.659 Y110.863
G1 F1200 X125.135 Y161.339 E184.32797
G0 F6000 X125.701 Y161.339
G1 F1200 X74.659 Y110.298 E186.7288
G0 F6000 X74.659 Y109.732
G1 F1200 X126.267 Y161.339 E189.15626
G0 F6000 X126.833 Y161.339
G1 F1200 X74.659 Y109.166 E191.61034
G0 F6000 X74.659 Y108.6
G1 F1200 X127.398 Y161.339 E194.09103
G0 F6000 X127.964 Y161.339
G1 F1200 X74.659 Y108.035 E196.59831
G0 F6000 X74.659 Y107.469
G1 F1200 X128.53 Y161.339 E199.13221
G0 F6000 X129.095 Y161.339
G1 F1200 X74.659 Y106.903 E201.69271
G0 F6000 X74.659 Y106.338
G1 F1200 X129.661 Y161.339 E204.27981
G0 F6000 X130.227 Y161.339
G1 F1200 X74.659 Y105.772 E206.89354
G0 F6000 X74.659 Y105.206
G1 F1200 X130.792 Y161.339 E209.53386
G0 F6000 X131.358 Y161.339
G1 F1200 X74.659 Y104.641 E212.20079
G0 F6000 X74.659 Y104.075
G1 F1200 X131.924 Y161.339 E214.89433
G0 F6000 X132.489 Y161.339
G1 F1200 X74.659 Y103.509 E217.61448
G0 F6000 X74.659 Y102.944
G1 F1200 X133.055 Y161.339 E220.36122
G0 F6000 X133.621 Y161.339
G1 F1200 X74.659 Y102.378 E223.13459
G0 F6000 X74.659 Y101.812
G1 F1200 X134.186 Y161.339 E225.93456
G0 F6000 X134.752 Y161.339
G1 F1200 X74.659 Y101.247 E228.76113
G0 F6000 X74.659 Y100.681
G1 F1200 X135.318 Y161.339 E231.61432
G0 F6000 X135.884 Y161.339
G1 F1200 X74.659 Y100.115 E234.49413
G0 F6000 X74.659 Y99.55
G1 F1200 X136.449 Y161.339 E237.40052
G0 F6000 X137.015 Y161.339
G1 F1200 X74.659 Y98.984 E240.33353
G0 F6000 X74.659 Y98.418
G1 F1200 X137.581 Y161.339 E243.29316
G0 F6000 X138.146 Y161.339
