;FLAVOR:Marlin
;TIME:54562
;Filament used: 41.8633m
;Layer height: 0.2
;MINX:62.5
;MINY:21.5
;MINZ:0.2
;MAXX:172.5
;MAXY:213.5
;MAXZ:66
;Generated with Cura_SteamEngine 5.2.1
M140 S60
M105
M190 S60
M104 S200
M105
M109 S200
M82 ;absolute extrusion mode
M201 X500.00 Y500.00 Z100.00 E5000.00 ;Setup machine max acceleration
M203 X500.00 Y500.00 Z10.00 E50.00 ;Setup machine max feedrate
M204 P500.00 R1000.00 T500.00 ;Setup Print/Retract/Travel acceleration
M205 X8.00 Y8.00 Z0.40 E5.00 ;Setup Jerk
M220 S100 ;Reset Feedrate
M221 S100 ;Reset Flowrate

G28 ;Home

G92 E0 ;Reset Extruder
G1 Z2.0 F3000 ;Move Z Axis up
G1 X10.1 Y20 Z0.28 F5000.0 ;Move to start position
G1 X10.1 Y200.0 Z0.28 F1500.0 E15 ;Draw the first line
G1 X10.4 Y200.0 Z0.28 F5000.0 ;Move to side a little
G1 X10.4 Y20 Z0.28 F1500.0 E30 ;Draw the second line
G92 E0 ;Reset Extruder
G1 Z2.0 F3000 ;Move Z Axis up

G92 E0
G92 E0
G1 F1500 E-6.5
;LAYER_COUNT:330
;LAYER:0
M107
G0 F6000 X63.557 Y27.824 Z0.2
;TYPE:SKIRT
G1 F1500 E0
G1 F1200 X63.992 Y26.993 E0.0312
G1 X64.496 Y26.203 E0.06236
G1 X65.066 Y25.458 E0.09356
G1 X65.698 Y24.764 E0.12478
G1 X66.386 Y24.127 E0.15597
G1 X67.126 Y23.551 E0.18716
G1 X67.912 Y23.039 E0.21836
G1 X68.739 Y22.597 E0.24955
G1 X69.601 Y22.227 E0.28075
G1 X70.491 Y21.931 E0.31194
G1 X71.403 Y21.713 E0.34313
G1 X72.33 Y21.572 E0.37432
G1 X73.201 Y21.513 E0.40335
G1 X73.83 Y21.5 E0.42428
G1 X160.951 Y21.501 E3.32193
G1 X161.649 Y21.511 E3.34515
G1 X162.585 Y21.565 E3.37633
G1 X163.513 Y21.697 E3.40751
G1 X164.427 Y21.909 E3.43872
G1 X165.319 Y22.198 E3.4699
G1 X166.184 Y22.561 E3.5011
G1 X167.014 Y22.997 E3.53229
G1 X167.805 Y23.502 E3.5635
G1 X168.549 Y24.073 E3.59469
G1 X169.242 Y24.705 E3.62589
G1 X169.879 Y25.393 E3.65707
G1 X170.454 Y26.134 E3.68827
G1 X170.965 Y26.92 E3.71945
G1 X171.407 Y27.748 E3.75067
G1 X171.776 Y28.61 E3.78186
G1 X172.071 Y29.5 E3.81304
G1 X172.289 Y30.412 E3.84423
G1 X172.429 Y31.34 E3.87544
G1 X172.487 Y32.201 E3.90414
G1 X172.5 Y32.83 E3.92507
G1 X172.499 Y201.9 E9.54836
G1 X172.49 Y202.627 E9.57254
G1 X172.439 Y203.564 E9.60375
G1 X172.307 Y204.492 E9.63493
G1 X172.098 Y205.406 E9.66611
G1 X171.811 Y206.299 E9.69731
G1 X171.449 Y207.165 E9.72853
G1 X171.015 Y207.996 E9.75971
G1 X170.511 Y208.787 E9.79091
G1 X169.942 Y209.532 E9.82209
G1 X169.311 Y210.227 E9.85331
G1 X168.624 Y210.865 E9.88449
G1 X167.885 Y211.442 E9.91568
G1 X167.099 Y211.954 E9.94688
G1 X166.273 Y212.397 E9.97805
G1 X165.411 Y212.769 E10.00928
G1 X164.522 Y213.065 E10.04044
G1 X163.61 Y213.285 E10.07164
G1 X162.683 Y213.426 E10.10283
G1 X161.799 Y213.487 E10.1323
G1 X161.17 Y213.5 E10.15323
G1 X74.065 Y213.499 E13.05035
G1 X73.367 Y213.49 E13.07357
G1 X72.431 Y213.438 E13.10475
G1 X71.502 Y213.306 E13.13596
G1 X70.588 Y213.096 E13.16715
G1 X69.695 Y212.809 E13.19835
G1 X68.83 Y212.446 E13.22955
G1 X67.999 Y212.012 E13.26073
G1 X67.208 Y211.508 E13.29192
G1 X66.463 Y210.938 E13.32312
G1 X65.769 Y210.307 E13.35432
G1 X65.132 Y209.62 E13.38548
G1 X64.555 Y208.88 E13.41669
G1 X64.043 Y208.094 E13.44789
G1 X63.6 Y207.267 E13.4791
G1 X63.229 Y206.406 E13.51028
G1 X62.933 Y205.516 E13.54147
G1 X62.714 Y204.604 E13.57267
G1 X62.573 Y203.677 E13.60386
G1 X62.513 Y202.788 E13.63349
G1 X62.5 Y202.158 E13.65445
G1 X62.501 Y33.025 E19.27984
G1 X62.51 Y32.36 E19.30196
G1 X62.563 Y31.424 E19.33314
G1 X62.695 Y30.495 E19.36435
G1 X62.906 Y29.581 E19.39555
G1 X63.194 Y28.689 E19.42672
G1 X63.557 Y27.824 E19.45792
G0 F6000 X63.955 Y27.918
G1 F1200 X64.389 Y27.106 E19.48855
G1 X64.892 Y26.335 E19.51916
G1 X65.461 Y25.611 E19.54979
G1 X66.089 Y24.939 E19.58038
G1 X66.774 Y24.323 E19.61102
G1 X67.51 Y23.77 E19.64164
G1 X68.291 Y23.282 E19.67227
G1 X69.111 Y22.864 E19.70288
G1 X69.965 Y22.519 E19.73352
G1 X70.845 Y22.249 E19.76413
G1 X71.745 Y22.057 E19.79474
G1 X72.659 Y21.943 E19.82538
G1 X73.212 Y21.913 E19.8438
G1 X73.83 Y21.9 E19.86436
G1 X160.945 Y21.901 E22.76181
G1 X161.643 Y21.911 E22.78503
G1 X162.562 Y21.964 E22.81565
G1 X163.473 Y22.097 E22.84627
G1 X164.369 Y22.308 E22.87689
G1 X165.243 Y22.596 E22.90749
G1 X166.09 Y22.959 E22.93814
G1 X166.901 Y23.394 E22.96875
G1 X167.671 Y23.898 E22.99936
G1 X168.395 Y24.467 E23.02999
G1 X169.067 Y25.097 E23.06062
G1 X169.682 Y25.782 E23.09124
G1 X170.235 Y26.518 E23.12186
G1 X170.722 Y27.299 E23.15247
G1 X171.139 Y28.12 E23.1831
G1 X171.484 Y28.974 E23.21374
G1 X171.753 Y29.854 E23.24434
G1 X171.945 Y30.755 E23.27498
G1 X172.058 Y31.668 E23.30558
G1 X172.087 Y32.212 E23.3237
G1 X172.1 Y32.83 E23.34426
G1 X172.099 Y201.895 E28.96738
G1 X172.09 Y202.622 E28.99157
G1 X172.039 Y203.541 E29.02218
G1 X171.908 Y204.453 E29.05282
G1 X171.698 Y205.349 E29.08343
G1 X171.412 Y206.224 E29.11405
G1 X171.051 Y207.071 E29.14467
G1 X170.617 Y207.883 E29.1753
G1 X170.115 Y208.655 E29.20592
G1 X169.547 Y209.38 E29.23656
G1 X168.919 Y210.053 E29.26717
G1 X168.235 Y210.669 E29.29779
G1 X167.5 Y211.223 E29.3284
G1 X166.72 Y211.712 E29.35902
G1 X165.9 Y212.131 E29.38965
G1 X165.047 Y212.477 E29.42026
G1 X164.167 Y212.748 E29.45089
G1 X163.267 Y212.941 E29.4815
G1 X162.353 Y213.056 E29.51214
G1 X161.788 Y213.087 E29.53096
G1 X161.17 Y213.1 E29.55152
G1 X74.07 Y213.099 E32.44848
G1 X73.372 Y213.09 E32.4717
G1 X72.453 Y213.038 E32.50231
G1 X71.542 Y212.907 E32.53292
G1 X70.646 Y212.697 E32.56353
G1 X69.771 Y212.41 E32.59416
G1 X68.924 Y212.048 E32.6248
G1 X68.112 Y211.614 E32.65542
G1 X67.341 Y211.112 E32.68602
G1 X66.616 Y210.544 E32.71665
G1 X65.943 Y209.915 E32.74729
G1 X65.328 Y209.231 E32.77789
G1 X64.774 Y208.496 E32.8085
G1 X64.286 Y207.715 E32.83913
G1 X63.867 Y206.895 E32.86976
G1 X63.521 Y206.042 E32.90037
G1 X63.251 Y205.162 E32.93099
G1 X63.058 Y204.261 E32.96163
G1 X62.944 Y203.348 E32.99224
G1 X62.913 Y202.777 E33.01126
G1 X62.9 Y202.158 E33.03185
G1 X62.901 Y33.031 E38.65704
G1 X62.91 Y32.366 E38.67916
G1 X62.962 Y31.446 E38.7098
G1 X63.094 Y30.535 E38.74042
G1 X63.305 Y29.639 E38.77104
G1 X63.592 Y28.764 E38.80166
G1 X63.955 Y27.918 E38.83228
G0 F6000 X64.353 Y28.014
G1 F1200 X64.786 Y27.222 E38.86231
G1 X65.288 Y26.471 E38.89235
G1 X65.855 Y25.767 E38.92242
G1 X66.481 Y25.117 E38.95243
G1 X67.162 Y24.524 E38.98246
G1 X67.894 Y23.994 E39.01252
G1 X68.669 Y23.531 E39.04255
G1 X69.482 Y23.138 E39.07258
G1 X70.327 Y22.818 E39.10264
G1 X71.196 Y22.575 E39.13265
G1 X72.084 Y22.409 E39.16269
G1 X73.223 Y22.313 E39.20071
G1 X73.83 Y22.3 E39.22091
G1 X160.939 Y22.301 E42.11816
G1 X161.637 Y22.311 E42.14138
G1 X162.539 Y22.364 E42.17143
G1 X163.432 Y22.496 E42.20146
G1 X164.31 Y22.707 E42.23149
G1 X165.166 Y22.995 E42.26153
G1 X165.993 Y23.357 E42.29156
G1 X166.785 Y23.792 E42.32161
G1 X167.536 Y24.294 E42.35165
G1 X168.239 Y24.861 E42.38169
G1 X168.889 Y25.488 E42.41173
G1 X169.481 Y26.17 E42.44177
G1 X170.011 Y26.901 E42.4718
G1 X170.473 Y27.677 E42.50184
G1 X170.866 Y28.49 E42.53187
G1 X171.184 Y29.335 E42.5619
G1 X171.427 Y30.205 E42.59194
G1 X171.592 Y31.093 E42.62198
G1 X171.687 Y32.223 E42.6597
G1 X171.7 Y32.83 E42.67989
G1 X171.699 Y201.89 E48.30285
G1 X171.69 Y202.617 E48.32704
G1 X171.639 Y203.519 E48.35708
G1 X171.508 Y204.413 E48.38714
G1 X171.299 Y205.291 E48.41715
G1 X171.013 Y206.148 E48.4472
G1 X170.652 Y206.976 E48.47725
G1 X170.22 Y207.768 E48.50725
G1 X169.719 Y208.52 E48.53731
G1 X169.153 Y209.224 E48.56735
G1 X168.528 Y209.875 E48.59737
G1 X167.847 Y210.469 E48.62742
G1 X167.116 Y211 E48.65747
G1 X166.342 Y211.464 E48.68749
G1 X165.529 Y211.858 E48.71754
G1 X164.685 Y212.178 E48.74756
G1 X163.815 Y212.423 E48.77762
G1 X162.928 Y212.589 E48.80763
G1 X161.777 Y212.687 E48.84605
G1 X161.17 Y212.7 E48.86625
G1 X74.075 Y212.699 E51.76304
G1 X73.377 Y212.69 E51.78626
G1 X72.476 Y212.639 E51.81627
G1 X71.582 Y212.507 E51.84633
G1 X70.704 Y212.298 E51.87635
G1 X69.847 Y212.011 E51.90641
G1 X69.02 Y211.65 E51.93642
G1 X68.227 Y211.217 E51.96647
G1 X67.476 Y210.716 E51.9965
G1 X66.772 Y210.15 E52.02654
G1 X66.121 Y209.524 E52.05658
G1 X65.528 Y208.843 E52.08661
G1 X64.998 Y208.112 E52.11665
G1 X64.534 Y207.337 E52.14669
G1 X64.14 Y206.524 E52.17674
G1 X63.82 Y205.68 E52.20676
G1 X63.576 Y204.81 E52.23681
G1 X63.41 Y203.922 E52.26686
G1 X63.313 Y202.767 E52.30541
G1 X63.3 Y202.158 E52.32567
G1 X63.301 Y33.036 E57.95069
G1 X63.31 Y32.371 E57.97281
G1 X63.362 Y31.469 E58.00286
G1 X63.494 Y30.576 E58.03288
G1 X63.704 Y29.698 E58.06291
G1 X63.991 Y28.841 E58.09297
G1 X64.353 Y28.014 E58.123
G1 F1500 E51.623
;MESH:eld-cards.stl
G0 F6000 X72.835 Y33.3
G0 X74.1 Y201.9
;TYPE:WALL-INNER
G1 F1500 E58.123
G1 F1200 X160.9 Y201.9 E61.00998
G1 X160.9 Y33.1 E66.62429
G1 X74.1 Y33.1 E69.51127
G1 X74.1 Y201.9 E75.12558
G0 F6000 X73.7 Y202.3
;TYPE:WALL-OUTER
G1 F1200 X161.3 Y202.3 E78.03916
G1 X161.3 Y32.7 E83.68008
G1 X73.7 Y32.7 E86.59367
G1 X73.7 Y202.3 E92.23459
G0 F6000 X73.97 Y202.03
G0 X74.2 Y201.54
G0 X74.46 Y201.54
;TYPE:SKIN
G1 F1200 X160.54 Y201.54 E95.09762
G1 X160.54 Y33.46 E100.68799
G1 X74.46 Y33.46 E103.55102
G1 X74.46 Y76.5 E104.98254
G1 X74.46 Y201.54 E109.14138
G0 F6000 X75.191 Y201.339
G1 F1200 X74.659 Y200.807 E109.16641
G0 F6000 X74.659 Y200.241
G1 F1200 X75.757 Y201.339 E109.21805
G0 F6000 X76.322 Y201.339
G1 F1200 X74.659 Y199.675 E109.2963
G0 F6000 X74.659 Y199.109
G1 F1200 X76.888 Y201.339 E109.40117
G0 F6000 X77.454 Y201.339
G1 F1200 X74.659 Y198.544 E109.53264
G0 F6000 X74.659 Y197.978
G1 F1200 X78.02 Y201.339 E109.69073
G0 F6000 X78.585 Y201.339
G1 F1200 X74.659 Y197.412 E109.87542
G0 F6000 X74.659 Y196.847
G1 F1200 X79.151 Y201.339 E110.08671
G0 F6000 X79.717 Y201.339
G1 F1200 X74.659 Y196.281 E110.32462
G0 F6000 X74.659 Y195.715
G1 F1200 X80.282 Y201.339 E110.58913
G0 F6000 X80.848 Y201.339
G1 F1200 X74.659 Y195.15 E110.88024
G0 F6000 X74.659 Y194.584
G1 F1200 X81.414 Y201.339 E111.19798
G0 F6000 X81.979 Y201.339
G1 F1200 X74.659 Y194.018 E111.54231
G0 F6000 X74.659 Y193.453
G1 F1200 X82.545 Y201.339 E111.91325
G0 F6000 X83.111 Y201.339
G1 F1200 X74.659 Y192.887 E112.3108
G0 F6000 X74.659 Y192.321
G1 F1200 X83.676 Y201.339 E112.73496
G0 F6000 X84.242 Y201.339
G1 F1200 X74.659 Y191.756 E113.18571
G0 F6000 X74.659 Y191.19
G1 F1200 X84.808 Y201.339 E113.66309
G0 F6000 X85.373 Y201.339
G1 F1200 X74.659 Y190.624 E114.16707
G0 F6000 X74.659 Y190.058
G1 F1200 X85.939 Y201.339 E114.69767
G0 F6000 X86.505 Y201.339
G1 F1200 X74.659 Y189.493 E115.25487
G0 F6000 X74.659 Y188.927
G1 F1200 X87.071 Y201.339 E115.83869
G0 F6000 X87.636 Y201.339
G1 F1200 X74.659 Y188.361 E116.44911
G0 F6000 X74.659 Y187.796
G1 F1200 X88.202 Y201.339 E117.08613
G0 F6000 X88.768 Y201.339
G1 F1200 X74.659 Y187.23 E117.74978
G0 F6000 X74.659 Y186.664
G1 F1200 X89.333 Y201.339 E118.44002
G0 F6000 X89.899 Y201.339
G1 F1200 X74.659 Y186.099 E119.15686
G0 F6000 X74.659 Y185.533
G1 F1200 X90.465 Y201.339 E119.90033
G0 F6000 X91.03 Y201.339
G1 F1200 X74.659 Y184.967 E120.67039
G0 F6000 X74.659 Y184.402
G1 F1200 X91.596 Y201.339 E121.46706
G0 F6000 X92.162 Y201.339
G1 F1200 X74.659 Y183.836 E122.29035
G0 F6000 X74.659 Y183.27
G1 F1200 X92.727 Y201.339 E123.14023
G0 F6000 X93.293 Y201.339
G1 F1200 X74.659 Y182.705 E124.01672
G0 F6000 X74.659 Y182.139
G1 F1200 X93.859 Y201.339 E124.91983
G0 F6000 X94.424 Y201.339
G1 F1200 X74.659 Y181.573 E125.84954
G0 F6000 X74.659 Y181.008
G1 F1200 X94.99 Y201.339 E126.80584
G0 F6000 X95.556 Y201.339
G1 F1200 X74.659 Y180.442 E127.78878
G0 F6000 X74.659 Y179.876
G1 F1200 X96.121 Y201.339 E128.79831
G0 F6000 X96.687 Y201.339
G1 F1200 X74.659 Y179.31 E129.83446
G0 F6000 X74.659 Y178.745
G1 F1200 X97.253 Y201.339 E130.89721
G0 F6000 X97.819 Y201.339
G1 F1200 X74.659 Y178.179 E131.98659
G0 F6000 X74.659 Y177.613
G1 F1200 X98.384 Y201.339 E133.10256
G0 F6000 X98.95 Y201.339
G1 F1200 X74.659 Y177.048 E134.24514
G0 F6000 X74.659 Y176.482
G1 F1200 X99.516 Y201.339 E135.41433
G0 F6000 X100.081 Y201.339
G1 F1200 X74.659 Y175.916 E136.61013
G0 F6000 X74.659 Y175.351
G1 F1200 X100.647 Y201.339 E137.83252
G0 F6000 X101.213 Y201.339
G1 F1200 X74.659 Y174.785 E139.08154
G0 F6000 X74.659 Y174.219
G1 F1200 X101.778 Y201.339 E140.35716
G0 F6000 X102.344 Y201.339
G1 F1200 X74.659 Y173.654 E141.65938
G0 F6000 X74.659 Y173.088
G1 F1200 X102.91 Y201.339 E142.98822
G0 F6000 X103.475 Y201.339
G1 F1200 X74.659 Y172.522 E144.34366
G0 F6000 X74.659 Y171.957
G1 F1200 X104.041 Y201.339 E145.7257
G0 F6000 X104.607 Y201.339
G1 F1200 X74.659 Y171.391 E147.13436
G0 F6000 X74.659 Y170.825
G1 F1200 X105.172 Y201.339 E148.56962
G0 F6000 X105.738 Y201.339
G1 F1200 X74.659 Y170.259 E150.03151
G0 F6000 X74.659 Y169.694
G1 F1200 X106.304 Y201.339 E151.51999
G0 F6000 X106.869 Y201.339
G1 F1200 X74.659 Y169.128 E153.03507
G0 F6000 X74.659 Y168.562
G1 F1200 X107.435 Y201.339 E154.57678
G0 F6000 X108.001 Y201.339
G1 F1200 X74.659 Y167.997 E156.14508
G0 F6000 X74.659 Y167.431
G1 F1200 X108.567 Y201.339 E157.74001
G0 F6000 X109.132 Y201.339
G1 F1200 X74.659 Y166.865 E159.36154
G0 F6000 X74.659 Y166.3
G1 F1200 X109.698 Y201.339 E161.00967
G0 F6000 X110.264 Y201.339
G1 F1200 X74.659 Y165.734 E162.68442
G0 F6000 X74.659 Y165.168
G1 F1200 X110.829 Y201.339 E164.38577
G0 F6000 X111.395 Y201.339
G1 F1200 X74.659 Y164.603 E166.11372
G0 F6000 X74.659 Y164.037
G1 F1200 X111.961 Y201.339 E167.86829
G0 F6000 X112.526 Y201.339
G1 F1200 X74.659 Y163.471 E169.64946
G0 F6000 X74.659 Y162.906
G1 F1200 X113.092 Y201.339 E171.45723
G0 F6000 X113.658 Y201.339
G1 F1200 X74.659 Y162.34 E173.29162
G0 F6000 X74.659 Y161.774
G1 F1200 X114.223 Y201.339 E175.15262
G0 F6000 X114.789 Y201.339
G1 F1200 X74.659 Y161.209 E177.04021
G0 F6000 X74.659 Y160.643
G1 F1200 X115.355 Y201.339 E178.95442
G0 F6000 X115.92 Y201.339
G1 F1200 X74.659 Y160.077 E180.89524
G0 F6000 X74.659 Y159.511
G1 F1200 X116.486 Y201.339 E182.86267
G0 F6000 X117.052 Y201.339
G1 F1200 X74.659 Y158.946 E184.85671
G0 F6000 X74.659 Y158.38
G1 F1200 X117.618 Y201.339 E186.87737
G0 F6000 X118.183 Y201.339
G1 F1200 X74.659 Y157.814 E188.92463
G0 F6000 X74.659 Y157.249
G1 F1200 X118.749 Y201.339 E190.99849
G0 F6000 X119.315 Y201.339
G1 F1200 X74.659 Y156.683 E193.09897
G0 F6000 X74.659 Y156.117
G1 F1200 X119.88 Y201.339 E195.22605
G0 F6000 X120.446 Y201.339
G1 F1200 X74.659 Y155.552 E197.37973
G0 F6000 X74.659 Y154.986
G1 F1200 X121.012 Y201.339 E199.56003
G0 F6000 X121.577 Y201.339
G1 F1200 X74.659 Y154.42 E201.76694
G0 F6000 X74.659 Y153.855
G1 F1200 X122.143 Y201.339 E204.00044
G0 F6000 X122.709 Y201.339
G1 F1200 X74.659 Y153.289 E206.26056
G0 F6000 X74.659 Y152.723
G1 F1200 X123.274 Y201.339 E208.54729
G0 F6000 X123.84 Y201.339
G1 F1200 X74.659 Y152.158 E210.86061
G0 F6000 X74.659 Y151.592
G1 F1200 X124.406 Y201.339 E213.20056
G0 F6000 X124.971 Y201.339
G1 F1200 X74.659 Y151.026 E215.5671
G0 F6000 X74.659 Y150.461
G1 F1200 X125.537 Y201.339 E217.96025
G0 F6000 X126.103 Y201.339
G1 F1200 X74.659 Y149.895 E220.38002
G0 F6000 X74.659 Y149.329
G1 F1200 X126.668 Y201.339 E222.82638
G0 F6000 X127.234 Y201.339
G1 F1200 X74.659 Y148.763 E225.29937
G0 F6000 X74.659 Y148.198
G1 F1200 X127.8 Y201.339 E227.79896
G0 F6000 X128.366 Y201.339
G1 F1200 X74.659 Y147.632 E230.32518
G0 F6000 X74.659 Y147.066
G1 F1200 X128.931 Y201.339 E232.87799
G0 F6000 X129.497 Y201.339
G1 F1200 X74.659 Y146.501 E235.4574
G0 F6000 X74.659 Y145.935
G1 F1200 X130.063 Y201.339 E238.06343
G0 F6000 X130.628 Y201.339
G1 F1200 X74.659 Y145.369 E240.69607
G0 F6000 X74.659 Y144.804
G1 F1200 X131.194 Y201.339 E243.3553
G0 F6000 X131.76 Y201.339
G1 F1200 X74.659 Y144.238 E246.04116
G0 F6000 X74.659 Y143.672
G1 F1200 X132.325 Y201.339 E248.75361
G0 F6000 X132.891 Y201.339
G1 F1200 X74.659 Y143.107 E251.49267
G0 F6000 X74.659 Y142.541
G1 F1200 X133.457 Y201.339 E254.25834
G0 F6000 X134.022 Y201.339
G1 F1200 X74.659 Y141.975 E257.05062
G0 F6000 X74.659 Y141.41
G1 F1200 X134.588 Y201.339 E259.8695
G0 F6000 X135.154 Y201.339
G1 F1200 X74.659 Y140.844 E262.715
G0 F6000 X74.659 Y140.278
G1 F1200 X135.719 Y201.339 E265.5871
G0 F6000 X136.285 Y201.339
G1 F1200 X74.659 Y139.712 E268.48582
G0 F6000 X74.659 Y139.147
G1 F1200 X136.851 Y201.339 E271.41114
G0 F6000 X137.417 Y201.339
G1 F1200 X74.659 Y138.581 E274.36308
G0 F6000 X74.659 Y138.015
