;FLAVOR:Marlin
;TIME:18828
;Filament used: 14.5501m
;Layer height: 0.2
;MINX:35.5
;MINY:69
;MINZ:0.2
;MAXX:199.5
;MAXY:140.5
;MAXZ:26
;Generated with Cura_SteamEngine 5.2.1
M140 S60
M105
M190 S60
M104 S200
M105
M109 S200
M82 ;absolute extrusion mode
M201 X500.00 Y500.00 Z100.00 E5000.00 ;Setup machine max acceleration
M203 X500.00 Y500.00 Z10.00 E50.00 ;Setup machine max feedrate
M204 P500.00 R1000.00 T500.00 ;Setup Print/Retract/Travel acceleration
M205 X8.00 Y8.00 Z0.40 E5.00 ;Setup Jerk
M220 S100 ;Reset Feedrate
M221 S100 ;Reset Flowrate

G28 ;Home

G92 E0 ;Reset Extruder
G1 Z2.0 F3000 ;Move Z Axis up
G1 X10.1 Y20 Z0.28 F5000.0 ;Move to start position
G1 X10.1 Y200.0 Z0.28 F1500.0 E15 ;Draw the first line
G1 X10.4 Y200.0 Z0.28 F5000.0 ;Move to side a little
G1 X10.4 Y20 Z0.28 F1500.0 E30 ;Draw the second line
G92 E0 ;Reset Extruder
G1 Z2.0 F3000 ;Move Z Axis up

G92 E0
G92 E0
G1 F1500 E-6.5
;LAYER_COUNT:130
;LAYER:0
M107
G0 F6000 X40.912 Y70.539 Z0.2
;TYPE:SKIRT
G1 F1500 E0
G1 F1200 X41.739 Y70.097 E0.03119
G1 X42.601 Y69.727 E0.06239
G1 X43.491 Y69.431 E0.09358
G1 X44.403 Y69.213 E0.12477
G1 X45.33 Y69.072 E0.15596
G1 X46.201 Y69.013 E0.18499
G1 X46.83 Y69 E0.20592
G1 X187.951 Y69.001 E4.89962
G1 X188.649 Y69.011 E4.92284
G1 X189.585 Y69.065 E4.95402
G1 X190.513 Y69.197 E4.9852
G1 X191.427 Y69.409 E5.01641
G1 X192.319 Y69.698 E5.04759
G1 X193.184 Y70.061 E5.07879
G1 X194.014 Y70.497 E5.10998
G1 X194.805 Y71.002 E5.14119
G1 X195.549 Y71.573 E5.17238
G1 X196.242 Y72.205 E5.20358
G1 X196.879 Y72.893 E5.23476
G1 X197.454 Y73.634 E5.26596
G1 X197.965 Y74.42 E5.29714
G1 X198.407 Y75.248 E5.32836
G1 X198.776 Y76.11 E5.35954
G1 X199.071 Y77 E5.39073
G1 X199.289 Y77.912 E5.42192
G1 X199.429 Y78.84 E5.45313
G1 X199.487 Y79.701 E5.48183
G1 X199.5 Y80.33 E5.50276
G1 X199.499 Y128.9 E7.1182
G1 X199.49 Y129.627 E7.14239
G1 X199.439 Y130.564 E7.1736
G1 X199.307 Y131.492 E7.20477
G1 X199.098 Y132.406 E7.23596
G1 X198.811 Y133.299 E7.26716
G1 X198.449 Y134.165 E7.29837
G1 X198.015 Y134.996 E7.32956
G1 X197.511 Y135.787 E7.36075
G1 X196.942 Y136.532 E7.39193
G1 X196.311 Y137.227 E7.42315
G1 X195.624 Y137.865 E7.45433
G1 X194.885 Y138.442 E7.48552
G1 X194.099 Y138.954 E7.51672
G1 X193.273 Y139.397 E7.54789
G1 X192.411 Y139.769 E7.57912
G1 X191.522 Y140.065 E7.61028
G1 X190.61 Y140.285 E7.64149
G1 X189.683 Y140.426 E7.67267
G1 X188.799 Y140.487 E7.70215
G1 X188.17 Y140.5 E7.72307
G1 X47.065 Y140.499 E12.41624
G1 X46.367 Y140.49 E12.43946
G1 X45.431 Y140.438 E12.47064
G1 X44.502 Y140.306 E12.50185
G1 X43.588 Y140.096 E12.53304
G1 X42.695 Y139.809 E12.56424
G1 X41.83 Y139.446 E12.59544
G1 X40.999 Y139.012 E12.62662
G1 X40.208 Y138.508 E12.65781
G1 X39.463 Y137.938 E12.68901
G1 X38.769 Y137.307 E12.72021
G1 X38.132 Y136.62 E12.75137
G1 X37.555 Y135.88 E12.78258
G1 X37.043 Y135.094 E12.81378
G1 X36.6 Y134.267 E12.84499
G1 X36.229 Y133.406 E12.87617
G1 X35.933 Y132.516 E12.90736
G1 X35.714 Y131.604 E12.93856
G1 X35.573 Y130.677 E12.96975
G1 X35.513 Y129.788 E12.99938
G1 X35.5 Y129.158 E13.02034
G1 X35.501 Y80.525 E14.63788
G1 X35.51 Y79.86 E14.66
G1 X35.563 Y78.924 E14.69118
G1 X35.695 Y77.995 E14.72239
G1 X35.906 Y77.081 E14.75359
G1 X36.194 Y76.189 E14.78477
G1 X36.557 Y75.324 E14.81597
G1 X36.992 Y74.493 E14.84716
G1 X37.496 Y73.703 E14.87833
G1 X38.066 Y72.958 E14.90953
G1 X38.698 Y72.264 E14.94075
G1 X39.386 Y71.627 E14.97194
G1 X40.126 Y71.051 E15.00312
G1 X40.912 Y70.539 E15.03432
G0 F6000 X41.291 Y70.782
G1 F1200 X42.111 Y70.364 E15.06494
G1 X42.965 Y70.019 E15.09557
G1 X43.845 Y69.749 E15.12619
G1 X44.745 Y69.557 E15.15679
G1 X45.659 Y69.443 E15.18743
G1 X46.212 Y69.413 E15.20585
G1 X46.83 Y69.4 E15.22641
G1 X187.945 Y69.401 E19.91991
G1 X188.643 Y69.411 E19.94313
G1 X189.562 Y69.464 E19.97375
G1 X190.473 Y69.597 E20.00437
G1 X191.369 Y69.808 E20.03499
G1 X192.243 Y70.096 E20.06559
G1 X193.09 Y70.459 E20.09624
G1 X193.901 Y70.894 E20.12685
G1 X194.671 Y71.398 E20.15746
G1 X195.395 Y71.967 E20.18809
G1 X196.067 Y72.597 E20.21872
G1 X196.682 Y73.282 E20.24934
G1 X197.235 Y74.018 E20.27996
G1 X197.722 Y74.799 E20.31057
G1 X198.139 Y75.62 E20.3412
G1 X198.484 Y76.474 E20.37184
G1 X198.753 Y77.354 E20.40244
G1 X198.945 Y78.255 E20.43308
G1 X199.058 Y79.168 E20.46368
G1 X199.087 Y79.712 E20.4818
G1 X199.1 Y80.33 E20.50236
G1 X199.099 Y128.895 E22.11764
G1 X199.09 Y129.622 E22.14182
G1 X199.039 Y130.541 E22.17243
G1 X198.908 Y131.453 E22.20308
G1 X198.698 Y132.349 E22.23368
G1 X198.412 Y133.224 E22.2643
G1 X198.051 Y134.071 E22.29493
G1 X197.617 Y134.883 E22.32555
G1 X197.115 Y135.655 E22.35618
G1 X196.547 Y136.38 E22.38681
G1 X195.919 Y137.053 E22.41743
G1 X195.235 Y137.669 E22.44804
G1 X194.5 Y138.223 E22.47865
G1 X193.72 Y138.712 E22.50927
G1 X192.9 Y139.131 E22.5399
G1 X192.047 Y139.477 E22.57052
G1 X191.167 Y139.748 E22.60114
G1 X190.267 Y139.941 E22.63176
G1 X189.353 Y140.056 E22.6624
G1 X188.788 Y140.087 E22.68122
G1 X188.17 Y140.1 E22.70178
G1 X47.07 Y140.099 E27.39478
G1 X46.372 Y140.09 E27.418
G1 X45.453 Y140.038 E27.44861
G1 X44.542 Y139.907 E27.47923
G1 X43.646 Y139.697 E27.50983
G1 X42.771 Y139.41 E27.54046
G1 X41.924 Y139.048 E27.5711
G1 X41.112 Y138.614 E27.60172
G1 X40.341 Y138.112 E27.63232
G1 X39.616 Y137.544 E27.66295
G1 X38.943 Y136.915 E27.69359
G1 X38.328 Y136.231 E27.72419
G1 X37.774 Y135.496 E27.7548
G1 X37.286 Y134.715 E27.78543
G1 X36.867 Y133.895 E27.81606
G1 X36.521 Y133.042 E27.84667
G1 X36.251 Y132.162 E27.87729
G1 X36.058 Y131.261 E27.90794
G1 X35.944 Y130.348 E27.93854
G1 X35.913 Y129.777 E27.95756
G1 X35.9 Y129.158 E27.97815
G1 X35.901 Y80.531 E29.59549
G1 X35.91 Y79.866 E29.61761
G1 X35.962 Y78.946 E29.64826
G1 X36.094 Y78.035 E29.67887
G1 X36.305 Y77.139 E29.70949
G1 X36.592 Y76.264 E29.74012
G1 X36.955 Y75.418 E29.77074
G1 X37.389 Y74.606 E29.80136
G1 X37.892 Y73.835 E29.83198
G1 X38.461 Y73.111 E29.86261
G1 X39.089 Y72.439 E29.8932
G1 X39.774 Y71.823 E29.92384
G1 X40.51 Y71.27 E29.95446
G1 X41.291 Y70.782 E29.98509
G0 F6000 X41.669 Y71.031
G1 F1200 X42.482 Y70.638 E30.01512
G1 X43.327 Y70.318 E30.04517
G1 X44.196 Y70.075 E30.07519
G1 X45.084 Y69.909 E30.10523
G1 X46.223 Y69.813 E30.14325
G1 X46.83 Y69.8 E30.16344
G1 X187.939 Y69.801 E34.85675
G1 X188.637 Y69.811 E34.87997
G1 X189.539 Y69.864 E34.91002
G1 X190.432 Y69.996 E34.94004
G1 X191.31 Y70.207 E34.97008
G1 X192.166 Y70.495 E35.00012
G1 X192.993 Y70.857 E35.03014
G1 X193.785 Y71.292 E35.0602
G1 X194.536 Y71.794 E35.09024
G1 X195.239 Y72.361 E35.12028
G1 X195.889 Y72.988 E35.15032
G1 X196.481 Y73.67 E35.18035
G1 X197.011 Y74.401 E35.21039
G1 X197.473 Y75.177 E35.24042
G1 X197.866 Y75.99 E35.27046
G1 X198.184 Y76.835 E35.30049
G1 X198.427 Y77.705 E35.33053
G1 X198.592 Y78.593 E35.36057
G1 X198.687 Y79.723 E35.39829
G1 X198.7 Y80.33 E35.41848
G1 X198.699 Y128.89 E37.03359
G1 X198.69 Y129.617 E37.05778
G1 X198.639 Y130.519 E37.08782
G1 X198.508 Y131.413 E37.11788
G1 X198.299 Y132.291 E37.14789
G1 X198.013 Y133.148 E37.17794
G1 X197.652 Y133.976 E37.20799
G1 X197.22 Y134.768 E37.23799
G1 X196.719 Y135.52 E37.26805
G1 X196.153 Y136.224 E37.29809
G1 X195.528 Y136.875 E37.32811
G1 X194.847 Y137.469 E37.35816
G1 X194.116 Y138 E37.38821
G1 X193.342 Y138.464 E37.41823
G1 X192.529 Y138.858 E37.44828
G1 X191.685 Y139.178 E37.4783
G1 X190.815 Y139.423 E37.50836
G1 X189.928 Y139.589 E37.53837
G1 X188.777 Y139.687 E37.57679
G1 X188.17 Y139.7 E37.59699
G1 X47.075 Y139.699 E42.28983
G1 X46.377 Y139.69 E42.31304
G1 X45.476 Y139.639 E42.34306
G1 X44.582 Y139.507 E42.37312
G1 X43.704 Y139.298 E42.40314
G1 X42.847 Y139.011 E42.43319
G1 X42.02 Y138.65 E42.46321
G1 X41.227 Y138.217 E42.49326
G1 X40.476 Y137.716 E42.52328
G1 X39.772 Y137.15 E42.55333
G1 X39.121 Y136.524 E42.58337
G1 X38.528 Y135.843 E42.6134
G1 X37.998 Y135.112 E42.64343
G1 X37.534 Y134.337 E42.67348
G1 X37.14 Y133.524 E42.70352
G1 X36.82 Y132.68 E42.73355
G1 X36.576 Y131.81 E42.7636
G1 X36.41 Y130.922 E42.79365
G1 X36.313 Y129.767 E42.8322
G1 X36.3 Y129.158 E42.85246
G1 X36.301 Y80.536 E44.46963
G1 X36.31 Y79.871 E44.49175
G1 X36.362 Y78.969 E44.5218
G1 X36.494 Y78.076 E44.55183
G1 X36.704 Y77.198 E44.58185
G1 X36.991 Y76.341 E44.61191
G1 X37.353 Y75.514 E44.64194
G1 X37.786 Y74.722 E44.67196
G1 X38.288 Y73.971 E44.702
G1 X38.855 Y73.267 E44.73207
G1 X39.481 Y72.617 E44.76208
G1 X40.162 Y72.024 E44.79212
G1 X40.894 Y71.494 E44.82218
G1 X41.669 Y71.031 E44.8522
G1 F1500 E38.3522
;MESH:eld-barriers-x2.stl(1)
G0 F6000 X46.914 Y79.335
G0 X47.1 Y103.4
;TYPE:WALL-INNER
G1 F1500 E44.8522
G1 F1200 X187.9 Y103.4 E49.53523
G1 X187.9 Y80.6 E50.29356
G1 X47.1 Y80.6 E54.97659
G1 X47.1 Y103.4 E55.73492
G0 F6000 X46.7 Y103.8
;TYPE:WALL-OUTER
G1 F1200 X188.3 Y103.8 E60.44455
G1 X188.3 Y80.2 E61.22949
G1 X46.7 Y80.2 E65.93913
G1 X46.7 Y103.8 E66.72407
G0 F6000 X46.97 Y103.53
G0 X47.2 Y103.04
G0 X47.46 Y103.04
;TYPE:SKIN
G1 F1200 X187.54 Y103.04 E71.38315
G1 X187.54 Y80.96 E72.11753
G1 X47.46 Y80.96 E76.77661
G1 X47.46 Y103.04 E77.51099
G0 F6000 X47.659 Y102.531
G1 F1200 X47.968 Y102.839 E77.5255
G0 F6000 X48.533 Y102.839
G1 F1200 X47.659 Y101.965 E77.56662
G0 F6000 X47.659 Y101.399
G1 F1200 X49.099 Y102.839 E77.63435
G0 F6000 X49.665 Y102.839
G1 F1200 X47.659 Y100.834 E77.72868
G0 F6000 X47.659 Y100.268
G1 F1200 X50.23 Y102.839 E77.84961
G0 F6000 X50.796 Y102.839
G1 F1200 X47.659 Y99.702 E77.99717
G0 F6000 X47.659 Y99.137
G1 F1200 X51.362 Y102.839 E78.17132
G0 F6000 X51.927 Y102.839
G1 F1200 X47.659 Y98.571 E78.37208
G0 F6000 X47.659 Y98.005
G1 F1200 X52.493 Y102.839 E78.59945
G0 F6000 X53.059 Y102.839
G1 F1200 X47.659 Y97.44 E78.85343
G0 F6000 X47.659 Y96.874
G1 F1200 X53.624 Y102.839 E79.134
G0 F6000 X54.19 Y102.839
G1 F1200 X47.659 Y96.308 E79.4412
G0 F6000 X47.659 Y95.742
G1 F1200 X54.756 Y102.839 E79.77502
G0 F6000 X55.321 Y102.839
G1 F1200 X47.659 Y95.177 E80.13542
G0 F6000 X47.659 Y94.611
G1 F1200 X55.887 Y102.839 E80.52244
G0 F6000 X56.453 Y102.839
G1 F1200 X47.659 Y94.045 E80.93608
G0 F6000 X47.659 Y93.48
G1 F1200 X57.018 Y102.839 E81.3763
G0 F6000 X57.584 Y102.839
G1 F1200 X47.659 Y92.914 E81.84314
G0 F6000 X47.659 Y92.348
G1 F1200 X58.15 Y102.839 E82.33661
G0 F6000 X58.716 Y102.839
G1 F1200 X47.659 Y91.783 E82.85667
G0 F6000 X47.659 Y91.217
G1 F1200 X59.281 Y102.839 E83.40333
G0 F6000 X59.847 Y102.839
G1 F1200 X47.659 Y90.651 E83.97662
G0 F6000 X47.659 Y90.086
G1 F1200 X60.413 Y102.839 E84.57651
G0 F6000 X60.978 Y102.839
G1 F1200 X47.659 Y89.52 E85.20299
G0 F6000 X47.659 Y88.954
G1 F1200 X61.544 Y102.839 E85.8561
G0 F6000 X62.11 Y102.839
G1 F1200 X47.659 Y88.389 E86.53581
G0 F6000 X47.659 Y87.823
G1 F1200 X62.675 Y102.839 E87.24211
G0 F6000 X63.241 Y102.839
G1 F1200 X47.659 Y87.257 E87.97504
G0 F6000 X47.659 Y86.691
G1 F1200 X63.807 Y102.839 E88.73459
G0 F6000 X64.372 Y102.839
G1 F1200 X47.659 Y86.126 E89.52072
G0 F6000 X47.659 Y85.56
G1 F1200 X64.938 Y102.839 E90.33347
G0 F6000 X65.504 Y102.839
G1 F1200 X47.659 Y84.994 E91.17285
G0 F6000 X47.659 Y84.429
G1 F1200 X66.069 Y102.839 E92.0388
G0 F6000 X66.635 Y102.839
G1 F1200 X47.659 Y83.863 E92.93137
G0 F6000 X47.659 Y83.297
G1 F1200 X67.201 Y102.839 E93.85057
G0 F6000 X67.766 Y102.839
G1 F1200 X47.659 Y82.732 E94.79634
G0 F6000 X47.659 Y82.166
G1 F1200 X68.332 Y102.839 E95.76873
G0 F6000 X68.898 Y102.839
G1 F1200 X47.659 Y81.6 E96.76775
G0 F6000 X47.784 Y81.16
G1 F1200 X69.464 Y102.839 E97.78749
G0 F6000 X70.029 Y102.839
G1 F1200 X48.35 Y81.16 E98.8072
G0 F6000 X48.916 Y81.16
G1 F1200 X70.595 Y102.839 E99.82691
G0 F6000 X71.161 Y102.839
G1 F1200 X49.481 Y81.16 E100.84665
G0 F6000 X50.047 Y81.16
G1 F1200 X71.726 Y102.839 E101.86637
G0 F6000 X72.292 Y102.839
G1 F1200 X50.613 Y81.16 E102.88608
G0 F6000 X51.178 Y81.16
G1 F1200 X72.858 Y102.839 E103.90582
G0 F6000 X73.423 Y102.839
G1 F1200 X51.744 Y81.16 E104.92553
G0 F6000 X52.31 Y81.16
G1 F1200 X73.989 Y102.839 E105.94524
G0 F6000 X74.555 Y102.839
G1 F1200 X52.876 Y81.16 E106.96496
G0 F6000 X53.441 Y81.16
G1 F1200 X75.12 Y102.839 E107.98467
G0 F6000 X75.686 Y102.839
G1 F1200 X54.007 Y81.16 E109.00439
G0 F6000 X54.573 Y81.16
G1 F1200 X76.252 Y102.839 E110.0241
G0 F6000 X76.817 Y102.839
G1 F1200 X55.138 Y81.16 E111.04381
G0 F6000 X55.704 Y81.16
G1 F1200 X77.383 Y102.839 E112.06353
G0 F6000 X77.949 Y102.839
G1 F1200 X56.27 Y81.16 E113.08324
G0 F6000 X56.835 Y81.16
G1 F1200 X78.515 Y102.839 E114.10298
G0 F6000 X79.08 Y102.839
G1 F1200 X57.401 Y81.16 E115.12269
G0 F6000 X57.967 Y81.16
G1 F1200 X79.646 Y102.839 E116.1424
G0 F6000 X80.212 Y102.839
G1 F1200 X58.532 Y81.16 E117.16214
G0 F6000 X59.098 Y81.16
G1 F1200 X80.777 Y102.839 E118.18186
G0 F6000 X81.343 Y102.839
G1 F1200 X59.664 Y81.16 E119.20157
G0 F6000 X60.229 Y81.16
G1 F1200 X81.909 Y102.839 E120.22131
G0 F6000 X82.474 Y102.839
G1 F1200 X60.795 Y81.16 E121.24102
G0 F6000 X61.361 Y81.16
G1 F1200 X83.04 Y102.839 E122.26073
G0 F6000 X83.606 Y102.839
G1 F1200 X61.926 Y81.16 E123.28047
G0 F6000 X62.492 Y81.16
G1 F1200 X84.171 Y102.839 E124.30018
G0 F6000 X84.737 Y102.839
G1 F1200 X63.058 Y81.16 E125.3199
G0 F6000 X63.624 Y81.16
G1 F1200 X85.303 Y102.839 E126.33961
G0 F6000 X85.868 Y102.839
G1 F1200 X64.189 Y81.16 E127.35933
G0 F6000 X64.755 Y81.16
G1 F1200 X86.434 Y102.839 E128.37904
G0 F6000 X87 Y102.839
G1 F1200 X65.321 Y81.16 E129.39875
G0 F6000 X65.886 Y81.16
G1 F1200 X87.565 Y102.839 E130.41847
G0 F6000 X88.131 Y102.839
G1 F1200 X66.452 Y81.16 E131.43818
G0 F6000 X67.018 Y81.16
G1 F1200 X88.697 Y102.839 E132.45789
G0 F6000 X89.263 Y102.839
G1 F1200 X67.583 Y81.16 E133.47763
G0 F6000 X68.149 Y81.16
G1 F1200 X89.828 Y102.839 E134.49734
G0 F6000 X90.394 Y102.839
G1 F1200 X68.715 Y81.16 E135.51706
G0 F6000 X69.28 Y81.16
G1 F1200 X90.96 Y102.839 E136.5368
G0 F6000 X91.525 Y102.839
G1 F1200 X69.846 Y81.16 E137.55651
G0 F6000 X70.412 Y81.16
G1 F1200 X92.091 Y102.839 E138.57622
G0 F6000 X92.657 Y102.839
G1 F1200 X70.977 Y81.16 E139.59596
G0 F6000 X71.543 Y81.16
G1 F1200 X93.222 Y102.839 E140.61567
G0 F6000 X93.788 Y102.839
G1 F1200 X72.109 Y81.16 E141.63539
G0 F6000 X72.675 Y81.16
G1 F1200 X94.354 Y102.839 E142.6551
G0 F6000 X94.919 Y102.839
G1 F1200 X73.24 Y81.16 E143.67482
G0 F6000 X73.806 Y81.16
G1 F1200 X95.485 Y102.839 E144.69453
G0 F6000 X96.051 Y102.839
G1 F1200 X74.372 Y81.16 E145.71424
G0 F6000 X74.937 Y81.16
G1 F1200 X96.616 Y102.839 E146.73396
G0 F6000 X97.182 Y102.839
G1 F1200 X75.503 Y81.16 E147.75367
G0 F6000 X76.069 Y81.16
G1 F1200 X97.748 Y102.839 E148.77338
G0 F6000 X98.314 Y102.839
G1 F1200 X76.634 Y81.16 E149.79312
G0 F6000 X77.2 Y81.16
G1 F1200 X98.879 Y102.839 E150.81283
G0 F6000 X99.445 Y102.839
G1 F1200 X77.766 Y81.16 E151.83255
G0 F6000 X78.331 Y81.16
G1 F1200 X100.011 Y102.839 E152.85229
G0 F6000 X100.576 Y102.839
G1 F1200 X78.897 Y81.16 E153.872
G0 F6000 X79.463 Y81.16
G1 F1200 X101.142 Y102.839 E154.89171
G0 F6000 X101.708 Y102.839
G1 F1200 X80.028 Y81.16 E155.91145
G0 F6000 X80.594 Y81.16
G1 F1200 X102.273 Y102.839 E156.93116
G0 F6000 X102.839 Y102.839
G1 F1200 X81.16 Y81.16 E157.95088
G0 F6000 X81.725 Y81.16
G1 F1200 X103.405 Y102.839 E158.97061
G0 F6000 X103.97 Y102.839
G1 F1200 X82.291 Y81.16 E159.99033
G0 F6000 X82.857 Y81.16
G1 F1200 X104.536 Y102.839 E161.01004
G0 F6000 X105.102 Y102.839
G1 F1200 X83.423 Y81.16 E162.02976
G0 F6000 X83.988 Y81.16
G1 F1200 X105.667 Y102.839 E163.04947
G0 F6000 X106.233 Y102.839
G1 F1200 X84.554 Y81.16 E164.06918
G0 F6000 X85.12 Y81.16
G1 F1200 X106.799 Y102.839 E165.0889
G0 F6000 X107.364 Y102.839
G1 F1200 X85.685 Y81.16 E166.10861
G0 F6000 X86.251 Y81.16
G1 F1200 X107.93 Y102.839 E167.12832
G0 F6000 X108.496 Y102.839
G1 F1200 X86.817 Y81.16 E168.14804
G0 F6000 X87.382 Y81.16
G1 F1200 X109.062 Y102.839 E169.16778
G0 F6000 X109.627 Y102.839
G1 F1200 X87.948 Y81.16 E170.18749
G0 F6000 X88.514 Y81.16
G1 F1200 X110.193 Y102.839 E171.2072
G0 F6000 X110.759 Y102.839
G1 F1200 X89.079 Y81.16 E172.22694
G0 F6000 X89.645 Y81.16
G1 F1200 X111.324 Y102.839 E173.24665
G0 F6000 X111.89 Y102.839
G1 F1200 X90.211 Y81.16 E174.26637
G0 F6000 X90.776 Y81.16
G1 F1200 X112.456 Y102.839 E175.2861
G0 F6000 X113.021 Y102.839
G1 F1200 X91.342 Y81.16 E176.30582
G0 F6000 X91.908 Y81.16
