;FLAVOR:Marlin
;TIME:35336
;Filament used: 24.3886m
;Layer height: 0.2
;MINX:8.5
;MINY:84.5
;MINZ:0.2
;MAXX:226.5
;MAXY:150.5
;MAXZ:66
;Generated with Cura_SteamEngine 5.2.1
M140 S60
M105
M190 S60
M104 S200
M105
M109 S200
M82 ;absolute extrusion mode
M201 X500.00 Y500.00 Z100.00 E5000.00 ;Setup machine max acceleration
M203 X500.00 Y500.00 Z10.00 E50.00 ;Setup machine max feedrate
M204 P500.00 R1000.00 T500.00 ;Setup Print/Retract/Travel acceleration
M205 X8.00 Y8.00 Z0.40 E5.00 ;Setup Jerk
M220 S100 ;Reset Feedrate
M221 S100 ;Reset Flowrate

G28 ;Home

G92 E0 ;Reset Extruder
G1 Z2.0 F3000 ;Move Z Axis up
G1 X10.1 Y20 Z0.28 F5000.0 ;Move to start position
G1 X10.1 Y200.0 Z0.28 F1500.0 E15 ;Draw the first line
G1 X10.4 Y200.0 Z0.28 F5000.0 ;Move to side a little
G1 X10.4 Y20 Z0.28 F1500.0 E30 ;Draw the second line
G92 E0 ;Reset Extruder
G1 Z2.0 F3000 ;Move Z Axis up

G92 E0
G92 E0
G1 F1500 E-6.5
;LAYER_COUNT:330
;LAYER:0
M107
G0 F6000 X17.403 Y84.713 Z0.2
;TYPE:SKIRT
G1 F1500 E0
G1 F1200 X18.33 Y84.572 E0.03119
G1 X19.201 Y84.513 E0.06022
G1 X19.83 Y84.5 E0.08115
G1 X30.074 Y84.501 E0.42186
G1 X30.772 Y84.511 E0.44508
G1 X31.397 Y84.538 E0.46589
G1 X32.218 Y84.597 E0.49327
G1 X33.596 Y84.714 E0.53926
G1 X36.106 Y84.855 E0.62288
G1 X38.639 Y84.927 E0.70716
G1 X41.127 Y84.927 E0.78991
G1 X43.676 Y84.855 E0.87473
G1 X46.2 Y84.711 E0.95881
G1 X48.245 Y84.55 E1.02704
G1 X48.917 Y84.518 E1.04941
G1 X50.03 Y84.5 E1.08644
G1 X68.874 Y84.501 E1.71319
G1 X69.572 Y84.511 E1.73641
G1 X70.197 Y84.538 E1.75722
G1 X71.018 Y84.597 E1.78459
G1 X72.396 Y84.714 E1.83059
G1 X74.906 Y84.855 E1.91421
G1 X77.439 Y84.927 E1.99849
G1 X79.927 Y84.927 E2.08124
G1 X82.476 Y84.855 E2.16605
G1 X85 Y84.711 E2.25014
G1 X87.045 Y84.55 E2.31837
G1 X87.717 Y84.518 E2.34074
G1 X88.83 Y84.5 E2.37776
G1 X107.674 Y84.501 E3.00452
G1 X108.372 Y84.511 E3.02774
G1 X108.997 Y84.538 E3.04854
G1 X109.818 Y84.597 E3.07592
G1 X111.196 Y84.714 E3.12192
G1 X113.706 Y84.855 E3.20553
G1 X116.239 Y84.927 E3.28981
G1 X118.727 Y84.927 E3.37257
G1 X121.276 Y84.855 E3.45738
G1 X123.8 Y84.711 E3.54146
G1 X125.845 Y84.55 E3.60969
G1 X126.517 Y84.518 E3.63207
G1 X127.63 Y84.5 E3.66909
G1 X146.474 Y84.501 E4.29585
G1 X147.172 Y84.511 E4.31906
G1 X147.797 Y84.538 E4.33987
G1 X148.618 Y84.597 E4.36725
G1 X149.996 Y84.714 E4.41324
G1 X152.506 Y84.855 E4.49686
G1 X155.039 Y84.927 E4.58114
G1 X157.527 Y84.927 E4.66389
G1 X160.076 Y84.855 E4.74871
G1 X162.6 Y84.711 E4.83279
G1 X164.645 Y84.55 E4.90102
G1 X165.317 Y84.518 E4.9234
G1 X166.43 Y84.5 E4.96042
G1 X185.274 Y84.501 E5.58717
G1 X185.972 Y84.511 E5.61039
G1 X186.597 Y84.538 E5.6312
G1 X187.418 Y84.597 E5.65857
G1 X188.796 Y84.714 E5.70457
G1 X191.306 Y84.855 E5.78819
G1 X193.839 Y84.927 E5.87247
G1 X196.327 Y84.927 E5.95522
G1 X198.876 Y84.855 E6.04003
G1 X201.4 Y84.711 E6.12412
G1 X203.445 Y84.55 E6.19235
G1 X204.117 Y84.518 E6.21472
G1 X205.23 Y84.5 E6.25175
G1 X214.951 Y84.501 E6.57507
G1 X215.649 Y84.511 E6.59829
G1 X216.585 Y84.565 E6.62947
G1 X217.513 Y84.697 E6.66064
G1 X218.427 Y84.909 E6.69185
G1 X219.319 Y85.198 E6.72304
G1 X220.184 Y85.561 E6.75424
G1 X221.014 Y85.997 E6.78542
G1 X221.805 Y86.502 E6.81663
G1 X222.549 Y87.073 E6.84783
G1 X223.242 Y87.705 E6.87902
G1 X223.879 Y88.393 E6.91021
G1 X224.454 Y89.134 E6.9414
G1 X224.965 Y89.92 E6.97258
G1 X225.407 Y90.748 E7.0038
G1 X225.776 Y91.61 E7.03499
G1 X226.071 Y92.5 E7.06617
G1 X226.289 Y93.412 E7.09736
G1 X226.429 Y94.34 E7.12858
G1 X226.487 Y95.201 E7.15728
G1 X226.5 Y95.83 E7.1782
G1 X226.499 Y138.9 E8.61072
G1 X226.49 Y139.627 E8.6349
G1 X226.439 Y140.564 E8.66611
G1 X226.307 Y141.492 E8.69729
G1 X226.098 Y142.406 E8.72847
G1 X225.811 Y143.299 E8.75967
G1 X225.449 Y144.165 E8.79089
G1 X225.015 Y144.996 E8.82207
G1 X224.511 Y145.787 E8.85326
G1 X223.942 Y146.532 E8.88444
G1 X223.311 Y147.227 E8.91567
G1 X222.624 Y147.865 E8.94685
G1 X221.885 Y148.442 E8.97803
G1 X221.099 Y148.954 E9.00923
G1 X220.273 Y149.397 E9.04041
G1 X219.411 Y149.769 E9.07163
G1 X218.522 Y150.065 E9.1028
G1 X217.61 Y150.285 E9.134
G1 X216.683 Y150.426 E9.16519
G1 X215.799 Y150.487 E9.19466
G1 X215.17 Y150.5 E9.21558
G1 X20.065 Y150.499 E15.7048
G1 X19.367 Y150.49 E15.72802
G1 X18.431 Y150.438 E15.7592
G1 X17.502 Y150.306 E15.79041
G1 X16.588 Y150.096 E15.8216
G1 X15.695 Y149.809 E15.8528
G1 X14.83 Y149.446 E15.884
G1 X13.999 Y149.012 E15.91518
G1 X13.208 Y148.508 E15.94638
G1 X12.463 Y147.938 E15.97758
G1 X11.769 Y147.307 E16.00877
G1 X11.132 Y146.62 E16.03993
G1 X10.555 Y145.88 E16.07114
G1 X10.043 Y145.094 E16.10234
G1 X9.6 Y144.267 E16.13355
G1 X9.229 Y143.406 E16.16473
G1 X8.933 Y142.516 E16.19592
G1 X8.714 Y141.604 E16.22712
G1 X8.573 Y140.677 E16.25831
G1 X8.513 Y139.788 E16.28794
G1 X8.5 Y139.158 E16.3089
G1 X8.501 Y96.025 E17.74351
G1 X8.51 Y95.36 E17.76563
G1 X8.563 Y94.424 E17.79681
G1 X8.695 Y93.495 E17.82802
G1 X8.906 Y92.581 E17.85922
G1 X9.194 Y91.689 E17.8904
G1 X9.557 Y90.824 E17.9216
G1 X9.992 Y89.993 E17.95279
G1 X10.496 Y89.203 E17.98396
G1 X11.066 Y88.458 E18.01516
G1 X11.698 Y87.764 E18.04638
G1 X12.386 Y87.127 E18.07757
G1 X13.126 Y86.551 E18.10876
G1 X13.912 Y86.039 E18.13995
G1 X14.739 Y85.597 E18.17114
G1 X15.601 Y85.227 E18.20234
G1 X16.491 Y84.931 E18.23354
G1 X17.403 Y84.713 E18.26473
G0 F6000 X17.745 Y85.057
G1 F1200 X18.659 Y84.943 E18.29536
G1 X19.212 Y84.913 E18.31378
G1 X19.83 Y84.9 E18.33434
G1 X29.916 Y84.9 E18.6698
G1 X30.766 Y84.911 E18.69808
G1 X31.368 Y84.937 E18.71812
G1 X32.184 Y84.996 E18.74533
G1 X33.573 Y85.114 E18.79169
G1 X36.073 Y85.255 E18.87498
G1 X38.628 Y85.327 E18.95999
G1 X41.138 Y85.327 E19.04347
G1 X43.674 Y85.255 E19.12785
G1 X46.254 Y85.108 E19.2138
G1 X48.276 Y84.949 E19.28126
G1 X48.924 Y84.918 E19.30284
G1 X50.03 Y84.9 E19.33963
G1 X68.868 Y84.901 E19.96619
G1 X69.566 Y84.911 E19.9894
G1 X70.168 Y84.937 E20.00944
G1 X70.984 Y84.996 E20.03666
G1 X72.373 Y85.114 E20.08302
G1 X74.873 Y85.255 E20.1663
G1 X77.428 Y85.327 E20.25132
G1 X79.938 Y85.327 E20.3348
G1 X82.474 Y85.255 E20.41918
G1 X85.054 Y85.108 E20.50513
G1 X87.076 Y84.949 E20.57259
G1 X87.724 Y84.918 E20.59417
G1 X88.83 Y84.9 E20.63096
G1 X107.668 Y84.901 E21.25751
G1 X108.366 Y84.911 E21.28073
G1 X108.968 Y84.937 E21.30077
G1 X109.784 Y84.996 E21.32798
G1 X111.173 Y85.114 E21.37435
G1 X113.673 Y85.255 E21.45763
G1 X116.228 Y85.327 E21.54264
G1 X118.738 Y85.327 E21.62613
G1 X121.274 Y85.255 E21.71051
G1 X123.854 Y85.108 E21.79646
G1 X125.876 Y84.949 E21.86392
G1 X126.524 Y84.918 E21.8855
G1 X127.63 Y84.9 E21.92229
G1 X146.468 Y84.901 E22.54884
G1 X147.166 Y84.911 E22.57206
G1 X147.768 Y84.937 E22.5921
G1 X148.584 Y84.996 E22.61931
G1 X149.973 Y85.114 E22.66568
G1 X152.473 Y85.255 E22.74896
G1 X155.028 Y85.327 E22.83397
G1 X157.538 Y85.327 E22.91746
G1 X160.074 Y85.255 E23.00184
G1 X162.654 Y85.108 E23.08779
G1 X164.676 Y84.949 E23.15525
G1 X165.324 Y84.918 E23.17682
G1 X166.43 Y84.9 E23.21361
G1 X185.268 Y84.901 E23.84017
G1 X185.966 Y84.911 E23.86339
G1 X186.568 Y84.937 E23.88343
G1 X187.384 Y84.996 E23.91064
G1 X188.773 Y85.114 E23.957
G1 X191.273 Y85.255 E24.04029
G1 X193.828 Y85.327 E24.1253
G1 X196.338 Y85.327 E24.20878
G1 X198.874 Y85.255 E24.29316
G1 X201.454 Y85.108 E24.37911
G1 X203.476 Y84.949 E24.44657
G1 X204.124 Y84.918 E24.46815
G1 X205.23 Y84.9 E24.50494
G1 X214.945 Y84.901 E24.82806
G1 X215.643 Y84.911 E24.85128
G1 X216.562 Y84.964 E24.8819
G1 X217.473 Y85.097 E24.91252
G1 X218.369 Y85.308 E24.94314
G1 X219.243 Y85.596 E24.97374
G1 X220.09 Y85.959 E25.00439
G1 X220.901 Y86.394 E25.035
G1 X221.671 Y86.898 E25.06561
G1 X222.395 Y87.467 E25.09624
G1 X223.067 Y88.097 E25.12687
G1 X223.682 Y88.782 E25.15749
G1 X224.235 Y89.518 E25.18811
G1 X224.722 Y90.299 E25.21873
G1 X225.139 Y91.12 E25.24935
G1 X225.484 Y91.974 E25.27999
G1 X225.753 Y92.854 E25.31059
G1 X225.945 Y93.755 E25.34123
G1 X226.058 Y94.668 E25.37183
G1 X226.087 Y95.212 E25.38995
G1 X226.1 Y95.83 E25.41051
G1 X226.099 Y138.895 E26.84286
G1 X226.09 Y139.622 E26.86704
G1 X226.039 Y140.541 E26.89765
G1 X225.908 Y141.453 E26.9283
G1 X225.698 Y142.349 E26.95891
G1 X225.412 Y143.224 E26.98952
G1 X225.051 Y144.071 E27.02015
G1 X224.617 Y144.883 E27.05077
G1 X224.115 Y145.655 E27.0814
G1 X223.547 Y146.38 E27.11203
G1 X222.919 Y147.053 E27.14265
G1 X222.235 Y147.669 E27.17326
G1 X221.5 Y148.223 E27.20387
G1 X220.72 Y148.712 E27.23449
G1 X219.9 Y149.131 E27.26512
G1 X219.047 Y149.477 E27.29574
G1 X218.167 Y149.748 E27.32636
G1 X217.267 Y149.941 E27.35698
G1 X216.353 Y150.056 E27.38762
G1 X215.788 Y150.087 E27.40644
G1 X215.17 Y150.1 E27.427
G1 X20.07 Y150.099 E33.91605
G1 X19.372 Y150.09 E33.93927
G1 X18.453 Y150.038 E33.96988
G1 X17.542 Y149.907 E34.00049
G1 X16.646 Y149.697 E34.0311
G1 X15.771 Y149.41 E34.06173
G1 X14.924 Y149.048 E34.09237
G1 X14.112 Y148.614 E34.12299
G1 X13.341 Y148.112 E34.15359
G1 X12.616 Y147.544 E34.18422
G1 X11.943 Y146.915 E34.21486
G1 X11.328 Y146.231 E34.24545
G1 X10.774 Y145.496 E34.27607
G1 X10.286 Y144.715 E34.3067
G1 X9.867 Y143.895 E34.33732
G1 X9.521 Y143.042 E34.36794
G1 X9.251 Y142.162 E34.39856
G1 X9.058 Y141.261 E34.4292
G1 X8.944 Y140.348 E34.45981
G1 X8.913 Y139.777 E34.47882
G1 X8.9 Y139.158 E34.49942
G1 X8.901 Y96.031 E35.93383
G1 X8.91 Y95.366 E35.95595
G1 X8.962 Y94.446 E35.9866
G1 X9.094 Y93.535 E36.01721
G1 X9.305 Y92.639 E36.04783
G1 X9.592 Y91.764 E36.07846
G1 X9.955 Y90.918 E36.10908
G1 X10.389 Y90.106 E36.1397
G1 X10.892 Y89.335 E36.17032
G1 X11.461 Y88.611 E36.20094
G1 X12.089 Y87.939 E36.23153
G1 X12.774 Y87.323 E36.26218
G1 X13.51 Y86.77 E36.29279
G1 X14.291 Y86.282 E36.32342
G1 X15.111 Y85.864 E36.35404
G1 X15.965 Y85.519 E36.38467
G1 X16.845 Y85.249 E36.41529
G1 X17.745 Y85.057 E36.44589
G0 F6000 X18.084 Y85.409
G1 F1200 X19.223 Y85.313 E36.48391
G1 X19.83 Y85.3 E36.50411
G1 X29.916 Y85.3 E36.83957
G1 X30.76 Y85.311 E36.86764
G1 X31.34 Y85.336 E36.88695
G1 X32.013 Y85.384 E36.90939
G1 X33.518 Y85.511 E36.95963
G1 X36.073 Y85.655 E37.04474
G1 X38.617 Y85.727 E37.12939
G1 X41.15 Y85.727 E37.21364
G1 X43.708 Y85.655 E37.29875
G1 X46.218 Y85.512 E37.38237
G1 X48.308 Y85.347 E37.4521
G1 X48.931 Y85.318 E37.47284
G1 X50.03 Y85.3 E37.5094
G1 X68.862 Y85.301 E38.13575
G1 X69.56 Y85.311 E38.15897
G1 X70.14 Y85.336 E38.17828
G1 X70.813 Y85.384 E38.20072
G1 X72.318 Y85.511 E38.25096
G1 X74.873 Y85.655 E38.33607
G1 X77.417 Y85.727 E38.42072
G1 X79.95 Y85.727 E38.50497
G1 X82.508 Y85.655 E38.59008
G1 X85.018 Y85.512 E38.6737
G1 X87.108 Y85.347 E38.74343
G1 X87.731 Y85.318 E38.76417
G1 X88.83 Y85.3 E38.80073
G1 X107.662 Y85.301 E39.42708
G1 X108.36 Y85.311 E39.4503
G1 X108.94 Y85.336 E39.46961
G1 X109.613 Y85.384 E39.49205
G1 X111.118 Y85.511 E39.54229
G1 X113.673 Y85.655 E39.6274
G1 X116.217 Y85.727 E39.71205
G1 X118.75 Y85.727 E39.7963
G1 X121.308 Y85.655 E39.88141
G1 X123.818 Y85.512 E39.96503
G1 X125.908 Y85.347 E40.03476
G1 X126.531 Y85.318 E40.0555
G1 X127.63 Y85.3 E40.09206
G1 X146.462 Y85.301 E40.71841
G1 X147.16 Y85.311 E40.74163
G1 X147.74 Y85.336 E40.76094
G1 X148.413 Y85.384 E40.78338
G1 X149.918 Y85.511 E40.83362
G1 X152.473 Y85.655 E40.91873
G1 X155.017 Y85.727 E41.00338
G1 X157.55 Y85.727 E41.08763
G1 X160.108 Y85.655 E41.17274
G1 X162.618 Y85.512 E41.25636
G1 X164.708 Y85.347 E41.32609
G1 X165.331 Y85.318 E41.34683
G1 X166.43 Y85.3 E41.38339
G1 X185.262 Y85.301 E42.00974
G1 X185.96 Y85.311 E42.03296
G1 X186.54 Y85.336 E42.05227
G1 X187.213 Y85.384 E42.07471
G1 X188.718 Y85.511 E42.12494
G1 X191.273 Y85.655 E42.21006
G1 X193.817 Y85.727 E42.29471
G1 X196.35 Y85.727 E42.37895
G1 X198.908 Y85.655 E42.46407
G1 X201.418 Y85.512 E42.54769
G1 X203.508 Y85.347 E42.61742
G1 X204.131 Y85.318 E42.63816
G1 X205.23 Y85.3 E42.67472
G1 X214.939 Y85.301 E42.99764
G1 X215.637 Y85.311 E43.02086
G1 X216.539 Y85.364 E43.05091
G1 X217.432 Y85.496 E43.08093
G1 X218.31 Y85.707 E43.11097
G1 X219.166 Y85.995 E43.14101
G1 X219.993 Y86.357 E43.17103
G1 X220.785 Y86.792 E43.20109
G1 X221.536 Y87.294 E43.23113
G1 X222.239 Y87.861 E43.26117
G1 X222.889 Y88.488 E43.29121
G1 X223.481 Y89.17 E43.32125
G1 X224.011 Y89.901 E43.35128
G1 X224.473 Y90.677 E43.38132
G1 X224.866 Y91.49 E43.41135
G1 X225.184 Y92.335 E43.44138
G1 X225.427 Y93.205 E43.47142
G1 X225.592 Y94.093 E43.50146
G1 X225.687 Y95.223 E43.53918
G1 X225.7 Y95.83 E43.55937
G1 X225.699 Y138.89 E44.99155
G1 X225.69 Y139.617 E45.01574
G1 X225.639 Y140.519 E45.04578
G1 X225.508 Y141.413 E45.07584
G1 X225.299 Y142.291 E45.10586
G1 X225.013 Y143.148 E45.1359
G1 X224.652 Y143.976 E45.16595
G1 X224.22 Y144.768 E45.19595
G1 X223.719 Y145.52 E45.22601
G1 X223.153 Y146.224 E45.25605
G1 X222.528 Y146.875 E45.28607
G1 X221.847 Y147.469 E45.31612
G1 X221.116 Y148 E45.34617
G1 X220.342 Y148.464 E45.37619
G1 X219.529 Y148.858 E45.40624
G1 X218.685 Y149.178 E45.43626
G1 X217.815 Y149.423 E45.46632
G1 X216.928 Y149.589 E45.49633
G1 X215.777 Y149.687 E45.53476
G1 X215.17 Y149.7 E45.55495
G1 X20.075 Y149.699 E52.04384
G1 X19.377 Y149.69 E52.06705
G1 X18.476 Y149.639 E52.09707
G1 X17.582 Y149.507 E52.12713
G1 X16.704 Y149.298 E52.15714
G1 X15.847 Y149.011 E52.1872
G1 X15.02 Y148.65 E52.21722
G1 X14.227 Y148.217 E52.24727
G1 X13.476 Y147.716 E52.27729
G1 X12.772 Y147.15 E52.30734
G1 X12.121 Y146.524 E52.33738
G1 X11.528 Y145.843 E52.36741
G1 X10.998 Y145.112 E52.39744
G1 X10.534 Y144.337 E52.42748
G1 X10.14 Y143.524 E52.45753
G1 X9.82 Y142.68 E52.48755
G1 X9.576 Y141.81 E52.51761
G1 X9.41 Y140.922 E52.54765
G1 X9.313 Y139.767 E52.5862
G1 X9.3 Y139.158 E52.60646
G1 X9.301 Y96.036 E54.04071
G1 X9.31 Y95.371 E54.06283
G1 X9.362 Y94.469 E54.09288
G1 X9.494 Y93.576 E54.1229
G1 X9.704 Y92.698 E54.15293
G1 X9.991 Y91.841 E54.18299
G1 X10.353 Y91.014 E54.21301
G1 X10.786 Y90.222 E54.24304
G1 X11.288 Y89.471 E54.27308
G1 X11.855 Y88.767 E54.30315
G1 X12.481 Y88.117 E54.33316
G1 X13.162 Y87.524 E54.3632
G1 X13.894 Y86.994 E54.39325
G1 X14.669 Y86.531 E54.42328
G1 X15.482 Y86.138 E54.45331
G1 X16.327 Y85.818 E54.48337
G1 X17.196 Y85.575 E54.51338
G1 X18.084 Y85.409 E54.54342
G1 F1500 E48.04342
;MESH:eld-small-tiles.stl
G0 F6000 X48.668 Y96.218
G0 X110.284 Y113.926
;TYPE:WALL-INNER
G1 F1500 E54.54342
G1 F1200 X109.725 Y113.747 E54.56295
G1 X109.215 Y113.512 E54.58162
G1 X108.753 Y113.172 E54.6007
G1 X108.332 Y112.772 E54.62002
G1 X107.927 Y112.21 E54.64306
G1 X107.69 Y111.69 E54.66206
G1 X107.528 Y111.187 E54.67964
G1 X107.451 Y110.58 E54.69999
G1 X107.454 Y99.286 E55.07563
G1 X107.527 Y98.718 E55.09468
G1 X107.45 Y98.305 E55.10865
G1 X107.452 Y96.1 E55.18199
G1 X88.748 Y96.101 E55.80409
G1 X88.748 Y98.183 E55.87334
G1 X88.721 Y98.461 E55.88263
G1 X88.667 Y98.748 E55.89234
G1 X88.723 Y99.054 E55.90269
G1 X88.748 Y99.315 E55.91141
G1 X88.748 Y110.592 E56.28648
G1 X88.672 Y111.187 E56.30643
G1 X88.51 Y111.69 E56.32401
G1 X88.26 Y112.238 E56.34404
G1 X87.921 Y112.698 E56.36305
G1 X87.607 Y113.034 E56.37834
G1 X87.248 Y113.325 E56.39371
G1 X86.818 Y113.599 E56.41067
G1 X86.278 Y113.818 E56.43005
G1 X85.801 Y113.941 E56.44644
G1 X85.333 Y113.999 E56.46212
G1 X72.073 Y113.999 E56.90315
G1 X71.484 Y113.926 E56.92289
G1 X70.925 Y113.747 E56.94241
G1 X70.415 Y113.512 E56.96109
G1 X69.953 Y113.172 E56.98017
G1 X69.532 Y112.772 E56.99948
G1 X69.127 Y112.21 E57.02252
G1 X68.89 Y111.69 E57.04153
G1 X68.728 Y111.187 E57.05911
G1 X68.651 Y110.58 E57.07946
G1 X68.654 Y99.286 E57.4551
G1 X68.727 Y98.718 E57.47414
G1 X68.65 Y98.305 E57.48812
G1 X68.652 Y96.1 E57.56146
G1 X49.948 Y96.101 E58.18355
G1 X49.948 Y98.183 E58.2528
G1 X49.921 Y98.461 E58.26209
G1 X49.867 Y98.748 E58.2718
G1 X49.923 Y99.054 E58.28215
G1 X49.948 Y99.315 E58.29087
G1 X49.948 Y110.592 E58.66595
G1 X49.872 Y111.187 E58.6859
G1 X49.71 Y111.69 E58.70347
G1 X49.46 Y112.238 E58.72351
G1 X49.121 Y112.698 E58.74251
G1 X48.807 Y113.034 E58.75781
G1 X48.448 Y113.325 E58.77318
G1 X48.018 Y113.599 E58.79014
G1 X47.478 Y113.818 E58.80952
G1 X47.001 Y113.941 E58.8259
G1 X46.533 Y113.999 E58.84159
G1 X33.276 Y114 E59.28252
G1 X32.649 Y113.918 E59.30355
G1 X32.158 Y113.759 E59.32071
G1 X31.617 Y113.51 E59.34052
G1 X31.181 Y113.194 E59.35843
G1 X30.747 Y112.789 E59.37818
