;FLAVOR:Marlin
;TIME:18269
;Filament used: 14.347m
;Layer height: 0.2
;MINX:80.2
;MINY:50.2
;MINZ:0.2
;MAXX:154.8
;MAXY:184.8
;MAXZ:35
;Generated with Cura_SteamEngine 5.2.1
M140 S60
M105
M190 S60
M104 S200
M105
M109 S200
M82 ;absolute extrusion mode
M201 X500.00 Y500.00 Z100.00 E5000.00 ;Setup machine max acceleration
M203 X500.00 Y500.00 Z10.00 E50.00 ;Setup machine max feedrate
M204 P500.00 R1000.00 T500.00 ;Setup Print/Retract/Travel acceleration
M205 X8.00 Y8.00 Z0.40 E5.00 ;Setup Jerk
M220 S100 ;Reset Feedrate
M221 S100 ;Reset Flowrate

G28 ;Home

G92 E0 ;Reset Extruder
G1 Z2.0 F3000 ;Move Z Axis up
G1 X10.1 Y20 Z0.28 F5000.0 ;Move to start position
G1 X10.1 Y200.0 Z0.28 F1500.0 E15 ;Draw the first line
G1 X10.4 Y200.0 Z0.28 F5000.0 ;Move to side a little
G1 X10.4 Y20 Z0.28 F1500.0 E30 ;Draw the second line
G92 E0 ;Reset Extruder
G1 Z2.0 F3000 ;Move Z Axis up

G92 E0
G92 E0
G1 F1500 E-6.5
;LAYER_COUNT:175
;LAYER:0
M107
;MESH:santorini-cardbox.2.stl
G0 F6000 X80.6 Y184.4 Z0.2
;TYPE:WALL-INNER
G1 F1500 E0
G1 F1200 X154.4 Y184.4 E2.4546
G1 X154.4 Y50.6 E6.9048
G1 X136.015 Y50.601 E7.51629
G1 X136.048 Y50.915 E7.52679
G1 X136.048 Y52.682 E7.58556
G1 X136.009 Y53.08 E7.59886
G1 X135.959 Y53.299 E7.60634
G1 X136.001 Y53.493 E7.61294
G1 X136.047 Y53.889 E7.6262
G1 X136.049 Y81.727 E8.55209
G1 X135.974 Y82.339 E8.5726
G1 X135.798 Y82.874 E8.59133
G1 X135.569 Y83.367 E8.60941
G1 X135.165 Y83.924 E8.6323
G1 X134.757 Y84.314 E8.65107
G1 X134.284 Y84.657 E8.6705
G1 X133.789 Y84.892 E8.68873
G1 X133.219 Y85.075 E8.70864
G1 X132.62 Y85.15 E8.72872
G1 X102.362 Y85.149 E9.7351
G1 X101.741 Y85.066 E9.75594
G1 X101.113 Y84.861 E9.77791
G1 X100.545 Y84.549 E9.79947
G1 X100.093 Y84.183 E9.81881
G1 X99.801 Y83.874 E9.83295
G1 X99.451 Y83.401 E9.85252
G1 X99.19 Y82.84 E9.8731
G1 X99.02 Y82.301 E9.8919
G1 X98.954 Y81.764 E9.9099
G1 X98.954 Y53.887 E10.83709
G1 X99.008 Y53.455 E10.85157
G1 X99.042 Y53.303 E10.85675
G1 X99.001 Y53.124 E10.86286
G1 X98.953 Y52.711 E10.87669
G1 X98.952 Y50.919 E10.93629
G1 X98.982 Y50.601 E10.94691
G1 X80.6 Y50.6 E11.5583
G1 X80.6 Y184.4 E16.00851
G0 F6000 X80.2 Y184.8
;TYPE:WALL-OUTER
G1 F1200 X154.8 Y184.8 E18.48971
G1 X154.8 Y50.2 E22.96653
G1 X135.532 Y50.201 E23.60738
G1 X135.626 Y50.702 E23.62434
G1 X135.65 Y50.953 E23.63272
G1 X135.65 Y52.644 E23.68897
G1 X135.613 Y53.024 E23.70166
G1 X135.547 Y53.299 E23.71107
G1 X135.601 Y53.523 E23.71873
G1 X135.649 Y53.935 E23.73253
G1 X135.649 Y81.714 E24.65646
G1 X135.582 Y82.248 E24.67436
G1 X135.426 Y82.727 E24.69112
G1 X135.218 Y83.175 E24.70755
G1 X134.858 Y83.668 E24.72785
G1 X134.501 Y84.006 E24.7442
G1 X134.09 Y84.307 E24.76115
G1 X133.641 Y84.52 E24.77767
G1 X133.15 Y84.681 E24.79486
G1 X132.612 Y84.75 E24.8129
G1 X102.386 Y84.749 E25.81822
G1 X101.845 Y84.68 E25.83636
G1 X101.287 Y84.498 E25.85588
G1 X100.758 Y84.21 E25.87592
G1 X100.366 Y83.891 E25.89273
G1 X100.078 Y83.582 E25.90678
G1 X99.776 Y83.163 E25.92395
G1 X99.57 Y82.716 E25.94032
G1 X99.414 Y82.232 E25.95724
G1 X99.351 Y81.716 E25.97453
G1 X99.351 Y53.936 E26.89849
G1 X99.406 Y53.504 E26.91298
G1 X99.453 Y53.301 E26.91991
G1 X99.397 Y53.067 E26.92791
G1 X99.351 Y52.665 E26.94137
G1 X99.35 Y50.956 E26.99821
G1 X99.387 Y50.58 E27.01078
G1 X99.473 Y50.201 E27.0237
G1 X80.2 Y50.2 E27.66473
G1 X80.2 Y184.8 E32.14154
G0 F6000 X80.47 Y184.53
G0 X80.7 Y184.04
G0 X80.96 Y184.04
;TYPE:SKIN
G1 F1200 X154.04 Y184.04 E34.57219
G1 X154.04 Y50.96 E38.99845
G1 X136.41 Y50.96 E39.58482
G1 X136.406 Y52.719 E39.64333
G1 X136.355 Y53.199 E39.65938
G1 X136.353 Y53.397 E39.66597
G1 X136.409 Y53.937 E39.68403
G1 X136.408 Y81.758 E40.60936
G1 X136.326 Y82.42 E40.63154
G1 X136.128 Y83.018 E40.6525
G1 X135.851 Y83.603 E40.67402
G1 X135.454 Y84.144 E40.69634
G1 X134.976 Y84.601 E40.71834
G1 X134.467 Y84.968 E40.73921
G1 X133.876 Y85.245 E40.76092
G1 X133.31 Y85.425 E40.78067
G1 X132.642 Y85.51 E40.80307
G1 X102.355 Y85.509 E41.81042
G1 X101.676 Y85.426 E41.83317
G1 X101.004 Y85.202 E41.85673
G1 X100.335 Y84.842 E41.882
G1 X99.846 Y84.446 E41.90293
G1 X99.49 Y84.066 E41.92025
G1 X99.13 Y83.573 E41.94055
G1 X98.863 Y82.994 E41.96176
G1 X98.667 Y82.402 E41.9825
G1 X98.596 Y81.807 E42.00243
G1 X98.596 Y53.843 E42.93251
G1 X98.666 Y53.283 E42.95128
G1 X98.591 Y52.665 E42.97199
G1 X98.591 Y50.961 E43.02866
G1 X80.961 Y50.961 E43.61504
G1 X80.96 Y184.04 E48.04127
G0 F6000 X81.45 Y183.839
G1 F1200 X81.16 Y183.549 E48.05491
G0 F6000 X81.16 Y182.983
G1 F1200 X82.015 Y183.839 E48.09515
G0 F6000 X82.581 Y183.839
G1 F1200 X81.16 Y182.417 E48.16201
G0 F6000 X81.16 Y181.852
G1 F1200 X83.147 Y183.839 E48.25547
G0 F6000 X83.712 Y183.839
G1 F1200 X81.16 Y181.286 E48.37553
G0 F6000 X81.16 Y180.72
G1 F1200 X84.278 Y183.839 E48.52222
G0 F6000 X84.844 Y183.839
G1 F1200 X81.16 Y180.155 E48.6955
G0 F6000 X81.16 Y179.589
G1 F1200 X85.41 Y183.839 E48.89541
G0 F6000 X85.975 Y183.839
G1 F1200 X81.16 Y179.023 E49.12192
G0 F6000 X81.16 Y178.458
G1 F1200 X86.541 Y183.839 E49.37502
G0 F6000 X87.107 Y183.839
G1 F1200 X81.16 Y177.892 E49.65475
G0 F6000 X81.16 Y177.326
G1 F1200 X87.672 Y183.839 E49.96108
G0 F6000 X88.238 Y183.839
G1 F1200 X81.16 Y176.761 E50.29401
G0 F6000 X81.16 Y176.195
G1 F1200 X88.804 Y183.839 E50.65356
G0 F6000 X89.369 Y183.839
G1 F1200 X81.16 Y175.629 E51.03971
G0 F6000 X81.16 Y175.064
G1 F1200 X89.935 Y183.839 E51.45246
G0 F6000 X90.501 Y183.839
G1 F1200 X81.16 Y174.498 E51.89183
G0 F6000 X81.16 Y173.932
G1 F1200 X91.066 Y183.839 E52.3578
G0 F6000 X91.632 Y183.839
G1 F1200 X81.16 Y173.367 E52.85037
G0 F6000 X81.16 Y172.801
G1 F1200 X92.198 Y183.839 E53.36956
G0 F6000 X92.763 Y183.839
G1 F1200 X81.16 Y172.235 E53.91536
G0 F6000 X81.16 Y171.669
G1 F1200 X93.329 Y183.839 E54.48777
G0 F6000 X93.895 Y183.839
G1 F1200 X81.16 Y171.104 E55.08679
G0 F6000 X81.16 Y170.538
G1 F1200 X94.46 Y183.839 E55.7124
G0 F6000 X95.026 Y183.839
G1 F1200 X81.16 Y169.972 E56.36464
G0 F6000 X81.16 Y169.407
G1 F1200 X95.592 Y183.839 E57.04348
G0 F6000 X96.158 Y183.839
G1 F1200 X81.16 Y168.841 E57.74894
G0 F6000 X81.16 Y168.275
G1 F1200 X96.723 Y183.839 E58.481
G0 F6000 X97.289 Y183.839
G1 F1200 X81.16 Y167.71 E59.23965
G0 F6000 X81.16 Y167.144
G1 F1200 X97.855 Y183.839 E60.02494
G0 F6000 X98.42 Y183.839
G1 F1200 X81.16 Y166.578 E60.83682
G0 F6000 X81.16 Y166.013
G1 F1200 X98.986 Y183.839 E61.6753
G0 F6000 X99.552 Y183.839
G1 F1200 X81.16 Y165.447 E62.5404
G0 F6000 X81.16 Y164.881
G1 F1200 X100.117 Y183.839 E63.4321
G0 F6000 X100.683 Y183.839
G1 F1200 X81.16 Y164.316 E64.35041
G0 F6000 X81.16 Y163.75
G1 F1200 X101.249 Y183.839 E65.29533
G0 F6000 X101.814 Y183.839
G1 F1200 X81.16 Y163.184 E66.26686
G0 F6000 X81.16 Y162.619
G1 F1200 X102.38 Y183.839 E67.26498
G0 F6000 X102.946 Y183.839
G1 F1200 X81.16 Y162.053 E68.28973
G0 F6000 X81.16 Y161.487
G1 F1200 X103.511 Y183.839 E69.34107
G0 F6000 X104.077 Y183.839
G1 F1200 X81.16 Y160.921 E70.41904
G0 F6000 X81.16 Y160.356
G1 F1200 X104.643 Y183.839 E71.52361
G0 F6000 X105.209 Y183.839
G1 F1200 X81.16 Y159.79 E72.6548
G0 F6000 X81.16 Y159.224
G1 F1200 X105.774 Y183.839 E73.81259
G0 F6000 X106.34 Y183.839
G1 F1200 X81.16 Y158.659 E74.99698
G0 F6000 X81.16 Y158.093
G1 F1200 X106.906 Y183.839 E76.20799
G0 F6000 X107.471 Y183.839
G1 F1200 X81.16 Y157.527 E77.44561
G0 F6000 X81.16 Y156.962
G1 F1200 X108.037 Y183.839 E78.70982
G0 F6000 X108.603 Y183.839
G1 F1200 X81.16 Y156.396 E80.00065
G0 F6000 X81.16 Y155.83
G1 F1200 X109.168 Y183.839 E81.31809
G0 F6000 X109.734 Y183.839
G1 F1200 X81.16 Y155.265 E82.66212
G0 F6000 X81.16 Y154.699
G1 F1200 X110.3 Y183.839 E84.03278
G0 F6000 X110.865 Y183.839
G1 F1200 X81.16 Y154.133 E85.43003
G0 F6000 X81.16 Y153.568
G1 F1200 X111.431 Y183.839 E86.85389
G0 F6000 X111.997 Y183.839
G1 F1200 X81.16 Y153.002 E88.30436
G0 F6000 X81.16 Y152.436
G1 F1200 X112.562 Y183.839 E89.78144
G0 F6000 X113.128 Y183.839
G1 F1200 X81.16 Y151.87 E91.28514
G0 F6000 X81.16 Y151.305
G1 F1200 X113.694 Y183.839 E92.81544
G0 F6000 X114.259 Y183.839
G1 F1200 X81.16 Y150.739 E94.37234
G0 F6000 X81.16 Y150.173
G1 F1200 X114.825 Y183.839 E95.95586
G0 F6000 X115.391 Y183.839
G1 F1200 X81.16 Y149.608 E97.56598
G0 F6000 X81.16 Y149.042
G1 F1200 X115.957 Y183.839 E99.20273
G0 F6000 X116.522 Y183.839
G1 F1200 X81.16 Y148.476 E100.86607
G0 F6000 X81.16 Y147.911
G1 F1200 X117.088 Y183.839 E102.55601
G0 F6000 X117.654 Y183.839
G1 F1200 X81.16 Y147.345 E104.27258
G0 F6000 X81.16 Y146.779
G1 F1200 X118.219 Y183.839 E106.01575
G0 F6000 X118.785 Y183.839
G1 F1200 X81.16 Y146.214 E107.78551
G0 F6000 X81.16 Y145.648
G1 F1200 X119.351 Y183.839 E109.5819
G0 F6000 X119.916 Y183.839
G1 F1200 X81.16 Y145.082 E111.40488
G0 F6000 X81.16 Y144.517
G1 F1200 X120.482 Y183.839 E113.25447
G0 F6000 X121.048 Y183.839
G1 F1200 X81.16 Y143.951 E115.13068
G0 F6000 X81.16 Y143.385
G1 F1200 X121.613 Y183.839 E117.03349
G0 F6000 X122.179 Y183.839
G1 F1200 X81.16 Y142.82 E118.9629
G0 F6000 X81.16 Y142.254
G1 F1200 X122.745 Y183.839 E120.91893
G0 F6000 X123.31 Y183.839
G1 F1200 X81.16 Y141.688 E122.90156
G0 F6000 X81.16 Y141.122
G1 F1200 X123.876 Y183.839 E124.91081
G0 F6000 X124.442 Y183.839
G1 F1200 X81.16 Y140.557 E126.94666
G0 F6000 X81.16 Y139.991
G1 F1200 X125.007 Y183.839 E129.00912
G0 F6000 X125.573 Y183.839
G1 F1200 X81.16 Y139.425 E131.09819
G0 F6000 X81.16 Y138.86
G1 F1200 X126.139 Y183.839 E133.21386
G0 F6000 X126.705 Y183.839
G1 F1200 X81.16 Y138.294 E135.35616
G0 F6000 X81.16 Y137.728
G1 F1200 X127.27 Y183.839 E137.52506
G0 F6000 X127.836 Y183.839
G1 F1200 X81.16 Y137.163 E139.72055
G0 F6000 X81.16 Y136.597
G1 F1200 X128.402 Y183.839 E141.94267
G0 F6000 X128.967 Y183.839
G1 F1200 X81.16 Y136.031 E144.19139
G0 F6000 X81.16 Y135.466
G1 F1200 X129.533 Y183.839 E146.46671
G0 F6000 X130.099 Y183.839
G1 F1200 X81.16 Y134.9 E148.76865
G0 F6000 X81.16 Y134.334
G1 F1200 X130.664 Y183.839 E151.09719
G0 F6000 X131.23 Y183.839
G1 F1200 X81.16 Y133.769 E153.45233
G0 F6000 X81.16 Y133.203
G1 F1200 X131.796 Y183.839 E155.83409
G0 F6000 X132.361 Y183.839
G1 F1200 X81.16 Y132.637 E158.24245
G0 F6000 X81.16 Y132.071
G1 F1200 X132.927 Y183.839 E160.67744
G0 F6000 X133.493 Y183.839
G1 F1200 X81.16 Y131.506 E163.13902
G0 F6000 X81.16 Y130.94
G1 F1200 X134.058 Y183.839 E165.6272
G0 F6000 X134.624 Y183.839
G1 F1200 X81.16 Y130.374 E168.14201
G0 F6000 X81.16 Y129.809
G1 F1200 X135.19 Y183.839 E170.68342
G0 F6000 X135.756 Y183.839
G1 F1200 X81.16 Y129.243 E173.25144
G0 F6000 X81.16 Y128.677
G1 F1200 X136.321 Y183.839 E175.84607
G0 F6000 X136.887 Y183.839
G1 F1200 X81.16 Y128.112 E178.4673
G0 F6000 X81.16 Y127.546
G1 F1200 X137.453 Y183.839 E181.11515
G0 F6000 X138.018 Y183.839
G1 F1200 X81.16 Y126.98 E183.7896
G0 F6000 X81.16 Y126.415
G1 F1200 X138.584 Y183.839 E186.49065
G0 F6000 X139.15 Y183.839
G1 F1200 X81.16 Y125.849 E189.21832
G0 F6000 X81.16 Y125.283
G1 F1200 X139.715 Y183.839 E191.97259
G0 F6000 X140.281 Y183.839
G1 F1200 X81.16 Y124.718 E194.75346
G0 F6000 X81.16 Y124.152
G1 F1200 X140.847 Y183.839 E197.56096
G0 F6000 X141.412 Y183.839
G1 F1200 X81.16 Y123.586 E200.39505
G0 F6000 X81.16 Y123.021
G1 F1200 X141.978 Y183.839 E203.25574
G0 F6000 X142.544 Y183.839
G1 F1200 X81.16 Y122.455 E206.14306
G0 F6000 X81.16 Y121.889
G1 F1200 X143.109 Y183.839 E209.05697
G0 F6000 X143.675 Y183.839
G1 F1200 X81.16 Y121.323 E211.99751
G0 F6000 X81.16 Y120.758
G1 F1200 X144.241 Y183.839 E214.96464
G0 F6000 X144.806 Y183.839
G1 F1200 X81.16 Y120.192 E217.95838
G0 F6000 X81.16 Y119.626
G1 F1200 X145.372 Y183.839 E220.97874
G0 F6000 X145.938 Y183.839
G1 F1200 X81.16 Y119.061 E224.0257
G0 F6000 X81.16 Y118.495
G1 F1200 X146.504 Y183.839 E227.09928
G0 F6000 X147.069 Y183.839
G1 F1200 X81.16 Y117.929 E230.19946
G0 F6000 X81.16 Y117.364
G1 F1200 X147.635 Y183.839 E233.32624
G0 F6000 X148.201 Y183.839
G1 F1200 X81.16 Y116.798 E236.47964
G0 F6000 X81.16 Y116.232
G1 F1200 X148.766 Y183.839 E239.65965
G0 F6000 X149.332 Y183.839
G1 F1200 X81.16 Y115.667 E242.86625
G0 F6000 X81.16 Y115.101
G1 F1200 X149.898 Y183.839 E246.09947
G0 F6000 X150.463 Y183.839
G1 F1200 X81.16 Y114.535 E249.3593
G0 F6000 X81.16 Y113.97
G1 F1200 X151.029 Y183.839 E252.64572
G0 F6000 X151.595 Y183.839
G1 F1200 X81.16 Y113.404 E255.95877
G0 F6000 X81.16 Y112.838
G1 F1200 X152.16 Y183.839 E259.29841
G0 F6000 X152.726 Y183.839
G1 F1200 X81.16 Y112.273 E262.66466
G0 F6000 X81.16 Y111.707
G1 F1200 X153.292 Y183.839 E266.05753
G0 F6000 X153.839 Y183.82
G1 F1200 X81.16 Y111.141 E269.47612
G0 F6000 X81.16 Y110.575
G1 F1200 X153.839 Y183.255 E272.89474
G0 F6000 X153.839 Y182.689
G1 F1200 X81.16 Y110.01 E276.31334
G0 F6000 X81.16 Y109.444
G1 F1200 X153.839 Y182.123 E279.73194
G0 F6000 X153.839 Y181.558
G1 F1200 X81.16 Y108.878 E283.15056
G0 F6000 X81.16 Y108.313
G1 F1200 X153.839 Y180.992 E286.56916
G0 F6000 X153.839 Y180.426
G1 F1200 X81.16 Y107.747 E289.98775
G0 F6000 X81.16 Y107.181
G1 F1200 X153.839 Y179.861 E293.40638
G0 F6000 X153.839 Y179.295
G1 F1200 X81.16 Y106.616 E296.82497
G0 F6000 X81.16 Y106.05
G1 F1200 X153.839 Y178.729 E300.24357
G0 F6000 X153.839 Y178.164
G1 F1200 X81.16 Y105.484 E303.66219
G0 F6000 X81.16 Y104.919
G1 F1200 X153.839 Y177.598 E307.08079
G0 F6000 X153.839 Y177.032
G1 F1200 X81.16 Y104.353 E310.49939
G0 F6000 X81.16 Y103.787
G1 F1200 X153.839 Y176.466 E313.91798
G0 F6000 X153.839 Y175.901
G1 F1200 X81.16 Y103.222 E317.33658
G0 F6000 X81.16 Y102.656
G1 F1200 X153.839 Y175.335 E320.75518
G0 F6000 X153.839 Y174.769
G1 F1200 X81.16 Y102.09 E324.17377
G0 F6000 X81.16 Y101.524
G1 F1200 X153.839 Y174.204 E327.5924
G0 F6000 X153.839 Y173.638
G1 F1200 X81.16 Y100.959 E331.01099
G0 F6000 X81.16 Y100.393
G1 F1200 X153.839 Y173.072 E334.42959
G0 F6000 X153.839 Y172.507
G1 F1200 X81.16 Y99.827 E337.84821
G0 F6000 X81.16 Y99.262
G1 F1200 X153.839 Y171.941 E341.26681
G0 F6000 X153.839 Y171.375
G1 F1200 X81.16 Y98.696 E344.68541
G0 F6000 X81.16 Y98.13
G1 F1200 X153.839 Y170.81 E348.10403
G0 F6000 X153.839 Y170.244
G1 F1200 X81.16 Y97.565 E351.52262
G0 F6000 X81.16 Y96.999
G1 F1200 X153.839 Y169.678 E354.94122
G0 F6000 X153.839 Y169.113
G1 F1200 X81.16 Y96.433 E358.35984
G0 F6000 X81.16 Y95.868
G1 F1200 X153.839 Y168.547 E361.77844
G0 F6000 X153.839 Y167.981
G1 F1200 X81.16 Y95.302 E365.19704
G0 F6000 X81.16 Y94.736
G1 F1200 X153.839 Y167.416 E368.61566
G0 F6000 X153.839 Y166.85
G1 F1200 X81.16 Y94.171 E372.03426
G0 F6000 X81.16 Y93.605
G1 F1200 X153.839 Y166.284 E375.45285
G0 F6000 X153.839 Y165.718
G1 F1200 X81.16 Y93.039 E378.87145
G0 F6000 X81.16 Y92.474
G1 F1200 X153.839 Y165.153 E382.29005
G0 F6000 X153.839 Y164.587
G1 F1200 X81.16 Y91.908 E385.70864
G0 F6000 X81.16 Y91.342
G1 F1200 X153.839 Y164.021 E389.12724
G0 F6000 X153.839 Y163.456
G1 F1200 X81.16 Y90.776 E392.54586
G0 F6000 X81.16 Y90.211
G1 F1200 X153.839 Y162.89 E395.96446
G0 F6000 X153.839 Y162.324
G1 F1200 X81.16 Y89.645 E399.38306
G0 F6000 X81.16 Y89.079
G1 F1200 X153.839 Y161.759 E402.80168
G0 F6000 X153.839 Y161.193
G1 F1200 X81.16 Y88.514 E406.22028
G0 F6000 X81.16 Y87.948
G1 F1200 X153.839 Y160.627 E409.63887
G0 F6000 X153.839 Y160.062
G1 F1200 X81.16 Y87.382 E413.05749
G0 F6000 X81.16 Y86.817
G1 F1200 X153.839 Y159.496 E416.47609
G0 F6000 X153.839 Y158.93
G1 F1200 X81.16 Y86.251 E419.89469
G0 F6000 X81.16 Y85.685
G1 F1200 X153.839 Y158.365 E423.31331
G0 F6000 X153.839 Y157.799
G1 F1200 X81.16 Y85.12 E426.73191
G0 F6000 X81.16 Y84.554
G1 F1200 X153.839 Y157.233 E430.1505
G0 F6000 X153.839 Y156.667
G1 F1200 X81.16 Y83.988 E433.5691
G0 F6000 X81.16 Y83.423
G1 F1200 X153.839 Y156.102 E436.9877
G0 F6000 X153.839 Y155.536
G1 F1200 X81.16 Y82.857 E440.4063
G0 F6000 X81.16 Y82.291
G1 F1200 X153.839 Y154.97 E443.82489
G0 F6000 X153.839 Y154.405
G1 F1200 X81.16 Y81.725 E447.24351
G0 F6000 X81.16 Y81.16
G1 F1200 X153.839 Y153.839 E450.66211
G0 F6000 X153.839 Y153.273
G1 F1200 X81.16 Y80.594 E454.08071
G0 F6000 X81.16 Y80.028
G1 F1200 X153.839 Y152.708 E457.49933
G0 F6000 X153.839 Y152.142
G1 F1200 X81.16 Y79.463 E460.91793
G0 F6000 X81.16 Y78.897
G1 F1200 X153.839 Y151.576 E464.33652
G0 F6000 X153.839 Y151.011
G1 F1200 X81.16 Y78.331 E467.75514
G0 F6000 X81.16 Y77.766
G1 F1200 X153.839 Y150.445 E471.17374
