;FLAVOR:Marlin
;TIME:34815
;Filament used: 27.7301m
;Layer height: 0.2
;MINX:80.2
;MINY:31.2
;MINZ:0.2
;MAXX:154.8
;MAXY:203.8
;MAXZ:60
;Generated with Cura_SteamEngine 5.2.1
M140 S60
M105
M190 S60
M104 S200
M105
M109 S200
M82 ;absolute extrusion mode
M201 X500.00 Y500.00 Z100.00 E5000.00 ;Setup machine max acceleration
M203 X500.00 Y500.00 Z10.00 E50.00 ;Setup machine max feedrate
M204 P500.00 R1000.00 T500.00 ;Setup Print/Retract/Travel acceleration
M205 X8.00 Y8.00 Z0.40 E5.00 ;Setup Jerk
M220 S100 ;Reset Feedrate
M221 S100 ;Reset Flowrate

G28 ;Home

G92 E0 ;Reset Extruder
G1 Z2.0 F3000 ;Move Z Axis up
G1 X10.1 Y20 Z0.28 F5000.0 ;Move to start position
G1 X10.1 Y200.0 Z0.28 F1500.0 E15 ;Draw the first line
G1 X10.4 Y200.0 Z0.28 F5000.0 ;Move to side a little
G1 X10.4 Y20 Z0.28 F1500.0 E30 ;Draw the second line
G92 E0 ;Reset Extruder
G1 Z2.0 F3000 ;Move Z Axis up

G92 E0
G92 E0
G1 F1500 E-6.5
;LAYER_COUNT:300
;LAYER:0
M107
;MESH:santorini-box-lv2.stl
G0 F6000 X80.6 Y203.4 Z0.2
;TYPE:WALL-INNER
G1 F1500 E0
G1 F1200 X154.4 Y203.4 E2.4546
G1 X154.4 Y31.6 E8.16869
G1 X80.6 Y31.6 E10.62329
G1 X80.6 Y203.4 E16.33738
G0 F6000 X80.2 Y203.8
;TYPE:WALL-OUTER
G1 F1200 X154.8 Y203.8 E18.81858
G1 X154.8 Y31.2 E24.55928
G1 X80.2 Y31.2 E27.04049
G1 X80.2 Y203.8 E32.78119
G0 F6000 X80.47 Y203.53
G0 X80.7 Y203.04
G0 X80.96 Y203.04
;TYPE:SKIN
G1 F1200 X154.04 Y203.04 E35.21184
G1 X154.04 Y31.96 E40.90198
G1 X80.96 Y31.96 E43.33263
G1 X80.96 Y203.04 E49.02278
G0 F6000 X81.216 Y202.839
G1 F1200 X81.159 Y202.781 E49.02548
G0 F6000 X81.159 Y202.216
G1 F1200 X81.782 Y202.839 E49.05479
G0 F6000 X82.348 Y202.839
G1 F1200 X81.159 Y201.65 E49.11071
G0 F6000 X81.159 Y201.084
G1 F1200 X82.913 Y202.839 E49.19324
G0 F6000 X83.479 Y202.839
G1 F1200 X81.159 Y200.519 E49.30237
G0 F6000 X81.159 Y199.953
G1 F1200 X84.045 Y202.839 E49.43811
G0 F6000 X84.61 Y202.839
G1 F1200 X81.159 Y199.387 E49.60046
G0 F6000 X81.159 Y198.822
G1 F1200 X85.176 Y202.839 E49.78941
G0 F6000 X85.742 Y202.839
G1 F1200 X81.159 Y198.256 E50.00498
G0 F6000 X81.159 Y197.69
G1 F1200 X86.308 Y202.839 E50.24717
G0 F6000 X86.873 Y202.839
G1 F1200 X81.159 Y197.125 E50.51594
G0 F6000 X81.159 Y196.559
G1 F1200 X87.439 Y202.839 E50.81133
G0 F6000 X88.005 Y202.839
G1 F1200 X81.159 Y195.993 E51.13335
G0 F6000 X81.159 Y195.428
G1 F1200 X88.57 Y202.839 E51.48194
G0 F6000 X89.136 Y202.839
G1 F1200 X81.159 Y194.862 E51.85715
G0 F6000 X81.159 Y194.296
G1 F1200 X89.702 Y202.839 E52.25899
G0 F6000 X90.267 Y202.839
G1 F1200 X81.159 Y193.73 E52.68743
G0 F6000 X81.159 Y193.165
G1 F1200 X90.833 Y202.839 E53.14246
G0 F6000 X91.399 Y202.839
G1 F1200 X81.159 Y192.599 E53.62412
G0 F6000 X81.159 Y192.033
G1 F1200 X91.964 Y202.839 E54.13238
G0 F6000 X92.53 Y202.839
G1 F1200 X81.159 Y191.468 E54.66723
G0 F6000 X81.159 Y190.902
G1 F1200 X93.096 Y202.839 E55.22871
G0 F6000 X93.661 Y202.839
G1 F1200 X81.159 Y190.336 E55.81679
G0 F6000 X81.159 Y189.771
G1 F1200 X94.227 Y202.839 E56.43147
G0 F6000 X94.793 Y202.839
G1 F1200 X81.159 Y189.205 E57.07277
G0 F6000 X81.159 Y188.639
G1 F1200 X95.359 Y202.839 E57.7407
G0 F6000 X95.924 Y202.839
G1 F1200 X81.159 Y188.074 E58.4352
G0 F6000 X81.159 Y187.508
G1 F1200 X96.49 Y202.839 E59.15632
G0 F6000 X97.056 Y202.839
G1 F1200 X81.159 Y186.942 E59.90407
G0 F6000 X81.159 Y186.377
G1 F1200 X97.621 Y202.839 E60.67839
G0 F6000 X98.187 Y202.839
G1 F1200 X81.159 Y185.811 E61.47933
G0 F6000 X81.159 Y185.245
G1 F1200 X98.753 Y202.839 E62.3069
G0 F6000 X99.318 Y202.839
G1 F1200 X81.159 Y184.68 E63.16105
G0 F6000 X81.159 Y184.114
G1 F1200 X99.884 Y202.839 E64.04181
G0 F6000 X100.45 Y202.839
G1 F1200 X81.159 Y183.548 E64.9492
G0 F6000 X81.159 Y182.982
G1 F1200 X101.015 Y202.839 E65.88319
G0 F6000 X101.581 Y202.839
G1 F1200 X81.159 Y182.417 E66.84378
G0 F6000 X81.159 Y181.851
G1 F1200 X102.147 Y202.839 E67.83099
G0 F6000 X102.712 Y202.839
G1 F1200 X81.159 Y181.285 E68.8448
G0 F6000 X81.159 Y180.72
G1 F1200 X103.278 Y202.839 E69.88521
G0 F6000 X103.844 Y202.839
G1 F1200 X81.159 Y180.154 E70.95224
G0 F6000 X81.159 Y179.588
G1 F1200 X104.409 Y202.839 E72.04588
G0 F6000 X104.975 Y202.839
G1 F1200 X81.159 Y179.023 E73.16611
G0 F6000 X81.159 Y178.457
G1 F1200 X105.541 Y202.839 E74.31296
G0 F6000 X106.107 Y202.839
G1 F1200 X81.159 Y177.891 E75.48644
G0 F6000 X81.159 Y177.326
G1 F1200 X106.672 Y202.839 E76.68649
G0 F6000 X107.238 Y202.839
G1 F1200 X81.159 Y176.76 E77.91317
G0 F6000 X81.159 Y176.194
G1 F1200 X107.804 Y202.839 E79.16647
G0 F6000 X108.369 Y202.839
G1 F1200 X81.159 Y175.629 E80.44634
G0 F6000 X81.159 Y175.063
G1 F1200 X108.935 Y202.839 E81.75284
G0 F6000 X109.501 Y202.839
G1 F1200 X81.159 Y174.497 E83.08596
G0 F6000 X81.159 Y173.932
G1 F1200 X110.066 Y202.839 E84.44566
G0 F6000 X110.632 Y202.839
G1 F1200 X81.159 Y173.366 E85.83198
G0 F6000 X81.159 Y172.8
G1 F1200 X111.198 Y202.839 E87.24492
G0 F6000 X111.763 Y202.839
G1 F1200 X81.159 Y172.234 E88.68446
G0 F6000 X81.159 Y171.669
G1 F1200 X112.329 Y202.839 E90.1506
G0 F6000 X112.895 Y202.839
G1 F1200 X81.159 Y171.103 E91.64337
G0 F6000 X81.159 Y170.537
G1 F1200 X113.46 Y202.839 E93.16273
G0 F6000 X114.026 Y202.839
G1 F1200 X81.159 Y169.972 E94.70869
G0 F6000 X81.159 Y169.406
G1 F1200 X114.592 Y202.839 E96.28128
G0 F6000 X115.157 Y202.839
G1 F1200 X81.159 Y168.84 E97.88047
G0 F6000 X81.159 Y168.275
G1 F1200 X115.723 Y202.839 E99.50625
G0 F6000 X116.289 Y202.839
G1 F1200 X81.159 Y167.709 E101.15866
G0 F6000 X81.159 Y167.143
G1 F1200 X116.855 Y202.839 E102.83769
G0 F6000 X117.42 Y202.839
G1 F1200 X81.159 Y166.578 E104.54329
G0 F6000 X81.159 Y166.012
G1 F1200 X117.986 Y202.839 E106.27552
G0 F6000 X118.552 Y202.839
G1 F1200 X81.159 Y165.446 E108.03438
G0 F6000 X81.159 Y164.881
G1 F1200 X119.117 Y202.839 E109.8198
G0 F6000 X119.683 Y202.839
G1 F1200 X81.159 Y164.315 E111.63185
G0 F6000 X81.159 Y163.749
G1 F1200 X120.249 Y202.839 E113.47053
G0 F6000 X120.814 Y202.839
G1 F1200 X81.159 Y163.183 E115.3358
G0 F6000 X81.159 Y162.618
G1 F1200 X121.38 Y202.839 E117.22767
G0 F6000 X121.946 Y202.839
G1 F1200 X81.159 Y162.052 E119.14617
G0 F6000 X81.159 Y161.486
G1 F1200 X122.511 Y202.839 E121.09126
G0 F6000 X123.077 Y202.839
G1 F1200 X81.159 Y160.921 E123.06296
G0 F6000 X81.159 Y160.355
G1 F1200 X123.643 Y202.839 E125.06127
G0 F6000 X124.208 Y202.839
G1 F1200 X81.159 Y159.789 E127.08619
G0 F6000 X81.159 Y159.224
G1 F1200 X124.774 Y202.839 E129.13771
G0 F6000 X125.34 Y202.839
G1 F1200 X81.159 Y158.658 E131.21585
G0 F6000 X81.159 Y158.092
G1 F1200 X125.906 Y202.839 E133.32061
G0 F6000 X126.471 Y202.839
G1 F1200 X81.159 Y157.527 E135.45195
G0 F6000 X81.159 Y156.961
G1 F1200 X127.037 Y202.839 E137.60991
G0 F6000 X127.603 Y202.839
G1 F1200 X81.159 Y156.395 E139.79449
G0 F6000 X81.159 Y155.83
G1 F1200 X128.168 Y202.839 E142.00565
G0 F6000 X128.734 Y202.839
G1 F1200 X81.159 Y155.264 E144.24343
G0 F6000 X81.159 Y154.698
G1 F1200 X129.3 Y202.839 E146.50784
G0 F6000 X129.865 Y202.839
G1 F1200 X81.159 Y154.133 E148.79882
G0 F6000 X81.159 Y153.567
G1 F1200 X130.431 Y202.839 E151.11642
G0 F6000 X130.997 Y202.839
G1 F1200 X81.159 Y153.001 E153.46065
G0 F6000 X81.159 Y152.435
G1 F1200 X131.562 Y202.839 E155.83147
G0 F6000 X132.128 Y202.839
G1 F1200 X81.159 Y151.87 E158.2289
G0 F6000 X81.159 Y151.304
G1 F1200 X132.694 Y202.839 E160.65295
G0 F6000 X133.259 Y202.839
G1 F1200 X81.159 Y150.738 E163.10359
G0 F6000 X81.159 Y150.173
G1 F1200 X133.825 Y202.839 E165.58084
G0 F6000 X134.391 Y202.839
G1 F1200 X81.159 Y149.607 E168.08471
G0 F6000 X81.159 Y149.041
G1 F1200 X134.956 Y202.839 E170.61518
G0 F6000 X135.522 Y202.839
G1 F1200 X81.159 Y148.476 E173.17225
G0 F6000 X81.159 Y147.91
G1 F1200 X136.088 Y202.839 E175.75594
G0 F6000 X136.654 Y202.839
G1 F1200 X81.159 Y147.344 E178.36626
G0 F6000 X81.159 Y146.779
G1 F1200 X137.219 Y202.839 E181.00315
G0 F6000 X137.785 Y202.839
G1 F1200 X81.159 Y146.213 E183.66666
G0 F6000 X81.159 Y145.647
G1 F1200 X138.351 Y202.839 E186.3568
G0 F6000 X138.916 Y202.839
G1 F1200 X81.159 Y145.082 E189.07351
G0 F6000 X81.159 Y144.516
G1 F1200 X139.482 Y202.839 E191.81684
G0 F6000 X140.048 Y202.839
G1 F1200 X81.159 Y143.95 E194.5868
G0 F6000 X81.159 Y143.384
G1 F1200 X140.613 Y202.839 E197.38336
G0 F6000 X141.179 Y202.839
G1 F1200 X81.159 Y142.819 E200.20652
G0 F6000 X81.159 Y142.253
G1 F1200 X141.745 Y202.839 E203.0563
G0 F6000 X142.31 Y202.839
G1 F1200 X81.159 Y141.687 E205.93268
G0 F6000 X81.159 Y141.122
G1 F1200 X142.876 Y202.839 E208.83565
G0 F6000 X143.442 Y202.839
G1 F1200 X81.159 Y140.556 E211.76526
G0 F6000 X81.159 Y139.99
G1 F1200 X144.007 Y202.839 E214.72146
G0 F6000 X144.573 Y202.839
G1 F1200 X81.159 Y139.425 E217.70426
G0 F6000 X81.159 Y138.859
G1 F1200 X145.139 Y202.839 E220.71368
G0 F6000 X145.705 Y202.839
G1 F1200 X81.159 Y138.293 E223.74972
G0 F6000 X81.159 Y137.728
G1 F1200 X146.27 Y202.839 E226.81235
G0 F6000 X146.836 Y202.839
G1 F1200 X81.159 Y137.162 E229.90159
G0 F6000 X81.159 Y136.596
G1 F1200 X147.402 Y202.839 E233.01746
G0 F6000 X147.967 Y202.839
G1 F1200 X81.159 Y136.031 E236.1599
G0 F6000 X81.159 Y135.465
G1 F1200 X148.533 Y202.839 E239.32897
G0 F6000 X149.099 Y202.839
G1 F1200 X81.159 Y134.899 E242.52466
G0 F6000 X81.159 Y134.334
G1 F1200 X149.664 Y202.839 E245.74692
G0 F6000 X150.23 Y202.839
G1 F1200 X81.159 Y133.768 E248.99581
G0 F6000 X81.159 Y133.202
G1 F1200 X150.796 Y202.839 E252.27132
G0 F6000 X151.361 Y202.839
G1 F1200 X81.159 Y132.636 E255.57343
G0 F6000 X81.159 Y132.071
G1 F1200 X151.927 Y202.839 E258.90214
G0 F6000 X152.493 Y202.839
G1 F1200 X81.159 Y131.505 E262.25748
G0 F6000 X81.159 Y130.939
G1 F1200 X153.058 Y202.839 E265.63941
G0 F6000 X153.624 Y202.839
G1 F1200 X81.159 Y130.374 E269.04794
G0 F6000 X81.159 Y129.808
G1 F1200 X153.839 Y202.488 E272.46658
G0 F6000 X153.839 Y201.922
G1 F1200 X81.159 Y129.242 E275.88523
G0 F6000 X81.159 Y128.677
G1 F1200 X153.839 Y201.357 E279.30387
G0 F6000 X153.839 Y200.791
G1 F1200 X81.159 Y128.111 E282.72252
G0 F6000 X81.159 Y127.545
G1 F1200 X153.839 Y200.225 E286.14116
G0 F6000 X153.839 Y199.66
G1 F1200 X81.159 Y126.98 E289.5598
G0 F6000 X81.159 Y126.414
G1 F1200 X153.839 Y199.094 E292.97845
G0 F6000 X153.839 Y198.528
G1 F1200 X81.159 Y125.848 E296.39709
G0 F6000 X81.159 Y125.283
G1 F1200 X153.839 Y197.963 E299.81574
G0 F6000 X153.839 Y197.397
G1 F1200 X81.159 Y124.717 E303.23438
G0 F6000 X81.159 Y124.151
G1 F1200 X153.839 Y196.831 E306.65303
G0 F6000 X153.839 Y196.265
G1 F1200 X81.159 Y123.586 E310.07165
G0 F6000 X81.159 Y123.02
G1 F1200 X153.839 Y195.7 E313.49029
G0 F6000 X153.839 Y195.134
G1 F1200 X81.159 Y122.454 E316.90894
G0 F6000 X81.159 Y121.888
G1 F1200 X153.839 Y194.568 E320.32758
G0 F6000 X153.839 Y194.003
G1 F1200 X81.159 Y121.323 E323.74623
G0 F6000 X81.159 Y120.757
G1 F1200 X153.839 Y193.437 E327.16487
G0 F6000 X153.839 Y192.871
G1 F1200 X81.159 Y120.191 E330.58351
G0 F6000 X81.159 Y119.626
G1 F1200 X153.839 Y192.306 E334.00216
G0 F6000 X153.839 Y191.74
G1 F1200 X81.159 Y119.06 E337.4208
G0 F6000 X81.159 Y118.494
G1 F1200 X153.839 Y191.174 E340.83945
G0 F6000 X153.839 Y190.609
G1 F1200 X81.159 Y117.929 E344.25809
G0 F6000 X81.159 Y117.363
G1 F1200 X153.839 Y190.043 E347.67674
G0 F6000 X153.839 Y189.477
G1 F1200 X81.159 Y116.797 E351.09538
G0 F6000 X81.159 Y116.232
G1 F1200 X153.839 Y188.912 E354.51402
G0 F6000 X153.839 Y188.346
G1 F1200 X81.159 Y115.666 E357.93267
G0 F6000 X81.159 Y115.1
G1 F1200 X153.839 Y187.78 E361.35131
G0 F6000 X153.839 Y187.215
G1 F1200 X81.159 Y114.535 E364.76996
G0 F6000 X81.159 Y113.969
G1 F1200 X153.839 Y186.649 E368.1886
G0 F6000 X153.839 Y186.083
G1 F1200 X81.159 Y113.403 E371.60725
G0 F6000 X81.159 Y112.837
G1 F1200 X153.839 Y185.517 E375.02589
G0 F6000 X153.839 Y184.952
G1 F1200 X81.159 Y112.272 E378.44454
G0 F6000 X81.159 Y111.706
G1 F1200 X153.839 Y184.386 E381.86318
G0 F6000 X153.839 Y183.82
G1 F1200 X81.159 Y111.14 E385.28182
G0 F6000 X81.159 Y110.575
G1 F1200 X153.839 Y183.255 E388.70047
G0 F6000 X153.839 Y182.689
G1 F1200 X81.159 Y110.009 E392.11911
G0 F6000 X81.159 Y109.443
G1 F1200 X153.839 Y182.123 E395.53776
G0 F6000 X153.839 Y181.558
G1 F1200 X81.159 Y108.878 E398.9564
G0 F6000 X81.159 Y108.312
G1 F1200 X153.839 Y180.992 E402.37505
G0 F6000 X153.839 Y180.426
G1 F1200 X81.159 Y107.746 E405.79369
G0 F6000 X81.159 Y107.181
G1 F1200 X153.839 Y179.861 E409.21233
G0 F6000 X153.839 Y179.295
G1 F1200 X81.159 Y106.615 E412.63098
G0 F6000 X81.159 Y106.049
G1 F1200 X153.839 Y178.729 E416.04962
G0 F6000 X153.839 Y178.164
G1 F1200 X81.159 Y105.484 E419.46827
G0 F6000 X81.159 Y104.918
G1 F1200 X153.839 Y177.598 E422.88691
G0 F6000 X153.839 Y177.032
G1 F1200 X81.159 Y104.352 E426.30556
G0 F6000 X81.159 Y103.787
G1 F1200 X153.839 Y176.466 E429.72418
G0 F6000 X153.839 Y175.901
G1 F1200 X81.159 Y103.221 E433.14282
G0 F6000 X81.159 Y102.655
G1 F1200 X153.839 Y175.335 E436.56147
G0 F6000 X153.839 Y174.769
G1 F1200 X81.159 Y102.089 E439.98011
G0 F6000 X81.159 Y101.524
G1 F1200 X153.839 Y174.204 E443.39875
G0 F6000 X153.839 Y173.638
G1 F1200 X81.159 Y100.958 E446.8174
G0 F6000 X81.159 Y100.392
G1 F1200 X153.839 Y173.072 E450.23604
G0 F6000 X153.839 Y172.507
G1 F1200 X81.159 Y99.827 E453.65469
G0 F6000 X81.159 Y99.261
G1 F1200 X153.839 Y171.941 E457.07333
G0 F6000 X153.839 Y171.375
G1 F1200 X81.159 Y98.695 E460.49198
G0 F6000 X81.159 Y98.13
G1 F1200 X153.839 Y170.81 E463.91062
G0 F6000 X153.839 Y170.244
G1 F1200 X81.159 Y97.564 E467.32927
G0 F6000 X81.159 Y96.998
G1 F1200 X153.839 Y169.678 E470.74791
G0 F6000 X153.839 Y169.113
G1 F1200 X81.159 Y96.433 E474.16655
G0 F6000 X81.159 Y95.867
G1 F1200 X153.839 Y168.547 E477.5852
G0 F6000 X153.839 Y167.981
G1 F1200 X81.159 Y95.301 E481.00384
G0 F6000 X81.159 Y94.736
G1 F1200 X153.839 Y167.416 E484.42249
G0 F6000 X153.839 Y166.85
G1 F1200 X81.159 Y94.17 E487.84113
G0 F6000 X81.159 Y93.604
G1 F1200 X153.839 Y166.284 E491.25978
G0 F6000 X153.839 Y165.718
G1 F1200 X81.159 Y93.038 E494.67842
G0 F6000 X81.159 Y92.473
G1 F1200 X153.839 Y165.153 E498.09706
G0 F6000 X153.839 Y164.587
G1 F1200 X81.159 Y91.907 E501.51571
G0 F6000 X81.159 Y91.341
G1 F1200 X153.839 Y164.021 E504.93435
G0 F6000 X153.839 Y163.456
G1 F1200 X81.159 Y90.776 E508.353
G0 F6000 X81.159 Y90.21
G1 F1200 X153.839 Y162.89 E511.77164
G0 F6000 X153.839 Y162.324
G1 F1200 X81.159 Y89.644 E515.19029
G0 F6000 X81.159 Y89.079
G1 F1200 X153.839 Y161.759 E518.60893
G0 F6000 X153.839 Y161.193
G1 F1200 X81.159 Y88.513 E522.02757
G0 F6000 X81.159 Y87.947
G1 F1200 X153.839 Y160.627 E525.44622
G0 F6000 X153.839 Y160.062
G1 F1200 X81.159 Y87.382 E528.86486
G0 F6000 X81.159 Y86.816
G1 F1200 X153.839 Y159.496 E532.28351
G0 F6000 X153.839 Y158.93
G1 F1200 X81.159 Y86.25 E535.70215
G0 F6000 X81.159 Y85.685
G1 F1200 X153.839 Y158.365 E539.1208
G0 F6000 X153.839 Y157.799
G1 F1200 X81.159 Y85.119 E542.53944
G0 F6000 X81.159 Y84.553
G1 F1200 X153.839 Y157.233 E545.95809
G0 F6000 X153.839 Y156.667
G1 F1200 X81.159 Y83.988 E549.37671
G0 F6000 X81.159 Y83.422
G1 F1200 X153.839 Y156.102 E552.79535
G0 F6000 X153.839 Y155.536
G1 F1200 X81.159 Y82.856 E556.214
G0 F6000 X81.159 Y82.29
G1 F1200 X153.839 Y154.97 E559.63264
G0 F6000 X153.839 Y154.405
G1 F1200 X81.159 Y81.725 E563.05128
G0 F6000 X81.159 Y81.159
G1 F1200 X153.839 Y153.839 E566.46993
G0 F6000 X153.839 Y153.273
G1 F1200 X81.159 Y80.593 E569.88857
G0 F6000 X81.159 Y80.028
G1 F1200 X153.839 Y152.708 E573.30722
G0 F6000 X153.839 Y152.142
G1 F1200 X81.159 Y79.462 E576.72586
G0 F6000 X81.159 Y78.896
G1 F1200 X153.839 Y151.576 E580.14451
G0 F6000 X153.839 Y151.011
G1 F1200 X81.159 Y78.331 E583.56315
G0 F6000 X81.159 Y77.765
G1 F1200 X153.839 Y150.445 E586.98179
G0 F6000 X153.839 Y149.879
G1 F1200 X81.159 Y77.199 E590.40044
G0 F6000 X81.159 Y76.634
G1 F1200 X153.839 Y149.314 E593.81908
G0 F6000 X153.839 Y148.748
G1 F1200 X81.159 Y76.068 E597.23773
G0 F6000 X81.159 Y75.502
G1 F1200 X153.839 Y148.182 E600.65637
G0 F6000 X153.839 Y147.617
G1 F1200 X81.159 Y74.937 E604.07502
G0 F6000 X81.159 Y74.371
G1 F1200 X153.839 Y147.051 E607.49366
G0 F6000 X153.839 Y146.485
G1 F1200 X81.159 Y73.805 E610.9123
G0 F6000 X81.159 Y73.239
G1 F1200 X153.839 Y145.919 E614.33095
G0 F6000 X153.839 Y145.354
