;FLAVOR:Marlin
;TIME:13399
;Filament used: 10.4458m
;Layer height: 0.2
;MINX:80.2
;MINY:50.2
;MINZ:0.2
;MAXX:154.8
;MAXY:184.8
;MAXZ:15
;Generated with Cura_SteamEngine 5.2.1
M140 S60
M105
M190 S60
M104 S200
M105
M109 S200
M82 ;absolute extrusion mode
M201 X500.00 Y500.00 Z100.00 E5000.00 ;Setup machine max acceleration
M203 X500.00 Y500.00 Z10.00 E50.00 ;Setup machine max feedrate
M204 P500.00 R1000.00 T500.00 ;Setup Print/Retract/Travel acceleration
M205 X8.00 Y8.00 Z0.40 E5.00 ;Setup Jerk
M220 S100 ;Reset Feedrate
M221 S100 ;Reset Flowrate

G28 ;Home

G92 E0 ;Reset Extruder
G1 Z2.0 F3000 ;Move Z Axis up
G1 X10.1 Y20 Z0.28 F5000.0 ;Move to start position
G1 X10.1 Y200.0 Z0.28 F1500.0 E15 ;Draw the first line
G1 X10.4 Y200.0 Z0.28 F5000.0 ;Move to side a little
G1 X10.4 Y20 Z0.28 F1500.0 E30 ;Draw the second line
G92 E0 ;Reset Extruder
G1 Z2.0 F3000 ;Move Z Axis up

G92 E0
G92 E0
G1 F1500 E-6.5
;LAYER_COUNT:75
;LAYER:0
M107
;MESH:santorini-box-tokens.stl
G0 F6000 X80.6 Y184.4 Z0.2
;TYPE:WALL-INNER
G1 F1500 E0
G1 F1200 X154.4 Y184.4 E2.4546
G1 X154.4 Y50.6 E6.9048
G1 X80.6 Y50.6 E9.3594
G1 X80.6 Y184.4 E13.80961
G0 F6000 X80.2 Y184.8
;TYPE:WALL-OUTER
G1 F1200 X154.8 Y184.8 E16.29081
G1 X154.8 Y50.2 E20.76763
G1 X80.2 Y50.2 E23.24883
G1 X80.2 Y184.8 E27.72565
G0 F6000 X80.47 Y184.53
G0 X80.7 Y184.04
G0 X80.96 Y184.04
;TYPE:SKIN
G1 F1200 X154.04 Y184.04 E30.1563
G1 X154.04 Y50.96 E34.58256
G1 X80.96 Y50.96 E37.01321
G1 X80.96 Y184.04 E41.43947
G0 F6000 X81.45 Y183.839
G1 F1200 X81.159 Y183.548 E41.45316
G0 F6000 X81.159 Y182.982
G1 F1200 X82.015 Y183.839 E41.49344
G0 F6000 X82.581 Y183.839
G1 F1200 X81.159 Y182.417 E41.56033
G0 F6000 X81.159 Y181.851
G1 F1200 X83.147 Y183.839 E41.65384
G0 F6000 X83.712 Y183.839
G1 F1200 X81.159 Y181.285 E41.77395
G0 F6000 X81.159 Y180.72
G1 F1200 X84.278 Y183.839 E41.92066
G0 F6000 X84.844 Y183.839
G1 F1200 X81.159 Y180.154 E42.09399
G0 F6000 X81.159 Y179.588
G1 F1200 X85.41 Y183.839 E42.29394
G0 F6000 X85.975 Y183.839
G1 F1200 X81.159 Y179.023 E42.52047
G0 F6000 X81.159 Y178.457
G1 F1200 X86.541 Y183.839 E42.77362
G0 F6000 X87.107 Y183.839
G1 F1200 X81.159 Y177.891 E43.0534
G0 F6000 X81.159 Y177.326
G1 F1200 X87.672 Y183.839 E43.35975
G0 F6000 X88.238 Y183.839
G1 F1200 X81.159 Y176.76 E43.69272
G0 F6000 X81.159 Y176.194
G1 F1200 X88.804 Y183.839 E44.05232
G0 F6000 X89.369 Y183.839
G1 F1200 X81.159 Y175.629 E44.4385
G0 F6000 X81.159 Y175.063
G1 F1200 X89.935 Y183.839 E44.85129
G0 F6000 X90.501 Y183.839
G1 F1200 X81.159 Y174.497 E45.29071
G0 F6000 X81.159 Y173.932
G1 F1200 X91.066 Y183.839 E45.75671
G0 F6000 X91.632 Y183.839
G1 F1200 X81.159 Y173.366 E46.24932
G0 F6000 X81.159 Y172.8
G1 F1200 X92.198 Y183.839 E46.76856
G0 F6000 X92.763 Y183.839
G1 F1200 X81.159 Y172.234 E47.3144
G0 F6000 X81.159 Y171.669
G1 F1200 X93.329 Y183.839 E47.88684
G0 F6000 X93.895 Y183.839
G1 F1200 X81.159 Y171.103 E48.48591
G0 F6000 X81.159 Y170.537
G1 F1200 X94.46 Y183.839 E49.11157
G0 F6000 X95.026 Y183.839
G1 F1200 X81.159 Y169.972 E49.76383
G0 F6000 X81.159 Y169.406
G1 F1200 X95.592 Y183.839 E50.44271
G0 F6000 X96.158 Y183.839
G1 F1200 X81.159 Y168.84 E51.14822
G0 F6000 X81.159 Y168.275
G1 F1200 X96.723 Y183.839 E51.8803
G0 F6000 X97.289 Y183.839
G1 F1200 X81.159 Y167.709 E52.63901
G0 F6000 X81.159 Y167.143
G1 F1200 X97.855 Y183.839 E53.42434
G0 F6000 X98.42 Y183.839
G1 F1200 X81.159 Y166.578 E54.23624
G0 F6000 X81.159 Y166.012
G1 F1200 X98.986 Y183.839 E55.07477
G0 F6000 X99.552 Y183.839
G1 F1200 X81.159 Y165.446 E55.93992
G0 F6000 X81.159 Y164.881
G1 F1200 X100.117 Y183.839 E56.83165
G0 F6000 X100.683 Y183.839
G1 F1200 X81.159 Y164.315 E57.74999
G0 F6000 X81.159 Y163.749
G1 F1200 X101.249 Y183.839 E58.69497
G0 F6000 X101.814 Y183.839
G1 F1200 X81.159 Y163.183 E59.66654
G0 F6000 X81.159 Y162.618
G1 F1200 X102.38 Y183.839 E60.66471
G0 F6000 X102.946 Y183.839
G1 F1200 X81.159 Y162.052 E61.6895
G0 F6000 X81.159 Y161.486
G1 F1200 X103.511 Y183.839 E62.7409
G0 F6000 X104.077 Y183.839
G1 F1200 X81.159 Y160.921 E63.81889
G0 F6000 X81.159 Y160.355
G1 F1200 X104.643 Y183.839 E64.9235
G0 F6000 X105.209 Y183.839
G1 F1200 X81.159 Y159.789 E66.05474
G0 F6000 X81.159 Y159.224
G1 F1200 X105.774 Y183.839 E67.21256
G0 F6000 X106.34 Y183.839
G1 F1200 X81.159 Y158.658 E68.39699
G0 F6000 X81.159 Y158.092
G1 F1200 X106.906 Y183.839 E69.60805
G0 F6000 X107.471 Y183.839
G1 F1200 X81.159 Y157.527 E70.84569
G0 F6000 X81.159 Y156.961
G1 F1200 X108.037 Y183.839 E72.10995
G0 F6000 X108.603 Y183.839
G1 F1200 X81.159 Y156.395 E73.40083
G0 F6000 X81.159 Y155.83
G1 F1200 X109.168 Y183.839 E74.71829
G0 F6000 X109.734 Y183.839
G1 F1200 X81.159 Y155.264 E76.06237
G0 F6000 X81.159 Y154.698
G1 F1200 X110.3 Y183.839 E77.43307
G0 F6000 X110.865 Y183.839
G1 F1200 X81.159 Y154.133 E78.83035
G0 F6000 X81.159 Y153.567
G1 F1200 X111.431 Y183.839 E80.25425
G0 F6000 X111.997 Y183.839
G1 F1200 X81.159 Y153.001 E81.70478
G0 F6000 X81.159 Y152.435
G1 F1200 X112.562 Y183.839 E83.1819
G0 F6000 X113.128 Y183.839
G1 F1200 X81.159 Y151.87 E84.68562
G0 F6000 X81.159 Y151.304
G1 F1200 X113.694 Y183.839 E86.21597
G0 F6000 X114.259 Y183.839
G1 F1200 X81.159 Y150.738 E87.77292
G0 F6000 X81.159 Y150.173
G1 F1200 X114.825 Y183.839 E89.35646
G0 F6000 X115.391 Y183.839
G1 F1200 X81.159 Y149.607 E90.96663
G0 F6000 X81.159 Y149.041
G1 F1200 X115.957 Y183.839 E92.60342
G0 F6000 X116.522 Y183.839
G1 F1200 X81.159 Y148.476 E94.26679
G0 F6000 X81.159 Y147.91
G1 F1200 X117.088 Y183.839 E95.95678
G0 F6000 X117.654 Y183.839
G1 F1200 X81.159 Y147.344 E97.67339
G0 F6000 X81.159 Y146.779
G1 F1200 X118.219 Y183.839 E99.41658
G0 F6000 X118.785 Y183.839
G1 F1200 X81.159 Y146.213 E101.18639
G0 F6000 X81.159 Y145.647
G1 F1200 X119.351 Y183.839 E102.98283
G0 F6000 X119.916 Y183.839
G1 F1200 X81.159 Y145.082 E104.80584
G0 F6000 X81.159 Y144.516
G1 F1200 X120.482 Y183.839 E106.65547
G0 F6000 X121.048 Y183.839
G1 F1200 X81.159 Y143.95 E108.53173
G0 F6000 X81.159 Y143.384
G1 F1200 X121.613 Y183.839 E110.43458
G0 F6000 X122.179 Y183.839
G1 F1200 X81.159 Y142.819 E112.36404
G0 F6000 X81.159 Y142.253
G1 F1200 X122.745 Y183.839 E114.32012
G0 F6000 X123.31 Y183.839
G1 F1200 X81.159 Y141.687 E116.30279
G0 F6000 X81.159 Y141.122
G1 F1200 X123.876 Y183.839 E118.31207
G0 F6000 X124.442 Y183.839
G1 F1200 X81.159 Y140.556 E120.34797
G0 F6000 X81.159 Y139.99
G1 F1200 X125.007 Y183.839 E122.41047
G0 F6000 X125.573 Y183.839
G1 F1200 X81.159 Y139.425 E124.49957
G0 F6000 X81.159 Y138.859
G1 F1200 X126.139 Y183.839 E126.61529
G0 F6000 X126.705 Y183.839
G1 F1200 X81.159 Y138.293 E128.75763
G0 F6000 X81.159 Y137.728
G1 F1200 X127.27 Y183.839 E130.92655
G0 F6000 X127.836 Y183.839
G1 F1200 X81.159 Y137.162 E133.1221
G0 F6000 X81.159 Y136.596
G1 F1200 X128.402 Y183.839 E135.34426
G0 F6000 X128.967 Y183.839
G1 F1200 X81.159 Y136.031 E137.593
G0 F6000 X81.159 Y135.465
G1 F1200 X129.533 Y183.839 E139.86837
G0 F6000 X130.099 Y183.839
G1 F1200 X81.159 Y134.899 E142.17036
G0 F6000 X81.159 Y134.334
G1 F1200 X130.664 Y183.839 E144.49892
G0 F6000 X131.23 Y183.839
G1 F1200 X81.159 Y133.768 E146.85411
G0 F6000 X81.159 Y133.202
G1 F1200 X131.796 Y183.839 E149.23591
G0 F6000 X132.361 Y183.839
G1 F1200 X81.159 Y132.636 E151.64432
G0 F6000 X81.159 Y132.071
G1 F1200 X132.927 Y183.839 E154.07933
G0 F6000 X133.493 Y183.839
G1 F1200 X81.159 Y131.505 E156.54096
G0 F6000 X81.159 Y130.939
G1 F1200 X134.058 Y183.839 E159.02919
G0 F6000 X134.624 Y183.839
G1 F1200 X81.159 Y130.374 E161.54402
G0 F6000 X81.159 Y129.808
G1 F1200 X135.19 Y183.839 E164.08547
G0 F6000 X135.756 Y183.839
G1 F1200 X81.159 Y129.242 E166.65355
G0 F6000 X81.159 Y128.677
G1 F1200 X136.321 Y183.839 E169.2482
G0 F6000 X136.887 Y183.839
G1 F1200 X81.159 Y128.111 E171.86948
G0 F6000 X81.159 Y127.545
G1 F1200 X137.453 Y183.839 E174.51737
G0 F6000 X138.018 Y183.839
G1 F1200 X81.159 Y126.98 E177.19185
G0 F6000 X81.159 Y126.414
G1 F1200 X138.584 Y183.839 E179.89294
G0 F6000 X139.15 Y183.839
G1 F1200 X81.159 Y125.848 E182.62066
G0 F6000 X81.159 Y125.283
G1 F1200 X139.715 Y183.839 E185.37496
G0 F6000 X140.281 Y183.839
G1 F1200 X81.159 Y124.717 E188.15587
G0 F6000 X81.159 Y124.151
G1 F1200 X140.847 Y183.839 E190.96341
G0 F6000 X141.412 Y183.839
G1 F1200 X81.159 Y123.586 E193.79753
G0 F6000 X81.159 Y123.02
G1 F1200 X141.978 Y183.839 E196.65827
G0 F6000 X142.544 Y183.839
G1 F1200 X81.159 Y122.454 E199.54563
G0 F6000 X81.159 Y121.888
G1 F1200 X143.109 Y183.839 E202.45959
G0 F6000 X143.675 Y183.839
G1 F1200 X81.159 Y121.323 E205.40015
G0 F6000 X81.159 Y120.757
G1 F1200 X144.241 Y183.839 E208.36734
G0 F6000 X144.806 Y183.839
G1 F1200 X81.159 Y120.191 E211.36112
G0 F6000 X81.159 Y119.626
G1 F1200 X145.372 Y183.839 E214.3815
G0 F6000 X145.938 Y183.839
G1 F1200 X81.159 Y119.06 E217.42851
G0 F6000 X81.159 Y118.494
G1 F1200 X146.504 Y183.839 E220.50214
G0 F6000 X147.069 Y183.839
G1 F1200 X81.159 Y117.929 E223.60234
G0 F6000 X81.159 Y117.363
G1 F1200 X147.635 Y183.839 E226.72917
G0 F6000 X148.201 Y183.839
G1 F1200 X81.159 Y116.797 E229.88262
G0 F6000 X81.159 Y116.232
G1 F1200 X148.766 Y183.839 E233.06265
G0 F6000 X149.332 Y183.839
G1 F1200 X81.159 Y115.666 E236.26929
G0 F6000 X81.159 Y115.1
G1 F1200 X149.898 Y183.839 E239.50257
G0 F6000 X150.463 Y183.839
G1 F1200 X81.159 Y114.535 E242.76241
G0 F6000 X81.159 Y113.969
G1 F1200 X151.029 Y183.839 E246.04888
G0 F6000 X151.595 Y183.839
G1 F1200 X81.159 Y113.403 E249.36198
G0 F6000 X81.159 Y112.837
G1 F1200 X152.16 Y183.839 E252.70167
G0 F6000 X152.726 Y183.839
G1 F1200 X81.159 Y112.272 E256.06796
G0 F6000 X81.159 Y111.706
G1 F1200 X153.292 Y183.839 E259.46088
G0 F6000 X153.839 Y183.82
G1 F1200 X81.159 Y111.14 E262.87952
G0 F6000 X81.159 Y110.575
G1 F1200 X153.839 Y183.255 E266.29817
G0 F6000 X153.839 Y182.689
G1 F1200 X81.159 Y110.009 E269.71681
G0 F6000 X81.159 Y109.443
G1 F1200 X153.839 Y182.123 E273.13546
G0 F6000 X153.839 Y181.558
G1 F1200 X81.159 Y108.878 E276.5541
G0 F6000 X81.159 Y108.312
G1 F1200 X153.839 Y180.992 E279.97274
G0 F6000 X153.839 Y180.426
G1 F1200 X81.159 Y107.746 E283.39139
G0 F6000 X81.159 Y107.181
G1 F1200 X153.839 Y179.861 E286.81003
G0 F6000 X153.839 Y179.295
G1 F1200 X81.159 Y106.615 E290.22868
G0 F6000 X81.159 Y106.049
G1 F1200 X153.839 Y178.729 E293.64732
G0 F6000 X153.839 Y178.164
G1 F1200 X81.159 Y105.484 E297.06597
G0 F6000 X81.159 Y104.918
G1 F1200 X153.839 Y177.598 E300.48461
G0 F6000 X153.839 Y177.032
G1 F1200 X81.159 Y104.352 E303.90325
G0 F6000 X81.159 Y103.787
G1 F1200 X153.839 Y176.466 E307.32188
G0 F6000 X153.839 Y175.901
G1 F1200 X81.159 Y103.221 E310.74052
G0 F6000 X81.159 Y102.655
G1 F1200 X153.839 Y175.335 E314.15916
G0 F6000 X153.839 Y174.769
G1 F1200 X81.159 Y102.089 E317.57781
G0 F6000 X81.159 Y101.524
G1 F1200 X153.839 Y174.204 E320.99645
G0 F6000 X153.839 Y173.638
G1 F1200 X81.159 Y100.958 E324.4151
G0 F6000 X81.159 Y100.392
G1 F1200 X153.839 Y173.072 E327.83374
G0 F6000 X153.839 Y172.507
G1 F1200 X81.159 Y99.827 E331.25239
G0 F6000 X81.159 Y99.261
G1 F1200 X153.839 Y171.941 E334.67103
G0 F6000 X153.839 Y171.375
G1 F1200 X81.159 Y98.695 E338.08967
G0 F6000 X81.159 Y98.13
G1 F1200 X153.839 Y170.81 E341.50832
G0 F6000 X153.839 Y170.244
G1 F1200 X81.159 Y97.564 E344.92696
G0 F6000 X81.159 Y96.998
G1 F1200 X153.839 Y169.678 E348.34561
G0 F6000 X153.839 Y169.113
G1 F1200 X81.159 Y96.433 E351.76425
G0 F6000 X81.159 Y95.867
G1 F1200 X153.839 Y168.547 E355.1829
G0 F6000 X153.839 Y167.981
G1 F1200 X81.159 Y95.301 E358.60154
G0 F6000 X81.159 Y94.736
G1 F1200 X153.839 Y167.416 E362.02019
G0 F6000 X153.839 Y166.85
G1 F1200 X81.159 Y94.17 E365.43883
G0 F6000 X81.159 Y93.604
G1 F1200 X153.839 Y166.284 E368.85747
G0 F6000 X153.839 Y165.718
G1 F1200 X81.159 Y93.038 E372.27612
G0 F6000 X81.159 Y92.473
G1 F1200 X153.839 Y165.153 E375.69476
G0 F6000 X153.839 Y164.587
G1 F1200 X81.159 Y91.907 E379.11341
G0 F6000 X81.159 Y91.341
G1 F1200 X153.839 Y164.021 E382.53205
G0 F6000 X153.839 Y163.456
G1 F1200 X81.159 Y90.776 E385.9507
G0 F6000 X81.159 Y90.21
G1 F1200 X153.839 Y162.89 E389.36934
G0 F6000 X153.839 Y162.324
G1 F1200 X81.159 Y89.644 E392.78798
G0 F6000 X81.159 Y89.079
G1 F1200 X153.839 Y161.759 E396.20663
G0 F6000 X153.839 Y161.193
G1 F1200 X81.159 Y88.513 E399.62527
G0 F6000 X81.159 Y87.947
G1 F1200 X153.839 Y160.627 E403.04392
G0 F6000 X153.839 Y160.062
G1 F1200 X81.159 Y87.382 E406.46256
G0 F6000 X81.159 Y86.816
G1 F1200 X153.839 Y159.496 E409.88121
G0 F6000 X153.839 Y158.93
G1 F1200 X81.159 Y86.25 E413.29985
G0 F6000 X81.159 Y85.685
G1 F1200 X153.839 Y158.365 E416.7185
G0 F6000 X153.839 Y157.799
G1 F1200 X81.159 Y85.119 E420.13714
G0 F6000 X81.159 Y84.553
G1 F1200 X153.839 Y157.233 E423.55578
G0 F6000 X153.839 Y156.667
G1 F1200 X81.159 Y83.988 E426.9744
G0 F6000 X81.159 Y83.422
G1 F1200 X153.839 Y156.102 E430.39305
G0 F6000 X153.839 Y155.536
G1 F1200 X81.159 Y82.856 E433.81169
G0 F6000 X81.159 Y82.29
G1 F1200 X153.839 Y154.97 E437.23034
G0 F6000 X153.839 Y154.405
G1 F1200 X81.159 Y81.725 E440.64898
G0 F6000 X81.159 Y81.159
G1 F1200 X153.839 Y153.839 E444.06763
G0 F6000 X153.839 Y153.273
G1 F1200 X81.159 Y80.593 E447.48627
G0 F6000 X81.159 Y80.028
G1 F1200 X153.839 Y152.708 E450.90492
G0 F6000 X153.839 Y152.142
G1 F1200 X81.159 Y79.462 E454.32356
G0 F6000 X81.159 Y78.896
G1 F1200 X153.839 Y151.576 E457.7422
G0 F6000 X153.839 Y151.011
G1 F1200 X81.159 Y78.331 E461.16085
G0 F6000 X81.159 Y77.765
G1 F1200 X153.839 Y150.445 E464.57949
G0 F6000 X153.839 Y149.879
G1 F1200 X81.159 Y77.199 E467.99814
G0 F6000 X81.159 Y76.634
G1 F1200 X153.839 Y149.314 E471.41678
G0 F6000 X153.839 Y148.748
G1 F1200 X81.159 Y76.068 E474.83543
G0 F6000 X81.159 Y75.502
G1 F1200 X153.839 Y148.182 E478.25407
G0 F6000 X153.839 Y147.617
G1 F1200 X81.159 Y74.937 E481.67271
G0 F6000 X81.159 Y74.371
G1 F1200 X153.839 Y147.051 E485.09136
G0 F6000 X153.839 Y146.485
G1 F1200 X81.159 Y73.805 E488.51
G0 F6000 X81.159 Y73.239
G1 F1200 X153.839 Y145.919 E491.92865
G0 F6000 X153.839 Y145.354
G1 F1200 X81.159 Y72.674 E495.34729
G0 F6000 X81.159 Y72.108
G1 F1200 X153.839 Y144.788 E498.76594
G0 F6000 X153.839 Y144.222
G1 F1200 X81.159 Y71.542 E502.18458
G0 F6000 X81.159 Y70.977
G1 F1200 X153.839 Y143.657 E505.60323
G0 F6000 X153.839 Y143.091
G1 F1200 X81.159 Y70.411 E509.02187
G0 F6000 X81.159 Y69.845
G1 F1200 X153.839 Y142.525 E512.44051
G0 F6000 X153.839 Y141.96
G1 F1200 X81.159 Y69.28 E515.85916
G0 F6000 X81.159 Y68.714
G1 F1200 X153.839 Y141.394 E519.2778
G0 F6000 X153.839 Y140.828
G1 F1200 X81.159 Y68.148 E522.69645
G0 F6000 X81.159 Y67.583
G1 F1200 X153.839 Y140.263 E526.11509
G0 F6000 X153.839 Y139.697
G1 F1200 X81.159 Y67.017 E529.53374
G0 F6000 X81.159 Y66.451
G1 F1200 X153.839 Y139.131 E532.95238
G0 F6000 X153.839 Y138.566
G1 F1200 X81.159 Y65.886 E536.37102
G0 F6000 X81.159 Y65.32
G1 F1200 X153.839 Y138 E539.78967
G0 F6000 X153.839 Y137.434
G1 F1200 X81.159 Y64.754 E543.20831
G0 F6000 X81.159 Y64.189
G1 F1200 X153.839 Y136.869 E546.62696
G0 F6000 X153.839 Y136.303
G1 F1200 X81.159 Y63.623 E550.0456
G0 F6000 X81.159 Y63.057
G1 F1200 X153.839 Y135.737 E553.46425
G0 F6000 X153.839 Y135.171
G1 F1200 X81.159 Y62.491 E556.88289
G0 F6000 X81.159 Y61.926
G1 F1200 X153.839 Y134.606 E560.30154
G0 F6000 X153.839 Y134.04
G1 F1200 X81.159 Y61.36 E563.72018
G0 F6000 X81.159 Y60.794
G1 F1200 X153.839 Y133.474 E567.13882
G0 F6000 X153.839 Y132.909
G1 F1200 X81.159 Y60.229 E570.55747
G0 F6000 X81.159 Y59.663
G1 F1200 X153.839 Y132.343 E573.97611
G0 F6000 X153.839 Y131.777
G1 F1200 X81.159 Y59.097 E577.39476
G0 F6000 X81.159 Y58.532
G1 F1200 X153.839 Y131.212 E580.8134
G0 F6000 X153.839 Y130.646
G1 F1200 X81.159 Y57.966 E584.23205
G0 F6000 X81.159 Y57.4
G1 F1200 X153.839 Y130.08 E587.65069
G0 F6000 X153.839 Y129.515
G1 F1200 X81.159 Y56.835 E591.06933
G0 F6000 X81.159 Y56.269
G1 F1200 X153.839 Y128.949 E594.48798
G0 F6000 X153.839 Y128.383
G1 F1200 X81.159 Y55.703 E597.90662
G0 F6000 X81.159 Y55.138
G1 F1200 X153.839 Y127.818 E601.32527
G0 F6000 X153.839 Y127.252
G1 F1200 X81.159 Y54.572 E604.74391
G0 F6000 X81.159 Y54.006
G1 F1200 X153.839 Y126.686 E608.16256
G0 F6000 X153.839 Y126.12
G1 F1200 X81.159 Y53.441 E611.58118
