;FLAVOR:Marlin
;TIME:37291
;Filament used: 29.6453m
;Layer height: 0.2
;MINX:55.2
;MINY:55.2
;MINZ:0.2
;MAXX:179.8
;MAXY:179.8
;MAXZ:60
;Generated with Cura_SteamEngine 5.2.1
M140 S60
M105
M190 S60
M104 S200
M105
M109 S200
M82 ;absolute extrusion mode
M201 X500.00 Y500.00 Z100.00 E5000.00 ;Setup machine max acceleration
M203 X500.00 Y500.00 Z10.00 E50.00 ;Setup machine max feedrate
M204 P500.00 R1000.00 T500.00 ;Setup Print/Retract/Travel acceleration
M205 X8.00 Y8.00 Z0.40 E5.00 ;Setup Jerk
M220 S100 ;Reset Feedrate
M221 S100 ;Reset Flowrate

G28 ;Home

G92 E0 ;Reset Extruder
G1 Z2.0 F3000 ;Move Z Axis up
G1 X10.1 Y20 Z0.28 F5000.0 ;Move to start position
G1 X10.1 Y200.0 Z0.28 F1500.0 E15 ;Draw the first line
G1 X10.4 Y200.0 Z0.28 F5000.0 ;Move to side a little
G1 X10.4 Y20 Z0.28 F1500.0 E30 ;Draw the second line
G92 E0 ;Reset Extruder
G1 Z2.0 F3000 ;Move Z Axis up

G92 E0
G92 E0
G1 F1500 E-6.5
;LAYER_COUNT:300
;LAYER:0
M107
;MESH:santorini-box-lv1.stl
G0 F6000 X55.6 Y179.4 Z0.2
;TYPE:WALL-INNER
G1 F1500 E0
G1 F1200 X179.4 Y179.4 E4.1176
G1 X179.4 Y55.6 E8.23521
G1 X55.6 Y55.6 E12.35281
G1 X55.6 Y179.4 E16.47042
G0 F6000 X55.2 Y179.8
;TYPE:WALL-OUTER
G1 F1200 X179.8 Y179.8 E20.61463
G1 X179.8 Y55.2 E24.75884
G1 X55.2 Y55.2 E28.90306
G1 X55.2 Y179.8 E33.04727
G0 F6000 X55.47 Y179.53
G0 X55.7 Y179.04
G0 X55.96 Y179.04
;TYPE:SKIN
G1 F1200 X179.04 Y179.04 E37.14093
G1 X179.04 Y55.96 E41.23459
G1 X55.96 Y55.96 E45.32824
G1 X55.96 Y117.5 E47.37507
G1 X55.96 Y179.04 E49.4219
G0 F6000 X56.651 Y178.839
G1 F1200 X56.159 Y178.347 E49.44504
G0 F6000 X56.159 Y177.782
G1 F1200 X57.216 Y178.839 E49.49476
G0 F6000 X57.782 Y178.839
G1 F1200 X56.159 Y177.216 E49.5711
G0 F6000 X56.159 Y176.65
G1 F1200 X58.348 Y178.839 E49.67406
G0 F6000 X58.914 Y178.839
G1 F1200 X56.159 Y176.085 E49.80363
G0 F6000 X56.159 Y175.519
G1 F1200 X59.479 Y178.839 E49.95979
G0 F6000 X60.045 Y178.839
G1 F1200 X56.159 Y174.953 E50.14258
G0 F6000 X56.159 Y174.388
G1 F1200 X60.611 Y178.839 E50.35196
G0 F6000 X61.176 Y178.839
G1 F1200 X56.159 Y173.822 E50.58795
G0 F6000 X56.159 Y173.256
G1 F1200 X61.742 Y178.839 E50.85055
G0 F6000 X62.308 Y178.839
G1 F1200 X56.159 Y172.691 E51.13976
G0 F6000 X56.159 Y172.125
G1 F1200 X62.873 Y178.839 E51.45557
G0 F6000 X63.439 Y178.839
G1 F1200 X56.159 Y171.559 E51.79799
G0 F6000 X56.159 Y170.993
G1 F1200 X64.005 Y178.839 E52.16705
G0 F6000 X64.57 Y178.839
G1 F1200 X56.159 Y170.428 E52.56267
G0 F6000 X56.159 Y169.862
G1 F1200 X65.136 Y178.839 E52.98492
G0 F6000 X65.702 Y178.839
G1 F1200 X56.159 Y169.296 E53.4338
G0 F6000 X56.159 Y168.731
G1 F1200 X66.267 Y178.839 E53.90925
G0 F6000 X66.833 Y178.839
G1 F1200 X56.159 Y168.165 E54.41132
G0 F6000 X56.159 Y167.599
G1 F1200 X67.399 Y178.839 E54.94001
G0 F6000 X67.964 Y178.839
G1 F1200 X56.159 Y167.034 E55.49529
G0 F6000 X56.159 Y166.468
G1 F1200 X68.53 Y178.839 E56.07718
G0 F6000 X69.096 Y178.839
G1 F1200 X56.159 Y165.902 E56.6857
G0 F6000 X56.159 Y165.337
G1 F1200 X69.662 Y178.839 E57.32081
G0 F6000 X70.227 Y178.839
G1 F1200 X56.159 Y164.771 E57.98253
G0 F6000 X56.159 Y164.205
G1 F1200 X70.793 Y178.839 E58.67087
G0 F6000 X71.359 Y178.839
G1 F1200 X56.159 Y163.64 E59.3858
G0 F6000 X56.159 Y163.074
G1 F1200 X71.924 Y178.839 E60.12734
G0 F6000 X72.49 Y178.839
G1 F1200 X56.159 Y162.508 E60.8955
G0 F6000 X56.159 Y161.943
G1 F1200 X73.056 Y178.839 E61.69026
G0 F6000 X73.621 Y178.839
G1 F1200 X56.159 Y161.377 E62.51162
G0 F6000 X56.159 Y160.811
G1 F1200 X74.187 Y178.839 E63.3596
G0 F6000 X74.753 Y178.839
G1 F1200 X56.159 Y160.245 E64.23421
G0 F6000 X56.159 Y159.68
G1 F1200 X75.318 Y178.839 E65.13539
G0 F6000 X75.884 Y178.839
G1 F1200 X56.159 Y159.114 E66.06319
G0 F6000 X56.159 Y158.548
G1 F1200 X76.45 Y178.839 E67.01762
G0 F6000 X77.015 Y178.839
G1 F1200 X56.159 Y157.983 E67.99862
G0 F6000 X56.159 Y157.417
G1 F1200 X77.581 Y178.839 E69.00624
G0 F6000 X78.147 Y178.839
G1 F1200 X56.159 Y156.851 E70.04049
G0 F6000 X56.159 Y156.286
G1 F1200 X78.713 Y178.839 E71.10134
G0 F6000 X79.278 Y178.839
G1 F1200 X56.159 Y155.72 E72.18879
G0 F6000 X56.159 Y155.154
G1 F1200 X79.844 Y178.839 E73.30286
G0 F6000 X80.41 Y178.839
G1 F1200 X56.159 Y154.589 E74.44353
G0 F6000 X56.159 Y154.023
G1 F1200 X80.975 Y178.839 E75.61079
G0 F6000 X81.541 Y178.839
G1 F1200 X56.159 Y153.457 E76.80469
G0 F6000 X56.159 Y152.892
G1 F1200 X82.107 Y178.839 E78.02518
G0 F6000 X82.672 Y178.839
G1 F1200 X56.159 Y152.326 E79.27227
G0 F6000 X56.159 Y151.76
G1 F1200 X83.238 Y178.839 E80.54598
G0 F6000 X83.804 Y178.839
G1 F1200 X56.159 Y151.194 E81.84632
G0 F6000 X56.159 Y150.629
G1 F1200 X84.369 Y178.839 E83.17323
G0 F6000 X84.935 Y178.839
G1 F1200 X56.159 Y150.063 E84.52676
G0 F6000 X56.159 Y149.497
G1 F1200 X85.501 Y178.839 E85.90692
G0 F6000 X86.066 Y178.839
G1 F1200 X56.159 Y148.932 E87.31365
G0 F6000 X56.159 Y148.366
G1 F1200 X86.632 Y178.839 E88.74701
G0 F6000 X87.198 Y178.839
G1 F1200 X56.159 Y147.8 E90.20699
G0 F6000 X56.159 Y147.235
G1 F1200 X87.763 Y178.839 E91.69355
G0 F6000 X88.329 Y178.839
G1 F1200 X56.159 Y146.669 E93.20672
G0 F6000 X56.159 Y146.103
G1 F1200 X88.895 Y178.839 E94.74652
G0 F6000 X89.461 Y178.839
G1 F1200 X56.159 Y145.538 E96.31293
G0 F6000 X56.159 Y144.972
G1 F1200 X90.026 Y178.839 E97.90593
G0 F6000 X90.592 Y178.839
G1 F1200 X56.159 Y144.406 E99.52555
G0 F6000 X56.159 Y143.841
G1 F1200 X91.158 Y178.839 E101.17177
G0 F6000 X91.723 Y178.839
G1 F1200 X56.159 Y143.275 E102.84459
G0 F6000 X56.159 Y142.709
G1 F1200 X92.289 Y178.839 E104.54404
G0 F6000 X92.855 Y178.839
G1 F1200 X56.159 Y142.144 E106.27008
G0 F6000 X56.159 Y141.578
G1 F1200 X93.42 Y178.839 E108.02272
G0 F6000 X93.986 Y178.839
G1 F1200 X56.159 Y141.012 E109.80199
G0 F6000 X56.159 Y140.446
G1 F1200 X94.552 Y178.839 E111.60788
G0 F6000 X95.117 Y178.839
G1 F1200 X56.159 Y139.881 E113.44034
G0 F6000 X56.159 Y139.315
G1 F1200 X95.683 Y178.839 E115.29943
G0 F6000 X96.249 Y178.839
G1 F1200 X56.159 Y138.749 E117.18514
G0 F6000 X56.159 Y138.184
G1 F1200 X96.814 Y178.839 E119.09743
G0 F6000 X97.38 Y178.839
G1 F1200 X56.159 Y137.618 E121.03634
G0 F6000 X56.159 Y137.052
G1 F1200 X97.946 Y178.839 E123.00187
G0 F6000 X98.511 Y178.839
G1 F1200 X56.159 Y136.487 E124.99398
G0 F6000 X56.159 Y135.921
G1 F1200 X99.077 Y178.839 E127.01271
G0 F6000 X99.643 Y178.839
G1 F1200 X56.159 Y135.355 E129.05806
G0 F6000 X56.159 Y134.79
G1 F1200 X100.209 Y178.839 E131.13002
G0 F6000 X100.774 Y178.839
G1 F1200 X56.159 Y134.224 E133.22857
G0 F6000 X56.159 Y133.658
G1 F1200 X101.34 Y178.839 E135.35375
G0 F6000 X101.906 Y178.839
G1 F1200 X56.159 Y133.093 E137.50552
G0 F6000 X56.159 Y132.527
G1 F1200 X102.471 Y178.839 E139.68389
G0 F6000 X103.037 Y178.839
G1 F1200 X56.159 Y131.961 E141.88889
G0 F6000 X56.159 Y131.395
G1 F1200 X103.603 Y178.839 E144.12051
G0 F6000 X104.168 Y178.839
G1 F1200 X56.159 Y130.83 E146.37871
G0 F6000 X56.159 Y130.264
G1 F1200 X104.734 Y178.839 E148.66353
G0 F6000 X105.3 Y178.839
G1 F1200 X56.159 Y129.698 E150.97497
G0 F6000 X56.159 Y129.133
G1 F1200 X105.865 Y178.839 E153.31299
G0 F6000 X106.431 Y178.839
G1 F1200 X56.159 Y128.567 E155.67763
G0 F6000 X56.159 Y128.001
G1 F1200 X106.997 Y178.839 E158.06889
G0 F6000 X107.562 Y178.839
G1 F1200 X56.159 Y127.436 E160.48673
G0 F6000 X56.159 Y126.87
G1 F1200 X108.128 Y178.839 E162.93119
G0 F6000 X108.694 Y178.839
G1 F1200 X56.159 Y126.304 E165.40228
G0 F6000 X56.159 Y125.739
G1 F1200 X109.26 Y178.839 E167.89996
G0 F6000 X109.825 Y178.839
G1 F1200 X56.159 Y125.173 E170.42425
G0 F6000 X56.159 Y124.607
G1 F1200 X110.391 Y178.839 E172.97516
G0 F6000 X110.957 Y178.839
G1 F1200 X56.159 Y124.042 E175.55266
G0 F6000 X56.159 Y123.476
G1 F1200 X111.522 Y178.839 E178.15677
G0 F6000 X112.088 Y178.839
G1 F1200 X56.159 Y122.91 E180.7875
G0 F6000 X56.159 Y122.345
G1 F1200 X112.654 Y178.839 E183.44482
G0 F6000 X113.219 Y178.839
G1 F1200 X56.159 Y121.779 E186.12875
G0 F6000 X56.159 Y121.213
G1 F1200 X113.785 Y178.839 E188.8393
G0 F6000 X114.351 Y178.839
G1 F1200 X56.159 Y120.647 E191.57648
G0 F6000 X56.159 Y120.082
G1 F1200 X114.916 Y178.839 E194.34022
G0 F6000 X115.482 Y178.839
G1 F1200 X56.159 Y119.516 E197.1306
G0 F6000 X56.159 Y118.95
G1 F1200 X116.048 Y178.839 E199.94759
G0 F6000 X116.613 Y178.839
G1 F1200 X56.159 Y118.385 E202.79116
G0 F6000 X56.159 Y117.819
G1 F1200 X117.179 Y178.839 E205.66136
G0 F6000 X117.745 Y178.839
G1 F1200 X56.159 Y117.253 E208.55817
G0 F6000 X56.159 Y116.688
G1 F1200 X118.31 Y178.839 E211.48156
G0 F6000 X118.876 Y178.839
G1 F1200 X56.159 Y116.122 E214.43158
G0 F6000 X56.159 Y115.556
G1 F1200 X119.442 Y178.839 E217.40822
G0 F6000 X120.008 Y178.839
G1 F1200 X56.159 Y114.991 E220.41146
G0 F6000 X56.159 Y114.425
G1 F1200 X120.573 Y178.839 E223.44129
G0 F6000 X121.139 Y178.839
G1 F1200 X56.159 Y113.859 E226.49775
G0 F6000 X56.159 Y113.294
G1 F1200 X121.705 Y178.839 E229.58081
G0 F6000 X122.27 Y178.839
G1 F1200 X56.159 Y112.728 E232.69047
G0 F6000 X56.159 Y112.162
G1 F1200 X122.836 Y178.839 E235.82675
G0 F6000 X123.402 Y178.839
G1 F1200 X56.159 Y111.597 E238.98963
G0 F6000 X56.159 Y111.031
G1 F1200 X123.967 Y178.839 E242.17911
G0 F6000 X124.533 Y178.839
G1 F1200 X56.159 Y110.465 E245.39522
G0 F6000 X56.159 Y109.899
G1 F1200 X125.099 Y178.839 E248.63794
G0 F6000 X125.664 Y178.839
G1 F1200 X56.159 Y109.334 E251.90725
G0 F6000 X56.159 Y108.768
G1 F1200 X126.23 Y178.839 E255.20317
G0 F6000 X126.796 Y178.839
G1 F1200 X56.159 Y108.202 E258.52572
G0 F6000 X56.159 Y107.637
G1 F1200 X127.361 Y178.839 E261.87484
G0 F6000 X127.927 Y178.839
G1 F1200 X56.159 Y107.071 E265.25059
G0 F6000 X56.159 Y106.505
G1 F1200 X128.493 Y178.839 E268.65296
G0 F6000 X129.059 Y178.839
G1 F1200 X56.159 Y105.94 E272.08193
G0 F6000 X56.159 Y105.374
G1 F1200 X129.624 Y178.839 E275.5375
G0 F6000 X130.19 Y178.839
G1 F1200 X56.159 Y104.808 E279.01969
G0 F6000 X56.159 Y104.243
G1 F1200 X130.756 Y178.839 E282.52848
G0 F6000 X131.321 Y178.839
G1 F1200 X56.159 Y103.677 E286.06387
G0 F6000 X56.159 Y103.111
G1 F1200 X131.887 Y178.839 E289.62588
G0 F6000 X132.453 Y178.839
G1 F1200 X56.159 Y102.546 E293.21449
G0 F6000 X56.159 Y101.98
G1 F1200 X133.018 Y178.839 E296.82971
G0 F6000 X133.584 Y178.839
G1 F1200 X56.159 Y101.414 E300.47154
G0 F6000 X56.159 Y100.848
G1 F1200 X134.15 Y178.839 E304.14
G0 F6000 X134.715 Y178.839
G1 F1200 X56.159 Y100.283 E307.83503
G0 F6000 X56.159 Y99.717
G1 F1200 X135.281 Y178.839 E311.55669
G0 F6000 X135.847 Y178.839
G1 F1200 X56.159 Y99.151 E315.30497
G0 F6000 X56.159 Y98.586
G1 F1200 X136.412 Y178.839 E319.07982
G0 F6000 X136.978 Y178.839
G1 F1200 X56.159 Y98.02 E322.8813
G0 F6000 X56.159 Y97.454
G1 F1200 X137.544 Y178.839 E326.7094
G0 F6000 X138.109 Y178.839
G1 F1200 X56.159 Y96.889 E330.56408
G0 F6000 X56.159 Y96.323
G1 F1200 X138.675 Y178.839 E334.44538
G0 F6000 X139.241 Y178.839
G1 F1200 X56.159 Y95.757 E338.3533
G0 F6000 X56.159 Y95.192
G1 F1200 X139.807 Y178.839 E342.28782
G0 F6000 X140.372 Y178.839
G1 F1200 X56.159 Y94.626 E346.24894
G0 F6000 X56.159 Y94.06
G1 F1200 X140.938 Y178.839 E350.23669
G0 F6000 X141.504 Y178.839
G1 F1200 X56.159 Y93.495 E354.25103
G0 F6000 X56.159 Y92.929
G1 F1200 X142.069 Y178.839 E358.29197
G0 F6000 X142.635 Y178.839
G1 F1200 X56.159 Y92.363 E362.35954
G0 F6000 X56.159 Y91.798
G1 F1200 X143.201 Y178.839 E366.4537
G0 F6000 X143.766 Y178.839
G1 F1200 X56.159 Y91.232 E370.57447
G0 F6000 X56.159 Y90.666
G1 F1200 X144.332 Y178.839 E374.72186
G0 F6000 X144.898 Y178.839
G1 F1200 X56.159 Y90.1 E378.89587
G0 F6000 X56.159 Y89.535
G1 F1200 X145.463 Y178.839 E383.09645
G0 F6000 X146.029 Y178.839
G1 F1200 X56.159 Y88.969 E387.32366
G0 F6000 X56.159 Y88.403
G1 F1200 X146.595 Y178.839 E391.5775
G0 F6000 X147.16 Y178.839
G1 F1200 X56.159 Y87.838 E395.8579
G0 F6000 X56.159 Y87.272
G1 F1200 X147.726 Y178.839 E400.16493
G0 F6000 X148.292 Y178.839
G1 F1200 X56.159 Y86.706 E404.49859
G0 F6000 X56.159 Y86.141
G1 F1200 X148.857 Y178.839 E408.85882
G0 F6000 X149.423 Y178.839
G1 F1200 X56.159 Y85.575 E413.24567
G0 F6000 X56.159 Y85.009
G1 F1200 X149.989 Y178.839 E417.65915
G0 F6000 X150.555 Y178.839
G1 F1200 X56.159 Y84.444 E422.09922
G0 F6000 X56.159 Y83.878
G1 F1200 X151.12 Y178.839 E426.5659
G0 F6000 X151.686 Y178.839
G1 F1200 X56.159 Y83.312 E431.05919
G0 F6000 X56.159 Y82.747
G1 F1200 X152.252 Y178.839 E435.57909
G0 F6000 X152.817 Y178.839
G1 F1200 X56.159 Y82.181 E440.12558
G0 F6000 X56.159 Y81.615
G1 F1200 X153.383 Y178.839 E444.6987
G0 F6000 X153.949 Y178.839
G1 F1200 X56.159 Y81.049 E449.29845
G0 F6000 X56.159 Y80.484
G1 F1200 X154.514 Y178.839 E453.92476
G0 F6000 X155.08 Y178.839
G1 F1200 X56.159 Y79.918 E458.5777
G0 F6000 X56.159 Y79.352
G1 F1200 X155.646 Y178.839 E463.25727
G0 F6000 X156.211 Y178.839
G1 F1200 X56.159 Y78.787 E467.96341
G0 F6000 X56.159 Y78.221
G1 F1200 X156.777 Y178.839 E472.69617
G0 F6000 X157.343 Y178.839
G1 F1200 X56.159 Y77.655 E477.45555
G0 F6000 X56.159 Y77.09
G1 F1200 X157.908 Y178.839 E482.24151
G0 F6000 X158.474 Y178.839
G1 F1200 X56.159 Y76.524 E487.0541
G0 F6000 X56.159 Y75.958
G1 F1200 X159.04 Y178.839 E491.89331
G0 F6000 X159.606 Y178.839
G1 F1200 X56.159 Y75.393 E496.75911
G0 F6000 X56.159 Y74.827
G1 F1200 X160.171 Y178.839 E501.65152
G0 F6000 X160.737 Y178.839
G1 F1200 X56.159 Y74.261 E506.57055
G0 F6000 X56.159 Y73.696
G1 F1200 X161.303 Y178.839 E511.51617
G0 F6000 X161.868 Y178.839
G1 F1200 X56.159 Y73.13 E516.4884
G0 F6000 X56.159 Y72.564
G1 F1200 X162.434 Y178.839 E521.48725
G0 F6000 X163 Y178.839
G1 F1200 X56.159 Y71.999 E526.5127
G0 F6000 X56.159 Y71.433
G1 F1200 X163.565 Y178.839 E531.56475
G0 F6000 X164.131 Y178.839
G1 F1200 X56.159 Y70.867 E536.64342
G0 F6000 X56.159 Y70.301
G1 F1200 X164.697 Y178.839 E541.74872
G0 F6000 X165.262 Y178.839
G1 F1200 X56.159 Y69.736 E546.88059
G0 F6000 X56.159 Y69.17
G1 F1200 X165.828 Y178.839 E552.03908
G0 F6000 X166.394 Y178.839
G1 F1200 X56.159 Y68.604 E557.2242
G0 F6000 X56.159 Y68.039
G1 F1200 X166.959 Y178.839 E562.43589
G0 F6000 X167.525 Y178.839
G1 F1200 X56.159 Y67.473 E567.6742
G0 F6000 X56.159 Y66.907
G1 F1200 X168.091 Y178.839 E572.93914
G0 F6000 X168.656 Y178.839
G1 F1200 X56.159 Y66.342 E578.23066
G0 F6000 X56.159 Y65.776
G1 F1200 X169.222 Y178.839 E583.54879
G0 F6000 X169.788 Y178.839
G1 F1200 X56.159 Y65.21 E588.89355
G0 F6000 X56.159 Y64.645
G1 F1200 X170.354 Y178.839 E594.26491
G0 F6000 X170.919 Y178.839
G1 F1200 X56.159 Y64.079 E599.66287
G0 F6000 X56.159 Y63.513
G1 F1200 X171.485 Y178.839 E605.08745
G0 F6000 X172.051 Y178.839
G1 F1200 X56.159 Y62.948 E610.53863
G0 F6000 X56.159 Y62.382
G1 F1200 X172.616 Y178.839 E616.01641
G0 F6000 X173.182 Y178.839
G1 F1200 X56.159 Y61.816 E621.52082
G0 F6000 X56.159 Y61.251
G1 F1200 X173.748 Y178.839 E627.05182
G0 F6000 X174.313 Y178.839
G1 F1200 X56.159 Y60.685 E632.60942
G0 F6000 X56.159 Y60.119
G1 F1200 X174.879 Y178.839 E638.19365
G0 F6000 X175.445 Y178.839
G1 F1200 X56.159 Y59.553 E643.80449
G0 F6000 X56.159 Y58.988
G1 F1200 X176.01 Y178.839 E649.44192
G0 F6000 X176.576 Y178.839
G1 F1200 X56.159 Y58.422 E655.10596
G0 F6000 X56.159 Y57.856
G1 F1200 X177.142 Y178.839 E660.79663
G0 F6000 X177.707 Y178.839
G1 F1200 X56.159 Y57.291 E666.51388
G0 F6000 X56.159 Y56.725
G1 F1200 X178.273 Y178.839 E672.25775
G0 F6000 X178.839 Y178.839
G1 F1200 X56.159 Y56.159 E678.02824
G0 F6000 X56.726 Y56.16
G1 F1200 X178.839 Y178.273 E683.77206
G0 F6000 X178.839 Y177.707
G1 F1200 X57.291 Y56.16 E689.48928
G0 F6000 X57.857 Y56.16
G1 F1200 X178.839 Y177.142 E695.1799
G0 F6000 X178.839 Y176.576
G1 F1200 X58.423 Y56.16 E700.8439
G0 F6000 X58.988 Y56.16
G1 F1200 X178.839 Y176.01 E706.4813
G0 F6000 X178.839 Y175.445
G1 F1200 X59.554 Y56.16 E712.0921
G0 F6000 X60.12 Y56.16
G1 F1200 X178.839 Y174.879 E717.67628
G0 F6000 X178.839 Y174.313
G1 F1200 X60.686 Y56.16 E723.23384
G0 F6000 X61.251 Y56.16
G1 F1200 X178.839 Y173.748 E728.76481
G0 F6000 X178.839 Y173.182
G1 F1200 X61.817 Y56.16 E734.26917
G0 F6000 X62.383 Y56.16
G1 F1200 X178.839 Y172.616 E739.7469
G0 F6000 X178.839 Y172.051
G1 F1200 X62.948 Y56.16 E745.19806
G0 F6000 X63.514 Y56.16
G1 F1200 X178.839 Y171.485 E750.6226
G0 F6000 X178.839 Y170.919
G1 F1200 X64.08 Y56.16 E756.02051
G0 F6000 X64.645 Y56.16
