;FLAVOR:Marlin
;TIME:36271
;Filament used: 27.9598m
;Layer height: 0.2
;MINX:80.2
;MINY:41.2
;MINZ:0.2
;MAXX:154.8
;MAXY:193.8
;MAXZ:60
;Generated with Cura_SteamEngine 5.2.1
M140 S60
M105
M190 S60
M104 S200
M105
M109 S200
M82 ;absolute extrusion mode
M201 X500.00 Y500.00 Z100.00 E5000.00 ;Setup machine max acceleration
M203 X500.00 Y500.00 Z10.00 E50.00 ;Setup machine max feedrate
M204 P500.00 R1000.00 T500.00 ;Setup Print/Retract/Travel acceleration
M205 X8.00 Y8.00 Z0.40 E5.00 ;Setup Jerk
M220 S100 ;Reset Feedrate
M221 S100 ;Reset Flowrate

G28 ;Home

G92 E0 ;Reset Extruder
G1 Z2.0 F3000 ;Move Z Axis up
G1 X10.1 Y20 Z0.28 F5000.0 ;Move to start position
G1 X10.1 Y200.0 Z0.28 F1500.0 E15 ;Draw the first line
G1 X10.4 Y200.0 Z0.28 F5000.0 ;Move to side a little
G1 X10.4 Y20 Z0.28 F1500.0 E30 ;Draw the second line
G92 E0 ;Reset Extruder
G1 Z2.0 F3000 ;Move Z Axis up

G92 E0
G92 E0
G1 F1500 E-6.5
;LAYER_COUNT:300
;LAYER:0
M107
;MESH:santorini-box-lv3-domes.stl
G0 F6000 X80.6 Y193.4 Z0.2
;TYPE:WALL-INNER
G1 F1500 E0
G1 F1200 X154.4 Y193.4 E2.4546
G1 X154.4 Y41.6 E7.50349
G1 X80.6 Y41.6 E9.95808
G1 X80.6 Y193.4 E15.00697
G0 F6000 X80.2 Y193.8
;TYPE:WALL-OUTER
G1 F1200 X154.8 Y193.8 E17.48818
G1 X154.8 Y41.2 E22.56368
G1 X80.2 Y41.2 E25.04488
G1 X80.2 Y193.8 E30.12038
G0 F6000 X80.47 Y193.53
G0 X80.7 Y193.04
G0 X80.96 Y193.04
;TYPE:SKIN
G1 F1200 X154.04 Y193.04 E32.55103
G1 X154.04 Y41.96 E37.57597
G1 X80.96 Y41.96 E40.00662
G1 X80.96 Y193.04 E45.03156
G0 F6000 X81.399 Y192.839
G1 F1200 X81.159 Y192.599 E45.04285
G0 F6000 X81.159 Y192.033
G1 F1200 X81.964 Y192.839 E45.08074
G0 F6000 X82.53 Y192.839
G1 F1200 X81.159 Y191.468 E45.14523
G0 F6000 X81.159 Y190.902
G1 F1200 X83.096 Y192.839 E45.23634
G0 F6000 X83.662 Y192.839
G1 F1200 X81.159 Y190.336 E45.35407
G0 F6000 X81.159 Y189.771
G1 F1200 X84.227 Y192.839 E45.49838
G0 F6000 X84.793 Y192.839
G1 F1200 X81.159 Y189.205 E45.66931
G0 F6000 X81.159 Y188.639
G1 F1200 X85.359 Y192.839 E45.86687
G0 F6000 X85.924 Y192.839
G1 F1200 X81.159 Y188.074 E46.091
G0 F6000 X81.159 Y187.508
G1 F1200 X86.49 Y192.839 E46.34175
G0 F6000 X87.056 Y192.839
G1 F1200 X81.159 Y186.942 E46.61913
G0 F6000 X81.159 Y186.377
G1 F1200 X87.621 Y192.839 E46.92308
G0 F6000 X88.187 Y192.839
G1 F1200 X81.159 Y185.811 E47.25366
G0 F6000 X81.159 Y185.245
G1 F1200 X88.753 Y192.839 E47.61086
G0 F6000 X89.318 Y192.839
G1 F1200 X81.159 Y184.68 E47.99463
G0 F6000 X81.159 Y184.114
G1 F1200 X89.884 Y192.839 E48.40503
G0 F6000 X90.45 Y192.839
G1 F1200 X81.159 Y183.548 E48.84205
G0 F6000 X81.159 Y182.982
G1 F1200 X91.015 Y192.839 E49.30567
G0 F6000 X91.581 Y192.839
G1 F1200 X81.159 Y182.417 E49.79589
G0 F6000 X81.159 Y181.851
G1 F1200 X92.147 Y192.839 E50.31273
G0 F6000 X92.713 Y192.839
G1 F1200 X81.159 Y181.285 E50.85619
G0 F6000 X81.159 Y180.72
G1 F1200 X93.278 Y192.839 E51.42623
G0 F6000 X93.844 Y192.839
G1 F1200 X81.159 Y180.154 E52.0229
G0 F6000 X81.159 Y179.588
G1 F1200 X94.41 Y192.839 E52.64618
G0 F6000 X94.975 Y192.839
G1 F1200 X81.159 Y179.023 E53.29605
G0 F6000 X81.159 Y178.457
G1 F1200 X95.541 Y192.839 E53.97253
G0 F6000 X96.107 Y192.839
G1 F1200 X81.159 Y177.891 E54.67564
G0 F6000 X81.159 Y177.326
G1 F1200 X96.672 Y192.839 E55.40532
G0 F6000 X97.238 Y192.839
G1 F1200 X81.159 Y176.76 E56.16163
G0 F6000 X81.159 Y176.194
G1 F1200 X97.804 Y192.839 E56.94456
G0 F6000 X98.369 Y192.839
G1 F1200 X81.159 Y175.629 E57.75406
G0 F6000 X81.159 Y175.063
G1 F1200 X98.935 Y192.839 E58.59019
G0 F6000 X99.501 Y192.839
G1 F1200 X81.159 Y174.497 E59.45294
G0 F6000 X81.159 Y173.932
G1 F1200 X100.066 Y192.839 E60.34227
G0 F6000 X100.632 Y192.839
G1 F1200 X81.159 Y173.366 E61.25822
G0 F6000 X81.159 Y172.8
G1 F1200 X101.198 Y192.839 E62.2008
G0 F6000 X101.763 Y192.839
G1 F1200 X81.159 Y172.234 E63.16997
G0 F6000 X81.159 Y171.669
G1 F1200 X102.329 Y192.839 E64.16574
G0 F6000 X102.895 Y192.839
G1 F1200 X81.159 Y171.103 E65.18813
G0 F6000 X81.159 Y170.537
G1 F1200 X103.461 Y192.839 E66.23715
G0 F6000 X104.026 Y192.839
G1 F1200 X81.159 Y169.972 E67.31275
G0 F6000 X81.159 Y169.406
G1 F1200 X104.592 Y192.839 E68.41496
G0 F6000 X105.158 Y192.839
G1 F1200 X81.159 Y168.84 E69.5438
G0 F6000 X81.159 Y168.275
G1 F1200 X105.723 Y192.839 E70.69922
G0 F6000 X106.289 Y192.839
G1 F1200 X81.159 Y167.709 E71.88126
G0 F6000 X81.159 Y167.143
G1 F1200 X106.855 Y192.839 E73.08992
G0 F6000 X107.42 Y192.839
G1 F1200 X81.159 Y166.578 E74.32515
G0 F6000 X81.159 Y166.012
G1 F1200 X107.986 Y192.839 E75.58701
G0 F6000 X108.552 Y192.839
G1 F1200 X81.159 Y165.446 E76.8755
G0 F6000 X81.159 Y164.881
G1 F1200 X109.117 Y192.839 E78.19055
G0 F6000 X109.683 Y192.839
G1 F1200 X81.159 Y164.315 E79.53224
G0 F6000 X81.159 Y163.749
G1 F1200 X110.249 Y192.839 E80.90054
G0 F6000 X110.814 Y192.839
G1 F1200 X81.159 Y163.183 E82.29544
G0 F6000 X81.159 Y162.618
G1 F1200 X111.38 Y192.839 E83.71695
G0 F6000 X111.946 Y192.839
G1 F1200 X81.159 Y162.052 E85.16507
G0 F6000 X81.159 Y161.486
G1 F1200 X112.512 Y192.839 E86.63982
G0 F6000 X113.077 Y192.839
G1 F1200 X81.159 Y160.921 E88.14115
G0 F6000 X81.159 Y160.355
G1 F1200 X113.643 Y192.839 E89.6691
G0 F6000 X114.209 Y192.839
G1 F1200 X81.159 Y159.789 E91.22367
G0 F6000 X81.159 Y159.224
G1 F1200 X114.774 Y192.839 E92.80481
G0 F6000 X115.34 Y192.839
G1 F1200 X81.159 Y158.658 E94.41258
G0 F6000 X81.159 Y158.092
G1 F1200 X115.906 Y192.839 E96.04697
G0 F6000 X116.471 Y192.839
G1 F1200 X81.159 Y157.527 E97.70794
G0 F6000 X81.159 Y156.961
G1 F1200 X117.037 Y192.839 E99.39553
G0 F6000 X117.603 Y192.839
G1 F1200 X81.159 Y156.395 E101.10975
G0 F6000 X81.159 Y155.83
G1 F1200 X118.168 Y192.839 E102.85054
G0 F6000 X118.734 Y192.839
G1 F1200 X81.159 Y155.264 E104.61795
G0 F6000 X81.159 Y154.698
G1 F1200 X119.3 Y192.839 E106.41199
G0 F6000 X119.865 Y192.839
G1 F1200 X81.159 Y154.133 E108.2326
G0 F6000 X81.159 Y153.567
G1 F1200 X120.431 Y192.839 E110.07983
G0 F6000 X120.997 Y192.839
G1 F1200 X81.159 Y153.001 E111.95369
G0 F6000 X81.159 Y152.435
G1 F1200 X121.562 Y192.839 E113.85415
G0 F6000 X122.128 Y192.839
G1 F1200 X81.159 Y151.87 E115.7812
G0 F6000 X81.159 Y151.304
G1 F1200 X122.694 Y192.839 E117.73488
G0 F6000 X123.26 Y192.839
G1 F1200 X81.159 Y150.738 E119.71518
G0 F6000 X81.159 Y150.173
G1 F1200 X123.825 Y192.839 E121.72206
G0 F6000 X124.391 Y192.839
G1 F1200 X81.159 Y149.607 E123.75556
G0 F6000 X81.159 Y149.041
G1 F1200 X124.957 Y192.839 E125.81569
G0 F6000 X125.522 Y192.839
G1 F1200 X81.159 Y148.476 E127.90238
G0 F6000 X81.159 Y147.91
G1 F1200 X126.088 Y192.839 E130.01571
G0 F6000 X126.654 Y192.839
G1 F1200 X81.159 Y147.344 E132.15565
G0 F6000 X81.159 Y146.779
G1 F1200 X127.219 Y192.839 E134.32217
G0 F6000 X127.785 Y192.839
G1 F1200 X81.159 Y146.213 E136.51532
G0 F6000 X81.159 Y145.647
G1 F1200 X128.351 Y192.839 E138.73508
G0 F6000 X128.916 Y192.839
G1 F1200 X81.159 Y145.082 E140.98143
G0 F6000 X81.159 Y144.516
G1 F1200 X129.482 Y192.839 E143.25439
G0 F6000 X130.048 Y192.839
G1 F1200 X81.159 Y143.95 E145.55398
G0 F6000 X81.159 Y143.384
G1 F1200 X130.613 Y192.839 E147.88017
G0 F6000 X131.179 Y192.839
G1 F1200 X81.159 Y142.819 E150.23296
G0 F6000 X81.159 Y142.253
G1 F1200 X131.745 Y192.839 E152.61237
G0 F6000 X132.31 Y192.839
G1 F1200 X81.159 Y141.687 E155.01838
G0 F6000 X81.159 Y141.122
G1 F1200 X132.876 Y192.839 E157.45099
G0 F6000 X133.442 Y192.839
G1 F1200 X81.159 Y140.556 E159.91022
G0 F6000 X81.159 Y139.99
G1 F1200 X134.008 Y192.839 E162.39607
G0 F6000 X134.573 Y192.839
G1 F1200 X81.159 Y139.425 E164.9085
G0 F6000 X81.159 Y138.859
G1 F1200 X135.139 Y192.839 E167.44756
G0 F6000 X135.705 Y192.839
G1 F1200 X81.159 Y138.293 E170.01323
G0 F6000 X81.159 Y137.728
G1 F1200 X136.27 Y192.839 E172.60549
G0 F6000 X136.836 Y192.839
G1 F1200 X81.159 Y137.162 E175.22436
G0 F6000 X81.159 Y136.596
G1 F1200 X137.402 Y192.839 E177.86986
G0 F6000 X137.967 Y192.839
G1 F1200 X81.159 Y136.031 E180.54194
G0 F6000 X81.159 Y135.465
G1 F1200 X138.533 Y192.839 E183.24063
G0 F6000 X139.099 Y192.839
G1 F1200 X81.159 Y134.899 E185.96595
G0 F6000 X81.159 Y134.334
G1 F1200 X139.664 Y192.839 E188.71785
G0 F6000 X140.23 Y192.839
G1 F1200 X81.159 Y133.768 E191.49637
G0 F6000 X81.159 Y133.202
G1 F1200 X140.796 Y192.839 E194.30151
G0 F6000 X141.361 Y192.839
G1 F1200 X81.159 Y132.636 E197.13325
G0 F6000 X81.159 Y132.071
G1 F1200 X141.927 Y192.839 E199.99159
G0 F6000 X142.493 Y192.839
G1 F1200 X81.159 Y131.505 E202.87655
G0 F6000 X81.159 Y130.939
G1 F1200 X143.059 Y192.839 E205.78814
G0 F6000 X143.624 Y192.839
G1 F1200 X81.159 Y130.374 E208.7263
G0 F6000 X81.159 Y129.808
G1 F1200 X144.19 Y192.839 E211.69109
G0 F6000 X144.756 Y192.839
G1 F1200 X81.159 Y129.242 E214.68249
G0 F6000 X81.159 Y128.677
G1 F1200 X145.321 Y192.839 E217.70048
G0 F6000 X145.887 Y192.839
G1 F1200 X81.159 Y128.111 E220.74508
G0 F6000 X81.159 Y127.545
G1 F1200 X146.453 Y192.839 E223.81631
G0 F6000 X147.018 Y192.839
G1 F1200 X81.159 Y126.98 E226.91412
G0 F6000 X81.159 Y126.414
G1 F1200 X147.584 Y192.839 E230.03855
G0 F6000 X148.15 Y192.839
G1 F1200 X81.159 Y125.848 E233.1896
G0 F6000 X81.159 Y125.283
G1 F1200 X148.715 Y192.839 E236.36723
G0 F6000 X149.281 Y192.839
G1 F1200 X81.159 Y124.717 E239.57148
G0 F6000 X81.159 Y124.151
G1 F1200 X149.847 Y192.839 E242.80235
G0 F6000 X150.412 Y192.839
G1 F1200 X81.159 Y123.586 E246.0598
G0 F6000 X81.159 Y123.02
G1 F1200 X150.978 Y192.839 E249.34387
G0 F6000 X151.544 Y192.839
G1 F1200 X81.159 Y122.454 E252.65456
G0 F6000 X81.159 Y121.888
G1 F1200 X152.109 Y192.839 E255.99186
G0 F6000 X152.675 Y192.839
G1 F1200 X81.159 Y121.323 E259.35575
G0 F6000 X81.159 Y120.757
G1 F1200 X153.241 Y192.839 E262.74627
G0 F6000 X153.807 Y192.839
G1 F1200 X81.159 Y120.191 E266.16341
G0 F6000 X81.159 Y119.626
G1 F1200 X153.839 Y192.306 E269.58205
G0 F6000 X153.839 Y191.74
G1 F1200 X81.159 Y119.06 E273.0007
G0 F6000 X81.159 Y118.494
G1 F1200 X153.839 Y191.174 E276.41934
G0 F6000 X153.839 Y190.609
G1 F1200 X81.159 Y117.929 E279.83798
G0 F6000 X81.159 Y117.363
G1 F1200 X153.839 Y190.043 E283.25663
G0 F6000 X153.839 Y189.477
G1 F1200 X81.159 Y116.797 E286.67527
G0 F6000 X81.159 Y116.232
G1 F1200 X153.839 Y188.912 E290.09392
G0 F6000 X153.839 Y188.346
G1 F1200 X81.159 Y115.666 E293.51256
G0 F6000 X81.159 Y115.1
G1 F1200 X153.839 Y187.78 E296.93121
G0 F6000 X153.839 Y187.215
G1 F1200 X81.159 Y114.535 E300.34985
G0 F6000 X81.159 Y113.969
G1 F1200 X153.839 Y186.649 E303.7685
G0 F6000 X153.839 Y186.083
G1 F1200 X81.159 Y113.403 E307.18714
G0 F6000 X81.159 Y112.837
G1 F1200 X153.839 Y185.517 E310.60578
G0 F6000 X153.839 Y184.952
G1 F1200 X81.159 Y112.272 E314.02443
G0 F6000 X81.159 Y111.706
G1 F1200 X153.839 Y184.386 E317.44307
G0 F6000 X153.839 Y183.82
G1 F1200 X81.159 Y111.14 E320.86172
G0 F6000 X81.159 Y110.575
G1 F1200 X153.839 Y183.255 E324.28036
G0 F6000 X153.839 Y182.689
G1 F1200 X81.159 Y110.009 E327.69901
G0 F6000 X81.159 Y109.443
G1 F1200 X153.839 Y182.123 E331.11765
G0 F6000 X153.839 Y181.558
G1 F1200 X81.159 Y108.878 E334.53629
G0 F6000 X81.159 Y108.312
G1 F1200 X153.839 Y180.992 E337.95494
G0 F6000 X153.839 Y180.426
G1 F1200 X81.159 Y107.746 E341.37358
G0 F6000 X81.159 Y107.181
G1 F1200 X153.839 Y179.861 E344.79223
G0 F6000 X153.839 Y179.295
G1 F1200 X81.159 Y106.615 E348.21087
G0 F6000 X81.159 Y106.049
G1 F1200 X153.839 Y178.729 E351.62952
G0 F6000 X153.839 Y178.164
G1 F1200 X81.159 Y105.484 E355.04816
G0 F6000 X81.159 Y104.918
G1 F1200 X153.839 Y177.598 E358.46681
G0 F6000 X153.839 Y177.032
G1 F1200 X81.159 Y104.352 E361.88545
G0 F6000 X81.159 Y103.787
G1 F1200 X153.839 Y176.466 E365.30407
G0 F6000 X153.839 Y175.901
G1 F1200 X81.159 Y103.221 E368.72271
G0 F6000 X81.159 Y102.655
G1 F1200 X153.839 Y175.335 E372.14136
G0 F6000 X153.839 Y174.769
G1 F1200 X81.159 Y102.089 E375.56
G0 F6000 X81.159 Y101.524
G1 F1200 X153.839 Y174.204 E378.97865
G0 F6000 X153.839 Y173.638
G1 F1200 X81.159 Y100.958 E382.39729
G0 F6000 X81.159 Y100.392
G1 F1200 X153.839 Y173.072 E385.81594
G0 F6000 X153.839 Y172.507
G1 F1200 X81.159 Y99.827 E389.23458
G0 F6000 X81.159 Y99.261
G1 F1200 X153.839 Y171.941 E392.65323
G0 F6000 X153.839 Y171.375
G1 F1200 X81.159 Y98.695 E396.07187
G0 F6000 X81.159 Y98.13
G1 F1200 X153.839 Y170.81 E399.49051
G0 F6000 X153.839 Y170.244
G1 F1200 X81.159 Y97.564 E402.90916
G0 F6000 X81.159 Y96.998
G1 F1200 X153.839 Y169.678 E406.3278
G0 F6000 X153.839 Y169.113
G1 F1200 X81.159 Y96.433 E409.74645
G0 F6000 X81.159 Y95.867
G1 F1200 X153.839 Y168.547 E413.16509
G0 F6000 X153.839 Y167.981
G1 F1200 X81.159 Y95.301 E416.58374
G0 F6000 X81.159 Y94.736
G1 F1200 X153.839 Y167.416 E420.00238
G0 F6000 X153.839 Y166.85
G1 F1200 X81.159 Y94.17 E423.42102
G0 F6000 X81.159 Y93.604
G1 F1200 X153.839 Y166.284 E426.83967
G0 F6000 X153.839 Y165.718
G1 F1200 X81.159 Y93.038 E430.25831
G0 F6000 X81.159 Y92.473
G1 F1200 X153.839 Y165.153 E433.67696
G0 F6000 X153.839 Y164.587
G1 F1200 X81.159 Y91.907 E437.0956
G0 F6000 X81.159 Y91.341
G1 F1200 X153.839 Y164.021 E440.51425
G0 F6000 X153.839 Y163.456
G1 F1200 X81.159 Y90.776 E443.93289
G0 F6000 X81.159 Y90.21
G1 F1200 X153.839 Y162.89 E447.35154
G0 F6000 X153.839 Y162.324
G1 F1200 X81.159 Y89.644 E450.77018
G0 F6000 X81.159 Y89.079
G1 F1200 X153.839 Y161.759 E454.18882
G0 F6000 X153.839 Y161.193
G1 F1200 X81.159 Y88.513 E457.60747
G0 F6000 X81.159 Y87.947
G1 F1200 X153.839 Y160.627 E461.02611
G0 F6000 X153.839 Y160.062
G1 F1200 X81.159 Y87.382 E464.44476
G0 F6000 X81.159 Y86.816
G1 F1200 X153.839 Y159.496 E467.8634
G0 F6000 X153.839 Y158.93
G1 F1200 X81.159 Y86.25 E471.28205
G0 F6000 X81.159 Y85.685
G1 F1200 X153.839 Y158.365 E474.70069
G0 F6000 X153.839 Y157.799
G1 F1200 X81.159 Y85.119 E478.11933
G0 F6000 X81.159 Y84.553
G1 F1200 X153.839 Y157.233 E481.53798
G0 F6000 X153.839 Y156.667
G1 F1200 X81.159 Y83.988 E484.9566
G0 F6000 X81.159 Y83.422
G1 F1200 X153.839 Y156.102 E488.37524
G0 F6000 X153.839 Y155.536
G1 F1200 X81.159 Y82.856 E491.79389
G0 F6000 X81.159 Y82.29
G1 F1200 X153.839 Y154.97 E495.21253
G0 F6000 X153.839 Y154.405
G1 F1200 X81.159 Y81.725 E498.63118
G0 F6000 X81.159 Y81.159
G1 F1200 X153.839 Y153.839 E502.04982
G0 F6000 X153.839 Y153.273
G1 F1200 X81.159 Y80.593 E505.46847
G0 F6000 X81.159 Y80.028
G1 F1200 X153.839 Y152.708 E508.88711
G0 F6000 X153.839 Y152.142
G1 F1200 X81.159 Y79.462 E512.30575
G0 F6000 X81.159 Y78.896
G1 F1200 X153.839 Y151.576 E515.7244
G0 F6000 X153.839 Y151.011
G1 F1200 X81.159 Y78.331 E519.14304
G0 F6000 X81.159 Y77.765
G1 F1200 X153.839 Y150.445 E522.56169
G0 F6000 X153.839 Y149.879
G1 F1200 X81.159 Y77.199 E525.98033
G0 F6000 X81.159 Y76.634
G1 F1200 X153.839 Y149.314 E529.39898
G0 F6000 X153.839 Y148.748
G1 F1200 X81.159 Y76.068 E532.81762
G0 F6000 X81.159 Y75.502
G1 F1200 X153.839 Y148.182 E536.23627
G0 F6000 X153.839 Y147.617
G1 F1200 X81.159 Y74.937 E539.65491
G0 F6000 X81.159 Y74.371
G1 F1200 X153.839 Y147.051 E543.07355
G0 F6000 X153.839 Y146.485
G1 F1200 X81.159 Y73.805 E546.4922
G0 F6000 X81.159 Y73.239
G1 F1200 X153.839 Y145.919 E549.91084
G0 F6000 X153.839 Y145.354
G1 F1200 X81.159 Y72.674 E553.32949
G0 F6000 X81.159 Y72.108
G1 F1200 X153.839 Y144.788 E556.74813
G0 F6000 X153.839 Y144.222
G1 F1200 X81.159 Y71.542 E560.16678
G0 F6000 X81.159 Y70.977
G1 F1200 X153.839 Y143.657 E563.58542
G0 F6000 X153.839 Y143.091
G1 F1200 X81.159 Y70.411 E567.00406
G0 F6000 X81.159 Y69.845
G1 F1200 X153.839 Y142.525 E570.42271
G0 F6000 X153.839 Y141.96
G1 F1200 X81.159 Y69.28 E573.84135
G0 F6000 X81.159 Y68.714
G1 F1200 X153.839 Y141.394 E577.26
G0 F6000 X153.839 Y140.828
G1 F1200 X81.159 Y68.148 E580.67864
G0 F6000 X81.159 Y67.583
G1 F1200 X153.839 Y140.263 E584.09729
G0 F6000 X153.839 Y139.697
G1 F1200 X81.159 Y67.017 E587.51593
G0 F6000 X81.159 Y66.451
G1 F1200 X153.839 Y139.131 E590.93458
G0 F6000 X153.839 Y138.566
G1 F1200 X81.159 Y65.886 E594.35322
G0 F6000 X81.159 Y65.32
G1 F1200 X153.839 Y138 E597.77186
G0 F6000 X153.839 Y137.434
G1 F1200 X81.159 Y64.754 E601.19051
G0 F6000 X81.159 Y64.189
G1 F1200 X153.839 Y136.869 E604.60915
G0 F6000 X153.839 Y136.303
G1 F1200 X81.159 Y63.623 E608.0278
G0 F6000 X81.159 Y63.057
G1 F1200 X153.839 Y135.737 E611.44644
G0 F6000 X153.839 Y135.171
