;FLAVOR:Marlin
;TIME:13519
;Filament used: 10.7219m
;Layer height: 0.2
;MINX:80.2
;MINY:97.7
;MINZ:0.2
;MAXX:154.8
;MAXY:137.3
;MAXZ:60
;Generated with Cura_SteamEngine 5.2.1
M140 S60
M105
M190 S60
M104 S200
M105
M109 S200
M82 ;absolute extrusion mode
M201 X500.00 Y500.00 Z100.00 E5000.00 ;Setup machine max acceleration
M203 X500.00 Y500.00 Z10.00 E50.00 ;Setup machine max feedrate
M204 P500.00 R1000.00 T500.00 ;Setup Print/Retract/Travel acceleration
M205 X8.00 Y8.00 Z0.40 E5.00 ;Setup Jerk
M220 S100 ;Reset Feedrate
M221 S100 ;Reset Flowrate

G28 ;Home

G92 E0 ;Reset Extruder
G1 Z2.0 F3000 ;Move Z Axis up
G1 X10.1 Y20 Z0.28 F5000.0 ;Move to start position
G1 X10.1 Y200.0 Z0.28 F1500.0 E15 ;Draw the first line
G1 X10.4 Y200.0 Z0.28 F5000.0 ;Move to side a little
G1 X10.4 Y20 Z0.28 F1500.0 E30 ;Draw the second line
G92 E0 ;Reset Extruder
G1 Z2.0 F3000 ;Move Z Axis up

G92 E0
G92 E0
G1 F1500 E-6.5
;LAYER_COUNT:300
;LAYER:0
M107
;MESH:santorini-box-minis.stl
G0 F6000 X80.6 Y136.9 Z0.2
;TYPE:WALL-INNER
G1 F1500 E0
G1 F1200 X154.4 Y136.9 E2.4546
G1 X154.4 Y98.1 E3.74509
G1 X80.6 Y98.1 E6.19969
G1 X80.6 Y136.9 E7.49018
G0 F6000 X80.2 Y137.3
;TYPE:WALL-OUTER
G1 F1200 X154.8 Y137.3 E9.97139
G1 X154.8 Y97.7 E11.28849
G1 X80.2 Y97.7 E13.7697
G1 X80.2 Y137.3 E15.0868
G0 F6000 X80.47 Y137.03
G0 X80.7 Y136.54
G0 X80.96 Y136.54
;TYPE:SKIN
G1 F1200 X154.04 Y136.54 E17.51745
G1 X154.04 Y98.46 E18.78399
G1 X80.96 Y98.46 E21.21464
G1 X80.96 Y136.54 E22.48119
G0 F6000 X81.467 Y136.339
G1 F1200 X81.159 Y136.031 E22.49568
G0 F6000 X81.159 Y135.465
G1 F1200 X82.033 Y136.339 E22.53679
G0 F6000 X82.599 Y136.339
G1 F1200 X81.159 Y134.899 E22.60452
G0 F6000 X81.159 Y134.334
G1 F1200 X83.164 Y136.339 E22.69883
G0 F6000 X83.73 Y136.339
G1 F1200 X81.159 Y133.768 E22.81976
G0 F6000 X81.159 Y133.202
G1 F1200 X84.296 Y136.339 E22.96732
G0 F6000 X84.862 Y136.339
G1 F1200 X81.159 Y132.636 E23.14149
G0 F6000 X81.159 Y132.071
G1 F1200 X85.427 Y136.339 E23.34225
G0 F6000 X85.993 Y136.339
G1 F1200 X81.159 Y131.505 E23.56963
G0 F6000 X81.159 Y130.939
G1 F1200 X86.559 Y136.339 E23.82362
G0 F6000 X87.124 Y136.339
G1 F1200 X81.159 Y130.374 E24.1042
G0 F6000 X81.159 Y129.808
G1 F1200 X87.69 Y136.339 E24.4114
G0 F6000 X88.256 Y136.339
G1 F1200 X81.159 Y129.242 E24.74522
G0 F6000 X81.159 Y128.677
G1 F1200 X88.821 Y136.339 E25.10562
G0 F6000 X89.387 Y136.339
G1 F1200 X81.159 Y128.111 E25.49264
G0 F6000 X81.159 Y127.545
G1 F1200 X89.953 Y136.339 E25.90628
G0 F6000 X90.518 Y136.339
G1 F1200 X81.159 Y126.98 E26.3465
G0 F6000 X81.159 Y126.414
G1 F1200 X91.084 Y136.339 E26.81334
G0 F6000 X91.65 Y136.339
G1 F1200 X81.159 Y125.848 E27.3068
G0 F6000 X81.159 Y125.283
G1 F1200 X92.215 Y136.339 E27.82684
G0 F6000 X92.781 Y136.339
G1 F1200 X81.159 Y124.717 E28.37351
G0 F6000 X81.159 Y124.151
G1 F1200 X93.347 Y136.339 E28.94679
G0 F6000 X93.912 Y136.339
G1 F1200 X81.159 Y123.586 E29.54666
G0 F6000 X81.159 Y123.02
G1 F1200 X94.478 Y136.339 E30.17314
G0 F6000 X95.044 Y136.339
G1 F1200 X81.159 Y122.454 E30.82625
G0 F6000 X81.159 Y121.888
G1 F1200 X95.61 Y136.339 E31.50598
G0 F6000 X96.175 Y136.339
G1 F1200 X81.159 Y121.323 E32.21229
G0 F6000 X81.159 Y120.757
G1 F1200 X96.741 Y136.339 E32.94521
G0 F6000 X97.307 Y136.339
G1 F1200 X81.159 Y120.191 E33.70477
G0 F6000 X81.159 Y119.626
G1 F1200 X97.872 Y136.339 E34.4909
G0 F6000 X98.438 Y136.339
G1 F1200 X81.159 Y119.06 E35.30365
G0 F6000 X81.159 Y118.494
G1 F1200 X99.004 Y136.339 E36.14302
G0 F6000 X99.569 Y136.339
G1 F1200 X81.159 Y117.929 E37.00897
G0 F6000 X81.159 Y117.363
G1 F1200 X100.135 Y136.339 E37.90154
G0 F6000 X100.701 Y136.339
G1 F1200 X81.159 Y116.797 E38.82074
G0 F6000 X81.159 Y116.232
G1 F1200 X101.266 Y136.339 E39.76651
G0 F6000 X101.832 Y136.339
G1 F1200 X81.159 Y115.666 E40.73891
G0 F6000 X81.159 Y115.1
G1 F1200 X102.398 Y136.339 E41.73792
G0 F6000 X102.963 Y136.339
G1 F1200 X81.159 Y114.535 E42.76352
G0 F6000 X81.159 Y113.969
G1 F1200 X103.529 Y136.339 E43.81573
G0 F6000 X104.095 Y136.339
G1 F1200 X81.159 Y113.403 E44.89457
G0 F6000 X81.159 Y112.837
G1 F1200 X104.66 Y136.339 E46.00001
G0 F6000 X105.226 Y136.339
G1 F1200 X81.159 Y112.272 E47.13205
G0 F6000 X81.159 Y111.706
G1 F1200 X105.792 Y136.339 E48.29071
G0 F6000 X106.358 Y136.339
G1 F1200 X81.159 Y111.14 E49.47599
G0 F6000 X81.159 Y110.575
G1 F1200 X106.923 Y136.339 E50.68785
G0 F6000 X107.489 Y136.339
G1 F1200 X81.159 Y110.009 E51.92633
G0 F6000 X81.159 Y109.443
G1 F1200 X108.055 Y136.339 E53.19144
G0 F6000 X108.62 Y136.339
G1 F1200 X81.159 Y108.878 E54.48312
G0 F6000 X81.159 Y108.312
G1 F1200 X109.186 Y136.339 E55.80143
G0 F6000 X109.752 Y136.339
G1 F1200 X81.159 Y107.746 E57.14635
G0 F6000 X81.159 Y107.181
G1 F1200 X110.317 Y136.339 E58.51786
G0 F6000 X110.883 Y136.339
G1 F1200 X81.159 Y106.615 E59.91598
G0 F6000 X81.159 Y106.049
G1 F1200 X111.449 Y136.339 E61.34073
G0 F6000 X112.014 Y136.339
G1 F1200 X81.159 Y105.484 E62.79205
G0 F6000 X81.159 Y104.918
G1 F1200 X112.58 Y136.339 E64.27
G0 F6000 X113.146 Y136.339
G1 F1200 X81.159 Y104.352 E65.77457
G0 F6000 X81.159 Y103.787
G1 F1200 X113.711 Y136.339 E67.30572
G0 F6000 X114.277 Y136.339
G1 F1200 X81.159 Y103.221 E68.86349
G0 F6000 X81.159 Y102.655
G1 F1200 X114.843 Y136.339 E70.44788
G0 F6000 X115.409 Y136.339
G1 F1200 X81.159 Y102.089 E72.0589
G0 F6000 X81.159 Y101.524
G1 F1200 X115.974 Y136.339 E73.69649
G0 F6000 X116.54 Y136.339
G1 F1200 X81.159 Y100.958 E75.3607
G0 F6000 X81.159 Y100.392
G1 F1200 X117.106 Y136.339 E77.05154
G0 F6000 X117.671 Y136.339
G1 F1200 X81.159 Y99.827 E78.76895
G0 F6000 X81.159 Y99.261
G1 F1200 X118.237 Y136.339 E80.51298
G0 F6000 X118.803 Y136.339
G1 F1200 X81.159 Y98.695 E82.28364
G0 F6000 X81.689 Y98.659
G1 F1200 X119.368 Y136.339 E84.05597
G0 F6000 X119.934 Y136.339
G1 F1200 X82.254 Y98.659 E85.82832
G0 F6000 X82.82 Y98.659
G1 F1200 X120.5 Y136.339 E87.60067
G0 F6000 X121.065 Y136.339
G1 F1200 X83.386 Y98.659 E89.373
G0 F6000 X83.951 Y98.659
G1 F1200 X121.631 Y136.339 E91.14535
G0 F6000 X122.197 Y136.339
G1 F1200 X84.517 Y98.659 E92.91771
G0 F6000 X85.083 Y98.659
G1 F1200 X122.762 Y136.339 E94.69003
G0 F6000 X123.328 Y136.339
G1 F1200 X85.649 Y98.659 E96.46236
G0 F6000 X86.214 Y98.659
G1 F1200 X123.894 Y136.339 E98.23471
G0 F6000 X124.459 Y136.339
G1 F1200 X86.78 Y98.659 E100.00704
G0 F6000 X87.346 Y98.659
G1 F1200 X125.025 Y136.339 E101.77937
G0 F6000 X125.591 Y136.339
G1 F1200 X87.911 Y98.659 E103.55172
G0 F6000 X88.477 Y98.659
G1 F1200 X126.157 Y136.339 E105.32407
G0 F6000 X126.722 Y136.339
G1 F1200 X89.043 Y98.659 E107.0964
G0 F6000 X89.608 Y98.659
G1 F1200 X127.288 Y136.339 E108.86875
G0 F6000 X127.854 Y136.339
G1 F1200 X90.174 Y98.659 E110.6411
G0 F6000 X90.74 Y98.659
G1 F1200 X128.419 Y136.339 E112.41343
G0 F6000 X128.985 Y136.339
G1 F1200 X91.305 Y98.659 E114.18578
G0 F6000 X91.871 Y98.659
G1 F1200 X129.551 Y136.339 E115.95814
G0 F6000 X130.116 Y136.339
G1 F1200 X92.437 Y98.659 E117.73046
G0 F6000 X93.002 Y98.659
G1 F1200 X130.682 Y136.339 E119.50282
G0 F6000 X131.248 Y136.339
G1 F1200 X93.568 Y98.659 E121.27517
G0 F6000 X94.134 Y98.659
G1 F1200 X131.813 Y136.339 E123.0475
G0 F6000 X132.379 Y136.339
G1 F1200 X94.699 Y98.659 E124.81985
G0 F6000 X95.265 Y98.659
G1 F1200 X132.945 Y136.339 E126.5922
G0 F6000 X133.51 Y136.339
G1 F1200 X95.831 Y98.659 E128.36453
G0 F6000 X96.397 Y98.659
G1 F1200 X134.076 Y136.339 E130.13686
G0 F6000 X134.642 Y136.339
G1 F1200 X96.962 Y98.659 E131.90921
G0 F6000 X97.528 Y98.659
G1 F1200 X135.208 Y136.339 E133.68156
G0 F6000 X135.773 Y136.339
G1 F1200 X98.094 Y98.659 E135.45389
G0 F6000 X98.659 Y98.659
G1 F1200 X136.339 Y136.339 E137.22624
G0 F6000 X136.905 Y136.339
G1 F1200 X99.225 Y98.659 E138.99859
G0 F6000 X99.791 Y98.659
G1 F1200 X137.47 Y136.339 E140.77092
G0 F6000 X138.036 Y136.339
G1 F1200 X100.356 Y98.659 E142.54327
G0 F6000 X100.922 Y98.659
G1 F1200 X138.602 Y136.339 E144.31562
G0 F6000 X139.167 Y136.339
G1 F1200 X101.488 Y98.659 E146.08795
G0 F6000 X102.053 Y98.659
G1 F1200 X139.733 Y136.339 E147.8603
G0 F6000 X140.299 Y136.339
G1 F1200 X102.619 Y98.659 E149.63265
G0 F6000 X103.185 Y98.659
G1 F1200 X140.864 Y136.339 E151.40498
G0 F6000 X141.43 Y136.339
G1 F1200 X103.75 Y98.659 E153.17733
G0 F6000 X104.316 Y98.659
G1 F1200 X141.996 Y136.339 E154.94969
G0 F6000 X142.561 Y136.339
G1 F1200 X104.882 Y98.659 E156.72201
G0 F6000 X105.448 Y98.659
G1 F1200 X143.127 Y136.339 E158.49434
G0 F6000 X143.693 Y136.339
G1 F1200 X106.013 Y98.659 E160.26669
G0 F6000 X106.579 Y98.659
G1 F1200 X144.258 Y136.339 E162.03902
G0 F6000 X144.824 Y136.339
G1 F1200 X107.145 Y98.659 E163.81135
G0 F6000 X107.71 Y98.659
G1 F1200 X145.39 Y136.339 E165.5837
G0 F6000 X145.956 Y136.339
G1 F1200 X108.276 Y98.659 E167.35605
G0 F6000 X108.842 Y98.659
G1 F1200 X146.521 Y136.339 E169.12838
G0 F6000 X147.087 Y136.339
G1 F1200 X109.407 Y98.659 E170.90073
G0 F6000 X109.973 Y98.659
G1 F1200 X147.653 Y136.339 E172.67308
G0 F6000 X148.218 Y136.339
G1 F1200 X110.539 Y98.659 E174.44541
G0 F6000 X111.104 Y98.659
G1 F1200 X148.784 Y136.339 E176.21776
G0 F6000 X149.35 Y136.339
G1 F1200 X111.67 Y98.659 E177.99012
G0 F6000 X112.236 Y98.659
G1 F1200 X149.915 Y136.339 E179.76244
G0 F6000 X150.481 Y136.339
G1 F1200 X112.801 Y98.659 E181.5348
G0 F6000 X113.367 Y98.659
G1 F1200 X151.047 Y136.339 E183.30715
G0 F6000 X151.612 Y136.339
G1 F1200 X113.933 Y98.659 E185.07948
G0 F6000 X114.498 Y98.659
G1 F1200 X152.178 Y136.339 E186.85183
G0 F6000 X152.744 Y136.339
G1 F1200 X115.064 Y98.659 E188.62418
G0 F6000 X115.63 Y98.659
G1 F1200 X153.309 Y136.339 E190.39651
G0 F6000 X153.839 Y136.303
G1 F1200 X116.196 Y98.659 E192.16714
G0 F6000 X116.761 Y98.659
G1 F1200 X153.839 Y135.737 E193.91118
G0 F6000 X153.839 Y135.171
G1 F1200 X117.327 Y98.659 E195.62859
G0 F6000 X117.893 Y98.659
G1 F1200 X153.839 Y134.606 E197.3194
G0 F6000 X153.839 Y134.04
G1 F1200 X118.458 Y98.659 E198.98362
G0 F6000 X119.024 Y98.659
G1 F1200 X153.839 Y133.474 E200.62121
G0 F6000 X153.839 Y132.909
G1 F1200 X119.59 Y98.659 E202.2322
G0 F6000 X120.155 Y98.659
G1 F1200 X153.839 Y132.343 E203.81659
G0 F6000 X153.839 Y131.777
G1 F1200 X120.721 Y98.659 E205.37436
G0 F6000 X121.287 Y98.659
G1 F1200 X153.839 Y131.212 E206.90553
G0 F6000 X153.839 Y130.646
G1 F1200 X121.852 Y98.659 E208.4101
G0 F6000 X122.418 Y98.659
G1 F1200 X153.839 Y130.08 E209.88805
G0 F6000 X153.839 Y129.515
G1 F1200 X122.984 Y98.659 E211.3394
G0 F6000 X123.549 Y98.659
G1 F1200 X153.839 Y128.949 E212.76414
G0 F6000 X153.839 Y128.383
G1 F1200 X124.115 Y98.659 E214.16227
G0 F6000 X124.681 Y98.659
G1 F1200 X153.839 Y127.818 E215.5338
G0 F6000 X153.839 Y127.252
G1 F1200 X125.246 Y98.659 E216.87872
G0 F6000 X125.812 Y98.659
G1 F1200 X153.839 Y126.686 E218.19703
G0 F6000 X153.839 Y126.12
G1 F1200 X126.378 Y98.659 E219.48871
G0 F6000 X126.944 Y98.659
G1 F1200 X153.839 Y125.555 E220.75379
G0 F6000 X153.839 Y124.989
G1 F1200 X127.509 Y98.659 E221.99227
G0 F6000 X128.075 Y98.659
G1 F1200 X153.839 Y124.423 E223.20413
G0 F6000 X153.839 Y123.858
G1 F1200 X128.641 Y98.659 E224.38939
G0 F6000 X129.206 Y98.659
G1 F1200 X153.839 Y123.292 E225.54805
G0 F6000 X153.839 Y122.726
G1 F1200 X129.772 Y98.659 E226.68009
G0 F6000 X130.338 Y98.659
G1 F1200 X153.839 Y122.161 E227.78553
G0 F6000 X153.839 Y121.595
G1 F1200 X130.903 Y98.659 E228.86437
G0 F6000 X131.469 Y98.659
G1 F1200 X153.839 Y121.029 E229.91659
G0 F6000 X153.839 Y120.464
G1 F1200 X132.035 Y98.659 E230.9422
G0 F6000 X132.6 Y98.659
G1 F1200 X153.839 Y119.898 E231.94122
G0 F6000 X153.839 Y119.332
G1 F1200 X133.166 Y98.659 E232.91362
G0 F6000 X133.732 Y98.659
G1 F1200 X153.839 Y118.767 E233.85941
G0 F6000 X153.839 Y118.201
G1 F1200 X134.297 Y98.659 E234.77861
G0 F6000 X134.863 Y98.659
G1 F1200 X153.839 Y117.635 E235.67118
G0 F6000 X153.839 Y117.07
G1 F1200 X135.429 Y98.659 E236.53715
G0 F6000 X135.995 Y98.659
G1 F1200 X153.839 Y116.504 E237.3765
G0 F6000 X153.839 Y115.938
G1 F1200 X136.56 Y98.659 E238.18925
G0 F6000 X137.126 Y98.659
G1 F1200 X153.839 Y115.372 E238.97538
G0 F6000 X153.839 Y114.807
G1 F1200 X137.692 Y98.659 E239.73491
G0 F6000 X138.257 Y98.659
G1 F1200 X153.839 Y114.241 E240.46784
G0 F6000 X153.839 Y113.675
G1 F1200 X138.823 Y98.659 E241.17415
G0 F6000 X139.389 Y98.659
G1 F1200 X153.839 Y113.11 E241.85385
G0 F6000 X153.839 Y112.544
G1 F1200 X139.954 Y98.659 E242.50696
G0 F6000 X140.52 Y98.659
G1 F1200 X153.839 Y111.978 E243.13345
G0 F6000 X153.839 Y111.413
G1 F1200 X141.086 Y98.659 E243.73333
G0 F6000 X141.651 Y98.659
G1 F1200 X153.839 Y110.847 E244.30662
G0 F6000 X153.839 Y110.281
G1 F1200 X142.217 Y98.659 E244.85328
G0 F6000 X142.783 Y98.659
G1 F1200 X153.839 Y109.716 E245.37335
G0 F6000 X153.839 Y109.15
G1 F1200 X143.348 Y98.659 E245.86681
G0 F6000 X143.914 Y98.659
G1 F1200 X153.839 Y108.584 E246.33365
G0 F6000 X153.839 Y108.019
G1 F1200 X144.48 Y98.659 E246.77389
G0 F6000 X145.045 Y98.659
G1 F1200 X153.839 Y107.453 E247.18754
G0 F6000 X153.839 Y106.887
G1 F1200 X145.611 Y98.659 E247.57456
G0 F6000 X146.177 Y98.659
G1 F1200 X153.839 Y106.321 E247.93495
G0 F6000 X153.839 Y105.756
G1 F1200 X146.743 Y98.659 E248.26875
G0 F6000 X147.308 Y98.659
G1 F1200 X153.839 Y105.19 E248.57595
G0 F6000 X153.839 Y104.624
G1 F1200 X147.874 Y98.659 E248.85653
G0 F6000 X148.44 Y98.659
G1 F1200 X153.839 Y104.059 E249.1105
G0 F6000 X153.839 Y103.493
G1 F1200 X149.005 Y98.659 E249.33788
G0 F6000 X149.571 Y98.659
G1 F1200 X153.839 Y102.927 E249.53863
G0 F6000 X153.839 Y102.362
G1 F1200 X150.137 Y98.659 E249.71279
G0 F6000 X150.702 Y98.659
G1 F1200 X153.839 Y101.796 E249.86034
G0 F6000 X153.839 Y101.23
G1 F1200 X151.268 Y98.659 E249.98127
G0 F6000 X151.834 Y98.659
G1 F1200 X153.839 Y100.665 E250.0756
G0 F6000 X153.839 Y100.099
G1 F1200 X152.399 Y98.659 E250.14334
G0 F6000 X152.965 Y98.659
G1 F1200 X153.839 Y99.533 E250.18445
G0 F6000 X153.839 Y98.968
G1 F1200 X153.531 Y98.659 E250.19896
G1 F1500 E243.69896
;MESH:NONMESH
G0 F300 X153.531 Y98.659 Z0.4
G0 F6000 X153.531 Y98.2
G0 X80.772 Y98.272
G0 X80.6 Y136.9
;TIME_ELAPSED:396.584258
;LAYER:1
M106 S85
;TYPE:WALL-INNER
;MESH:santorini-box-minis.stl
G1 F1500 E250.19896
G1 F1350 X154.4 Y136.9 E252.65356
G1 X154.4 Y98.1 E253.94405
G1 X80.6 Y98.1 E256.39865
G1 X80.6 Y136.9 E257.68914
G0 F7500 X80.2 Y137.3
;TYPE:WALL-OUTER
G1 F1350 X154.8 Y137.3 E260.17035
G1 X154.8 Y97.7 E261.48745
G1 X80.2 Y97.7 E263.96866
G1 X80.2 Y137.3 E265.28576
G0 F7500 X80.47 Y137.03
G0 X80.7 Y136.54
G0 X80.96 Y136.54
;TYPE:SKIN
G1 F1350 X154.04 Y136.54 E267.71641
G1 X154.04 Y98.46 E268.98295
G1 X80.96 Y98.46 E271.4136
G1 X80.96 Y136.54 E272.68015
G1 F1500 E266.18015
G0 F7500 X80.7 Y136.54
G0 X80.7 Y98.728
G1 F1500 E272.68015
G0 F7500 X81.159 Y98.728
G1 F1350 X81.228 Y98.659 E272.6834
G0 F7500 X81.794 Y98.659
G1 F1350 X81.159 Y99.294 E272.71326
G0 F7500 X81.159 Y99.859
G1 F1350 X82.36 Y98.659 E272.76973
G0 F7500 X82.925 Y98.659
G1 F1350 X81.159 Y100.425 E272.8528
G0 F7500 X81.159 Y100.991
G1 F1350 X83.491 Y98.659 E272.96249
G0 F7500 X84.057 Y98.659
G1 F1350 X81.159 Y101.556 E273.09878
G0 F7500 X81.159 Y102.122
G1 F1350 X84.623 Y98.659 E273.26169
G0 F7500 X85.188 Y98.659
G1 F1350 X81.159 Y102.688 E273.4512
G0 F7500 X81.159 Y103.253
G1 F1350 X85.754 Y98.659 E273.66731
G0 F7500 X86.32 Y98.659
G1 F1350 X81.159 Y103.819 E273.91005
G0 F7500 X81.159 Y104.385
G1 F1350 X86.885 Y98.659 E274.17938
G0 F7500 X87.451 Y98.659
G1 F1350 X81.159 Y104.95 E274.47531
G0 F7500 X81.159 Y105.516
G1 F1350 X88.017 Y98.659 E274.79787
G0 F7500 X88.582 Y98.659
G1 F1350 X81.159 Y106.082 E275.14703
G0 F7500 X81.159 Y106.647
G1 F1350 X89.148 Y98.659 E275.52278
G0 F7500 X89.714 Y98.659
G1 F1350 X81.159 Y107.213 E275.92516
G0 F7500 X81.159 Y107.779
G1 F1350 X90.279 Y98.659 E276.35413
G0 F7500 X90.845 Y98.659
G1 F1350 X81.159 Y108.345 E276.80973
G0 F7500 X81.159 Y108.91
G1 F1350 X91.411 Y98.659 E277.29193
G0 F7500 X91.976 Y98.659
G1 F1350 X81.159 Y109.476 E277.80073
G0 F7500 X81.159 Y110.042
G1 F1350 X92.542 Y98.659 E278.33615
G0 F7500 X93.108 Y98.659
G1 F1350 X81.159 Y110.607 E278.89817
G0 F7500 X81.159 Y111.173
G1 F1350 X93.673 Y98.659 E279.48679
G0 F7500 X94.239 Y98.659
G1 F1350 X81.159 Y111.739 E280.10204
