;FLAVOR:Marlin
;TIME:5690
;Filament used: 4.03186m
;Layer height: 0.2
;MINX:95.7
;MINY:92.7
;MINZ:0.2
;MAXX:139.3
;MAXY:142.3
;MAXZ:35
;Generated with Cura_SteamEngine 5.2.1
M140 S60
M105
M190 S60
M104 S200
M105
M109 S200
M82 ;absolute extrusion mode
M201 X500.00 Y500.00 Z100.00 E5000.00 ;Setup machine max acceleration
M203 X500.00 Y500.00 Z10.00 E50.00 ;Setup machine max feedrate
M204 P500.00 R1000.00 T500.00 ;Setup Print/Retract/Travel acceleration
M205 X8.00 Y8.00 Z0.40 E5.00 ;Setup Jerk
M220 S100 ;Reset Feedrate
M221 S100 ;Reset Flowrate

G28 ;Home

G92 E0 ;Reset Extruder
G1 Z2.0 F3000 ;Move Z Axis up
G1 X10.1 Y20 Z0.28 F5000.0 ;Move to start position
G1 X10.1 Y200.0 Z0.28 F1500.0 E15 ;Draw the first line
G1 X10.4 Y200.0 Z0.28 F5000.0 ;Move to side a little
G1 X10.4 Y20 Z0.28 F1500.0 E30 ;Draw the second line
G92 E0 ;Reset Extruder
G1 Z2.0 F3000 ;Move Z Axis up

G92 E0
G92 E0
G1 F1500 E-6.5
;LAYER_COUNT:175
;LAYER:0
M107
;MESH:box-44-50-35.stl
G0 F6000 X96.1 Y141.9 Z0.2
;TYPE:WALL-INNER
G1 F1500 E0
G1 F1200 X138.9 Y141.9 E1.42353
G1 X138.9 Y93.1 E3.04663
G1 X96.1 Y93.1 E4.47016
G1 X96.1 Y141.9 E6.09326
G0 F6000 X95.7 Y142.3
;TYPE:WALL-OUTER
G1 F1200 X139.3 Y142.3 E7.5434
G1 X139.3 Y92.7 E9.1931
G1 X95.7 Y92.7 E10.64324
G1 X95.7 Y142.3 E12.29295
G0 F6000 X95.97 Y142.03
G0 X96.2 Y141.54
G0 X96.46 Y141.54
;TYPE:SKIN
G1 F1200 X138.54 Y141.54 E13.69253
G1 X138.54 Y93.46 E15.29168
G1 X96.46 Y93.46 E16.69127
G1 X96.46 Y141.54 E18.29041
G0 F6000 X97.215 Y141.339
G1 F1200 X96.659 Y140.782 E18.31659
G0 F6000 X96.659 Y140.217
G1 F1200 X97.781 Y141.339 E18.36936
G0 F6000 X98.347 Y141.339
G1 F1200 X96.659 Y139.651 E18.44876
G0 F6000 X96.659 Y139.085
G1 F1200 X98.912 Y141.339 E18.55476
G0 F6000 X99.478 Y141.339
G1 F1200 X96.659 Y138.52 E18.68736
G0 F6000 X96.659 Y137.954
G1 F1200 X100.044 Y141.339 E18.84658
G0 F6000 X100.609 Y141.339
G1 F1200 X96.659 Y137.388 E19.0324
G0 F6000 X96.659 Y136.823
G1 F1200 X101.175 Y141.339 E19.24482
G0 F6000 X101.741 Y141.339
G1 F1200 X96.659 Y136.257 E19.48386
G0 F6000 X96.659 Y135.691
G1 F1200 X102.307 Y141.339 E19.74952
G0 F6000 X102.872 Y141.339
G1 F1200 X96.659 Y135.125 E20.04179
G0 F6000 X96.659 Y134.56
G1 F1200 X103.438 Y141.339 E20.36065
G0 F6000 X104.004 Y141.339
G1 F1200 X96.659 Y133.994 E20.70614
G0 F6000 X96.659 Y133.428
G1 F1200 X104.569 Y141.339 E21.07822
G0 F6000 X105.135 Y141.339
G1 F1200 X96.659 Y132.863 E21.47691
G0 F6000 X96.659 Y132.297
G1 F1200 X105.701 Y141.339 E21.90222
G0 F6000 X106.266 Y141.339
G1 F1200 X96.659 Y131.731 E22.35412
G0 F6000 X96.659 Y131.166
G1 F1200 X106.832 Y141.339 E22.83263
G0 F6000 X107.398 Y141.339
G1 F1200 X96.659 Y130.6 E23.33776
G0 F6000 X96.659 Y130.034
G1 F1200 X107.963 Y141.339 E23.86949
G0 F6000 X108.529 Y141.339
G1 F1200 X96.659 Y129.469 E24.42782
G0 F6000 X96.659 Y128.903
G1 F1200 X109.095 Y141.339 E25.01277
G0 F6000 X109.66 Y141.339
G1 F1200 X96.659 Y128.337 E25.62432
G0 F6000 X96.659 Y127.772
G1 F1200 X110.226 Y141.339 E26.26247
G0 F6000 X110.792 Y141.339
G1 F1200 X96.659 Y127.206 E26.92724
G0 F6000 X96.659 Y126.64
G1 F1200 X111.358 Y141.339 E27.61864
G0 F6000 X111.923 Y141.339
G1 F1200 X96.659 Y126.075 E28.33661
G0 F6000 X96.659 Y125.509
G1 F1200 X112.489 Y141.339 E29.0812
G0 F6000 X113.055 Y141.339
G1 F1200 X96.659 Y124.943 E29.85242
G0 F6000 X96.659 Y124.377
G1 F1200 X113.62 Y141.339 E30.65024
G0 F6000 X114.186 Y141.339
G1 F1200 X96.659 Y123.812 E31.47465
G0 F6000 X96.659 Y123.246
G1 F1200 X114.752 Y141.339 E32.32569
G0 F6000 X115.317 Y141.339
G1 F1200 X96.659 Y122.68 E33.20333
G0 F6000 X96.659 Y122.115
G1 F1200 X115.883 Y141.339 E34.10757
G0 F6000 X116.449 Y141.339
G1 F1200 X96.659 Y121.549 E35.03843
G0 F6000 X96.659 Y120.983
G1 F1200 X117.014 Y141.339 E35.99589
G0 F6000 X117.58 Y141.339
G1 F1200 X96.659 Y120.418 E36.97995
G0 F6000 X96.659 Y119.852
G1 F1200 X118.146 Y141.339 E37.99063
G0 F6000 X118.711 Y141.339
G1 F1200 X96.659 Y119.286 E39.02792
G0 F6000 X96.659 Y118.721
G1 F1200 X119.277 Y141.339 E40.0918
G0 F6000 X119.843 Y141.339
G1 F1200 X96.659 Y118.155 E41.1823
G0 F6000 X96.659 Y117.589
G1 F1200 X120.408 Y141.339 E42.29941
G0 F6000 X120.974 Y141.339
G1 F1200 X96.659 Y117.024 E43.44311
G0 F6000 X96.659 Y116.458
G1 F1200 X121.54 Y141.339 E44.61343
G0 F6000 X122.106 Y141.339
G1 F1200 X96.659 Y115.892 E45.81038
G0 F6000 X96.659 Y115.326
G1 F1200 X122.671 Y141.339 E47.03393
G0 F6000 X123.237 Y141.339
G1 F1200 X96.659 Y114.761 E48.28408
G0 F6000 X96.659 Y114.195
G1 F1200 X123.803 Y141.339 E49.56085
G0 F6000 X124.368 Y141.339
G1 F1200 X96.659 Y113.629 E50.86422
G0 F6000 X96.659 Y113.064
G1 F1200 X124.934 Y141.339 E52.19419
G0 F6000 X125.5 Y141.339
G1 F1200 X96.659 Y112.498 E53.55078
G0 F6000 X96.659 Y111.932
G1 F1200 X126.065 Y141.339 E54.93397
G0 F6000 X126.631 Y141.339
G1 F1200 X96.659 Y111.367 E56.34376
G0 F6000 X96.659 Y110.801
G1 F1200 X127.197 Y141.339 E57.78018
G0 F6000 X127.762 Y141.339
G1 F1200 X96.659 Y110.235 E59.24319
G0 F6000 X96.659 Y109.67
G1 F1200 X128.328 Y141.339 E60.7328
G0 F6000 X128.894 Y141.339
G1 F1200 X96.659 Y109.104 E62.24904
G0 F6000 X96.659 Y108.538
G1 F1200 X129.459 Y141.339 E63.79187
G0 F6000 X130.025 Y141.339
G1 F1200 X96.659 Y107.973 E65.36131
G0 F6000 X96.659 Y107.407
G1 F1200 X130.591 Y141.339 E66.95737
G0 F6000 X131.156 Y141.339
G1 F1200 X96.659 Y106.841 E68.58002
G0 F6000 X96.659 Y106.276
G1 F1200 X131.722 Y141.339 E70.22928
G0 F6000 X132.288 Y141.339
G1 F1200 X96.659 Y105.71 E71.90516
G0 F6000 X96.659 Y105.144
G1 F1200 X132.854 Y141.339 E73.60766
G0 F6000 X133.419 Y141.339
G1 F1200 X96.659 Y104.578 E75.33676
G0 F6000 X96.659 Y104.013
G1 F1200 X133.985 Y141.339 E77.09246
G0 F6000 X134.551 Y141.339
G1 F1200 X96.659 Y103.447 E78.87478
G0 F6000 X96.659 Y102.881
G1 F1200 X135.116 Y141.339 E80.68371
G0 F6000 X135.682 Y141.339
G1 F1200 X96.659 Y102.316 E82.51923
G0 F6000 X96.659 Y101.75
G1 F1200 X136.248 Y141.339 E84.38137
G0 F6000 X136.813 Y141.339
G1 F1200 X96.659 Y101.184 E86.27012
G0 F6000 X96.659 Y100.619
G1 F1200 X137.379 Y141.339 E88.18546
G0 F6000 X137.945 Y141.339
G1 F1200 X96.659 Y100.053 E90.12743
G0 F6000 X96.659 Y99.487
G1 F1200 X138.339 Y141.168 E92.08795
G0 F6000 X138.339 Y140.602
G1 F1200 X96.659 Y98.922 E94.04845
G0 F6000 X96.659 Y98.356
G1 F1200 X138.339 Y140.036 E96.00895
G0 F6000 X138.339 Y139.471
G1 F1200 X96.659 Y97.79 E97.96947
G0 F6000 X96.659 Y97.225
G1 F1200 X138.339 Y138.905 E99.92997
G0 F6000 X138.339 Y138.339
G1 F1200 X96.659 Y96.659 E101.89047
G0 F6000 X96.659 Y96.093
G1 F1200 X138.339 Y137.774 E103.851
G0 F6000 X138.339 Y137.208
G1 F1200 X96.659 Y95.528 E105.8115
G0 F6000 X96.659 Y94.962
G1 F1200 X138.339 Y136.642 E107.772
G0 F6000 X138.339 Y136.077
G1 F1200 X96.659 Y94.396 E109.73252
G0 F6000 X96.659 Y93.83
G1 F1200 X138.339 Y135.511 E111.69304
G0 F6000 X138.339 Y134.945
G1 F1200 X97.053 Y93.659 E113.63501
G0 F6000 X97.619 Y93.659
G1 F1200 X138.339 Y134.379 E115.55035
G0 F6000 X138.339 Y133.814
G1 F1200 X98.185 Y93.659 E117.4391
G0 F6000 X98.75 Y93.659
G1 F1200 X138.339 Y133.248 E119.30124
G0 F6000 X138.339 Y132.682
G1 F1200 X99.316 Y93.659 E121.13676
G0 F6000 X99.882 Y93.659
G1 F1200 X138.339 Y132.117 E122.94569
G0 F6000 X138.339 Y131.551
G1 F1200 X100.448 Y93.659 E124.72799
G0 F6000 X101.013 Y93.659
G1 F1200 X138.339 Y130.985 E126.48369
G0 F6000 X138.339 Y130.42
G1 F1200 X101.579 Y93.659 E128.21279
G0 F6000 X102.145 Y93.659
G1 F1200 X138.339 Y129.854 E129.91527
G0 F6000 X138.339 Y129.288
G1 F1200 X102.71 Y93.659 E131.59115
G0 F6000 X103.276 Y93.659
G1 F1200 X138.339 Y128.723 E133.24043
G0 F6000 X138.339 Y128.157
G1 F1200 X103.842 Y93.659 E134.86308
G0 F6000 X104.407 Y93.659
G1 F1200 X138.339 Y127.591 E136.45914
G0 F6000 X138.339 Y127.026
G1 F1200 X104.973 Y93.659 E138.0286
G0 F6000 X105.539 Y93.659
G1 F1200 X138.339 Y126.46 E139.57143
G0 F6000 X138.339 Y125.894
G1 F1200 X106.104 Y93.659 E141.08767
G0 F6000 X106.67 Y93.659
G1 F1200 X138.339 Y125.329 E142.5773
G0 F6000 X138.339 Y124.763
G1 F1200 X107.236 Y93.659 E144.04032
G0 F6000 X107.801 Y93.659
G1 F1200 X138.339 Y124.197 E145.47673
G0 F6000 X138.339 Y123.631
G1 F1200 X108.367 Y93.659 E146.88652
G0 F6000 X108.933 Y93.659
G1 F1200 X138.339 Y123.066 E148.26971
G0 F6000 X138.339 Y122.5
G1 F1200 X109.499 Y93.659 E149.62628
G0 F6000 X110.064 Y93.659
G1 F1200 X138.339 Y121.934 E150.95625
G0 F6000 X138.339 Y121.369
G1 F1200 X110.63 Y93.659 E152.25962
G0 F6000 X111.196 Y93.659
G1 F1200 X138.339 Y120.803 E153.53637
G0 F6000 X138.339 Y120.237
G1 F1200 X111.761 Y93.659 E154.78652
G0 F6000 X112.327 Y93.659
G1 F1200 X138.339 Y119.672 E156.01006
G0 F6000 X138.339 Y119.106
G1 F1200 X112.893 Y93.659 E157.20699
G0 F6000 X113.458 Y93.659
G1 F1200 X138.339 Y118.54 E158.37732
G0 F6000 X138.339 Y117.975
G1 F1200 X114.024 Y93.659 E159.52104
G0 F6000 X114.59 Y93.659
G1 F1200 X138.339 Y117.409 E160.63815
G0 F6000 X138.339 Y116.843
G1 F1200 X115.155 Y93.659 E161.72865
G0 F6000 X115.721 Y93.659
G1 F1200 X138.339 Y116.278 E162.79256
G0 F6000 X138.339 Y115.712
G1 F1200 X116.287 Y93.659 E163.82984
G0 F6000 X116.852 Y93.659
G1 F1200 X138.339 Y115.146 E164.84052
G0 F6000 X138.339 Y114.58
G1 F1200 X117.418 Y93.659 E165.82458
G0 F6000 X117.984 Y93.659
G1 F1200 X138.339 Y114.015 E166.78204
G0 F6000 X138.339 Y113.449
G1 F1200 X118.549 Y93.659 E167.7129
G0 F6000 X119.115 Y93.659
G1 F1200 X138.339 Y112.883 E168.61714
G0 F6000 X138.339 Y112.318
G1 F1200 X119.681 Y93.659 E169.49478
G0 F6000 X120.247 Y93.659
G1 F1200 X138.339 Y111.752 E170.34579
G0 F6000 X138.339 Y111.186
G1 F1200 X120.812 Y93.659 E171.17021
G0 F6000 X121.378 Y93.659
G1 F1200 X138.339 Y110.621 E171.96803
G0 F6000 X138.339 Y110.055
G1 F1200 X121.944 Y93.659 E172.73922
G0 F6000 X122.509 Y93.659
G1 F1200 X138.339 Y109.489 E173.48382
G0 F6000 X138.339 Y108.924
G1 F1200 X123.075 Y93.659 E174.20181
G0 F6000 X123.641 Y93.659
G1 F1200 X138.339 Y108.358 E174.89318
G0 F6000 X138.339 Y107.792
G1 F1200 X124.206 Y93.659 E175.55796
G0 F6000 X124.772 Y93.659
G1 F1200 X138.339 Y107.227 E176.19613
G0 F6000 X138.339 Y106.661
G1 F1200 X125.338 Y93.659 E176.80768
G0 F6000 X125.903 Y93.659
G1 F1200 X138.339 Y106.095 E177.39263
G0 F6000 X138.339 Y105.53
G1 F1200 X126.469 Y93.659 E177.95098
G0 F6000 X127.035 Y93.659
G1 F1200 X138.339 Y104.964 E178.48271
G0 F6000 X138.339 Y104.398
G1 F1200 X127.6 Y93.659 E178.98784
G0 F6000 X128.166 Y93.659
G1 F1200 X138.339 Y103.832 E179.46635
G0 F6000 X138.339 Y103.267
G1 F1200 X128.732 Y93.659 E179.91826
G0 F6000 X129.298 Y93.659
G1 F1200 X138.339 Y102.701 E180.34354
G0 F6000 X138.339 Y102.135
G1 F1200 X129.863 Y93.659 E180.74223
G0 F6000 X130.429 Y93.659
G1 F1200 X138.339 Y101.57 E181.11431
G0 F6000 X138.339 Y101.004
G1 F1200 X130.995 Y93.659 E181.45977
G0 F6000 X131.56 Y93.659
G1 F1200 X138.339 Y100.438 E181.77864
G0 F6000 X138.339 Y99.873
G1 F1200 X132.126 Y93.659 E182.0709
G0 F6000 X132.692 Y93.659
G1 F1200 X138.339 Y99.307 E182.33654
G0 F6000 X138.339 Y98.741
G1 F1200 X133.257 Y93.659 E182.57558
G0 F6000 X133.823 Y93.659
G1 F1200 X138.339 Y98.176 E182.78803
G0 F6000 X138.339 Y97.61
G1 F1200 X134.389 Y93.659 E182.97385
G0 F6000 X134.954 Y93.659
G1 F1200 X138.339 Y97.044 E183.13307
G0 F6000 X138.339 Y96.479
G1 F1200 X135.52 Y93.659 E183.26569
G0 F6000 X136.086 Y93.659
G1 F1200 X138.339 Y95.913 E183.37168
G0 F6000 X138.339 Y95.347
G1 F1200 X136.651 Y93.659 E183.45108
G0 F6000 X137.217 Y93.659
G1 F1200 X138.339 Y94.782 E183.50388
G0 F6000 X138.339 Y94.216
G1 F1200 X137.783 Y93.659 E183.53006
G1 F1500 E177.03006
;MESH:NONMESH
G0 F300 X137.783 Y93.659 Z0.4
G0 F6000 X137.783 Y93.2
G0 X96.272 Y93.272
G0 X96.1 Y141.9
;TIME_ELAPSED:293.505100
;LAYER:1
M106 S85
;TYPE:WALL-INNER
;MESH:box-44-50-35.stl
G1 F1500 E183.53006
G1 F1350 X138.9 Y141.9 E184.95359
G1 X138.9 Y93.1 E186.57669
G1 X96.1 Y93.1 E188.00022
G1 X96.1 Y141.9 E189.62331
G0 F7500 X95.7 Y142.3
;TYPE:WALL-OUTER
G1 F1350 X139.3 Y142.3 E191.07346
G1 X139.3 Y92.7 E192.72316
G1 X95.7 Y92.7 E194.1733
G1 X95.7 Y142.3 E195.823
G0 F7500 X95.97 Y142.03
G0 X96.2 Y141.54
G0 X96.46 Y141.54
;TYPE:SKIN
G1 F1350 X138.54 Y141.54 E197.22259
G1 X138.54 Y93.46 E198.82174
G1 X96.46 Y93.46 E200.22132
G1 X96.46 Y141.54 E201.82047
G1 F1500 E195.32047
G0 F7500 X96.2 Y141.54
G0 X138.109 Y141.8
G1 F1500 E201.82047
G0 F7500 X138.109 Y141.339
G1 F1350 X138.339 Y141.109 E201.83129
G0 F7500 X138.339 Y140.543
G1 F1350 X137.543 Y141.339 E201.86873
G0 F7500 X136.977 Y141.339
G1 F1350 X138.339 Y139.978 E201.93277
G0 F7500 X138.339 Y139.412
G1 F1350 X136.412 Y141.339 E202.02341
G0 F7500 X135.846 Y141.339
G1 F1350 X138.339 Y138.846 E202.14067
G0 F7500 X138.339 Y138.281
G1 F1350 X135.28 Y141.339 E202.28454
G0 F7500 X134.715 Y141.339
G1 F1350 X138.339 Y137.715 E202.455
G0 F7500 X138.339 Y137.149
G1 F1350 X134.149 Y141.339 E202.65208
G0 F7500 X133.583 Y141.339
G1 F1350 X138.339 Y136.584 E202.87577
G0 F7500 X138.339 Y136.018
G1 F1350 X133.018 Y141.339 E203.12605
G0 F7500 X132.452 Y141.339
G1 F1350 X138.339 Y135.452 E203.40296
G0 F7500 X138.339 Y134.886
G1 F1350 X131.886 Y141.339 E203.70649
G0 F7500 X131.321 Y141.339
G1 F1350 X138.339 Y134.321 E204.03659
G0 F7500 X138.339 Y133.755
G1 F1350 X130.755 Y141.339 E204.39332
G0 F7500 X130.189 Y141.339
G1 F1350 X138.339 Y133.189 E204.77667
G0 F7500 X138.339 Y132.624
G1 F1350 X129.623 Y141.339 E205.18662
G0 F7500 X129.058 Y141.339
G1 F1350 X138.339 Y132.058 E205.62317
G0 F7500 X138.339 Y131.492
G1 F1350 X128.492 Y141.339 E206.08634
G0 F7500 X127.926 Y141.339
G1 F1350 X138.339 Y130.927 E206.57612
G0 F7500 X138.339 Y130.361
G1 F1350 X127.361 Y141.339 E207.09249
G0 F7500 X126.795 Y141.339
G1 F1350 X138.339 Y129.795 E207.63548
G0 F7500 X138.339 Y129.23
G1 F1350 X126.229 Y141.339 E208.20508
G0 F7500 X125.664 Y141.339
G1 F1350 X138.339 Y128.664 E208.80127
G0 F7500 X138.339 Y128.098
G1 F1350 X125.098 Y141.339 E209.42409
G0 F7500 X124.532 Y141.339
G1 F1350 X138.339 Y127.533 E210.0735
G0 F7500 X138.339 Y126.967
G1 F1350 X123.967 Y141.339 E210.74952
G0 F7500 X123.401 Y141.339
G1 F1350 X138.339 Y126.401 E211.45215
G0 F7500 X138.339 Y125.836
G1 F1350 X122.835 Y141.339 E212.18139
G0 F7500 X122.27 Y141.339
G1 F1350 X138.339 Y125.27 E212.93723
G0 F7500 X138.339 Y124.704
G1 F1350 X121.704 Y141.339 E213.71969
G0 F7500 X121.138 Y141.339
G1 F1350 X138.339 Y124.138 E214.52877
G0 F7500 X138.339 Y123.573
G1 F1350 X120.573 Y141.339 E215.36443
G0 F7500 X120.007 Y141.339
G1 F1350 X138.339 Y123.007 E216.22671
G0 F7500 X138.339 Y122.441
G1 F1350 X119.441 Y141.339 E217.11561
G0 F7500 X118.875 Y141.339
G1 F1350 X138.339 Y121.876 E218.03112
G0 F7500 X138.339 Y121.31
G1 F1350 X118.31 Y141.339 E218.97322
G0 F7500 X117.744 Y141.339
G1 F1350 X138.339 Y120.744 E219.94194
G0 F7500 X138.339 Y120.179
G1 F1350 X117.178 Y141.339 E220.93727
G0 F7500 X116.613 Y141.339
G1 F1350 X138.339 Y119.613 E221.95919
G0 F7500 X138.339 Y119.047
G1 F1350 X116.047 Y141.339 E223.00774
G0 F7500 X115.481 Y141.339
G1 F1350 X138.339 Y118.482 E224.08289
G0 F7500 X138.339 Y117.916
G1 F1350 X114.916 Y141.339 E225.18463
G0 F7500 X114.35 Y141.339
G1 F1350 X138.339 Y117.35 E226.313
G0 F7500 X138.339 Y116.785
G1 F1350 X113.784 Y141.339 E227.46797
G0 F7500 X113.219 Y141.339
G1 F1350 X138.339 Y116.219 E228.64954
G0 F7500 X138.339 Y115.653
G1 F1350 X112.653 Y141.339 E229.85773
G0 F7500 X112.087 Y141.339
G1 F1350 X138.339 Y115.087 E231.09254
G0 F7500 X138.339 Y114.522
G1 F1350 X111.522 Y141.339 E232.35393
G0 F7500 X110.956 Y141.339
G1 F1350 X138.339 Y113.956 E233.64194
G0 F7500 X138.339 Y113.39
G1 F1350 X110.39 Y141.339 E234.95658
G0 F7500 X109.824 Y141.339
G1 F1350 X138.339 Y112.825 E236.29781
G0 F7500 X138.339 Y112.259
G1 F1350 X109.259 Y141.339 E237.66565
G0 F7500 X108.693 Y141.339
G1 F1350 X138.339 Y111.693 E239.06011
G0 F7500 X138.339 Y111.128
G1 F1350 X108.127 Y141.339 E240.48116
G0 F7500 X107.562 Y141.339
G1 F1350 X138.339 Y110.562 E241.92882
G0 F7500 X138.339 Y109.996
G1 F1350 X106.996 Y141.339 E243.4031
G0 F7500 X106.43 Y141.339
G1 F1350 X138.339 Y109.431 E244.90397
G0 F7500 X138.339 Y108.865
G1 F1350 X105.865 Y141.339 E246.43145
G0 F7500 X105.299 Y141.339
G1 F1350 X138.339 Y108.299 E247.98555
G0 F7500 X138.339 Y107.734
G1 F1350 X104.733 Y141.339 E249.56625
