;FLAVOR:Marlin
;TIME:8014
;Filament used: 5.62549m
;Layer height: 0.2
;MINX:92.7
;MINY:92.7
;MINZ:0.2
;MAXX:142.3
;MAXY:142.3
;MAXZ:50
;Generated with Cura_SteamEngine 5.2.1
M140 S60
M105
M190 S60
M104 S200
M105
M109 S200
M82 ;absolute extrusion mode
M201 X500.00 Y500.00 Z100.00 E5000.00 ;Setup machine max acceleration
M203 X500.00 Y500.00 Z10.00 E50.00 ;Setup machine max feedrate
M204 P500.00 R1000.00 T500.00 ;Setup Print/Retract/Travel acceleration
M205 X8.00 Y8.00 Z0.40 E5.00 ;Setup Jerk
M220 S100 ;Reset Feedrate
M221 S100 ;Reset Flowrate

G28 ;Home

G92 E0 ;Reset Extruder
G1 Z2.0 F3000 ;Move Z Axis up
G1 X10.1 Y20 Z0.28 F5000.0 ;Move to start position
G1 X10.1 Y200.0 Z0.28 F1500.0 E15 ;Draw the first line
G1 X10.4 Y200.0 Z0.28 F5000.0 ;Move to side a little
G1 X10.4 Y20 Z0.28 F1500.0 E30 ;Draw the second line
G92 E0 ;Reset Extruder
G1 Z2.0 F3000 ;Move Z Axis up

G92 E0
G92 E0
G1 F1500 E-6.5
;LAYER_COUNT:250
;LAYER:0
M107
;MESH:box-50-50-50.stl
G0 F6000 X93.1 Y141.9 Z0.2
;TYPE:WALL-INNER
G1 F1500 E0
G1 F1200 X141.9 Y141.9 E1.62309
G1 X141.9 Y93.1 E3.24619
G1 X93.1 Y93.1 E4.86928
G1 X93.1 Y141.9 E6.49238
G0 F6000 X92.7 Y142.3
;TYPE:WALL-OUTER
G1 F1200 X142.3 Y142.3 E8.14208
G1 X142.3 Y92.7 E9.79178
G1 X92.7 Y92.7 E11.44149
G1 X92.7 Y142.3 E13.09119
G0 F6000 X92.97 Y142.03
G0 X93.2 Y141.54
G0 X93.46 Y141.54
;TYPE:SKIN
G1 F1200 X141.54 Y141.54 E14.69034
G1 X141.54 Y93.46 E16.28948
G1 X93.46 Y93.46 E17.88863
G1 X93.46 Y141.54 E19.48778
G0 F6000 X93.821 Y141.339
G1 F1200 X93.659 Y141.177 E19.4954
G0 F6000 X93.659 Y140.611
G1 F1200 X94.387 Y141.339 E19.52964
G0 F6000 X94.953 Y141.339
G1 F1200 X93.659 Y140.046 E19.59048
G0 F6000 X93.659 Y139.48
G1 F1200 X95.518 Y141.339 E19.67793
G0 F6000 X96.084 Y141.339
G1 F1200 X93.659 Y138.914 E19.79199
G0 F6000 X93.659 Y138.348
G1 F1200 X96.65 Y141.339 E19.93268
G0 F6000 X97.215 Y141.339
G1 F1200 X93.659 Y137.783 E20.09994
G0 F6000 X93.659 Y137.217
G1 F1200 X97.781 Y141.339 E20.29383
G0 F6000 X98.347 Y141.339
G1 F1200 X93.659 Y136.651 E20.51434
G0 F6000 X93.659 Y136.086
G1 F1200 X98.912 Y141.339 E20.76142
G0 F6000 X99.478 Y141.339
G1 F1200 X93.659 Y135.52 E21.03513
G0 F6000 X93.659 Y134.954
G1 F1200 X100.044 Y141.339 E21.33546
G0 F6000 X100.609 Y141.339
G1 F1200 X93.659 Y134.389 E21.66237
G0 F6000 X93.659 Y133.823
G1 F1200 X101.175 Y141.339 E22.0159
G0 F6000 X101.741 Y141.339
G1 F1200 X93.659 Y133.257 E22.39605
G0 F6000 X93.659 Y132.692
G1 F1200 X102.307 Y141.339 E22.8028
G0 F6000 X102.872 Y141.339
G1 F1200 X93.659 Y132.126 E23.23615
G0 F6000 X93.659 Y131.56
G1 F1200 X103.438 Y141.339 E23.69613
G0 F6000 X104.004 Y141.339
G1 F1200 X93.659 Y130.995 E24.1827
G0 F6000 X93.659 Y130.429
G1 F1200 X104.569 Y141.339 E24.69587
G0 F6000 X105.135 Y141.339
G1 F1200 X93.659 Y129.863 E25.23567
G0 F6000 X93.659 Y129.298
G1 F1200 X105.701 Y141.339 E25.80206
G0 F6000 X106.266 Y141.339
G1 F1200 X93.659 Y128.732 E26.39506
G0 F6000 X93.659 Y128.166
G1 F1200 X106.832 Y141.339 E27.01468
G0 F6000 X107.398 Y141.339
G1 F1200 X93.659 Y127.6 E27.66092
G0 F6000 X93.659 Y127.035
G1 F1200 X107.963 Y141.339 E28.33373
G0 F6000 X108.529 Y141.339
G1 F1200 X93.659 Y126.469 E29.03317
G0 F6000 X93.659 Y125.903
G1 F1200 X109.095 Y141.339 E29.75923
G0 F6000 X109.66 Y141.339
G1 F1200 X93.659 Y125.338 E30.51187
G0 F6000 X93.659 Y124.772
G1 F1200 X110.226 Y141.339 E31.29113
G0 F6000 X110.792 Y141.339
G1 F1200 X93.659 Y124.206 E32.09702
G0 F6000 X93.659 Y123.641
G1 F1200 X111.358 Y141.339 E32.9295
G0 F6000 X111.923 Y141.339
G1 F1200 X93.659 Y123.075 E33.78858
G0 F6000 X93.659 Y122.509
G1 F1200 X112.489 Y141.339 E34.67429
G0 F6000 X113.055 Y141.339
G1 F1200 X93.659 Y121.944 E35.58659
G0 F6000 X93.659 Y121.378
G1 F1200 X113.62 Y141.339 E36.5255
G0 F6000 X114.186 Y141.339
G1 F1200 X93.659 Y120.812 E37.49102
G0 F6000 X93.659 Y120.247
G1 F1200 X114.752 Y141.339 E38.48315
G0 F6000 X115.317 Y141.339
G1 F1200 X93.659 Y119.681 E39.50188
G0 F6000 X93.659 Y119.115
G1 F1200 X115.883 Y141.339 E40.54723
G0 F6000 X116.449 Y141.339
G1 F1200 X93.659 Y118.549 E41.6192
G0 F6000 X93.659 Y117.984
G1 F1200 X117.014 Y141.339 E42.71774
G0 F6000 X117.58 Y141.339
G1 F1200 X93.659 Y117.418 E43.84291
G0 F6000 X93.659 Y116.852
G1 F1200 X118.146 Y141.339 E44.99471
G0 F6000 X118.711 Y141.339
G1 F1200 X93.659 Y116.287 E46.17308
G0 F6000 X93.659 Y115.721
G1 F1200 X119.277 Y141.339 E47.37807
G0 F6000 X119.843 Y141.339
G1 F1200 X93.659 Y115.155 E48.60968
G0 F6000 X93.659 Y114.59
G1 F1200 X120.408 Y141.339 E49.86788
G0 F6000 X120.974 Y141.339
G1 F1200 X93.659 Y114.024 E51.15269
G0 F6000 X93.659 Y113.458
G1 F1200 X121.54 Y141.339 E52.46413
G0 F6000 X122.106 Y141.339
G1 F1200 X93.659 Y112.893 E53.80216
G0 F6000 X93.659 Y112.327
G1 F1200 X122.671 Y141.339 E55.1668
G0 F6000 X123.237 Y141.339
G1 F1200 X93.659 Y111.761 E56.55806
G0 F6000 X93.659 Y111.196
G1 F1200 X123.803 Y141.339 E57.97591
G0 F6000 X124.368 Y141.339
G1 F1200 X93.659 Y110.63 E59.42037
G0 F6000 X93.659 Y110.064
G1 F1200 X124.934 Y141.339 E60.89145
G0 F6000 X125.5 Y141.339
G1 F1200 X93.659 Y109.499 E62.38913
G0 F6000 X93.659 Y108.933
G1 F1200 X126.065 Y141.339 E63.91341
G0 F6000 X126.631 Y141.339
G1 F1200 X93.659 Y108.367 E65.46431
G0 F6000 X93.659 Y107.801
G1 F1200 X127.197 Y141.339 E67.04184
G0 F6000 X127.762 Y141.339
G1 F1200 X93.659 Y107.236 E68.64594
G0 F6000 X93.659 Y106.67
G1 F1200 X128.328 Y141.339 E70.27666
G0 F6000 X128.894 Y141.339
G1 F1200 X93.659 Y106.104 E71.93401
G0 F6000 X93.659 Y105.539
G1 F1200 X129.459 Y141.339 E73.61793
G0 F6000 X130.025 Y141.339
G1 F1200 X93.659 Y104.973 E75.32847
G0 F6000 X93.659 Y104.407
G1 F1200 X130.591 Y141.339 E77.06564
G0 F6000 X131.156 Y141.339
G1 F1200 X93.659 Y103.842 E78.82939
G0 F6000 X93.659 Y103.276
G1 F1200 X131.722 Y141.339 E80.61975
G0 F6000 X132.288 Y141.339
G1 F1200 X93.659 Y102.71 E82.43674
G0 F6000 X93.659 Y102.145
G1 F1200 X132.854 Y141.339 E84.28033
G0 F6000 X133.419 Y141.339
G1 F1200 X93.659 Y101.579 E86.15052
G0 F6000 X93.659 Y101.013
G1 F1200 X133.985 Y141.339 E88.04733
G0 F6000 X134.551 Y141.339
G1 F1200 X93.659 Y100.448 E89.97074
G0 F6000 X93.659 Y99.882
G1 F1200 X135.116 Y141.339 E91.92075
G0 F6000 X135.682 Y141.339
G1 F1200 X93.659 Y99.316 E93.89739
G0 F6000 X93.659 Y98.75
G1 F1200 X136.248 Y141.339 E95.90064
G0 F6000 X136.813 Y141.339
G1 F1200 X93.659 Y98.185 E97.93047
G0 F6000 X93.659 Y97.619
G1 F1200 X137.379 Y141.339 E99.98693
G0 F6000 X137.945 Y141.339
G1 F1200 X93.659 Y97.053 E102.07001
G0 F6000 X93.659 Y96.488
G1 F1200 X138.51 Y141.339 E104.17966
G0 F6000 X139.076 Y141.339
G1 F1200 X93.659 Y95.922 E106.31594
G0 F6000 X93.659 Y95.356
G1 F1200 X139.642 Y141.339 E108.47884
G0 F6000 X140.207 Y141.339
G1 F1200 X93.659 Y94.791 E110.66831
G0 F6000 X93.659 Y94.225
G1 F1200 X140.773 Y141.339 E112.88441
G0 F6000 X141.339 Y141.339
G1 F1200 X93.659 Y93.659 E115.12713
G0 F6000 X94.226 Y93.66
G1 F1200 X141.339 Y140.773 E117.34318
G0 F6000 X141.339 Y140.207
G1 F1200 X94.791 Y93.66 E119.53263
G0 F6000 X95.357 Y93.66
G1 F1200 X141.339 Y139.642 E121.69548
G0 F6000 X141.339 Y139.076
G1 F1200 X95.923 Y93.66 E123.83171
G0 F6000 X96.488 Y93.66
G1 F1200 X141.339 Y138.51 E125.94134
G0 F6000 X141.339 Y137.945
G1 F1200 X97.054 Y93.66 E128.02437
G0 F6000 X97.62 Y93.66
G1 F1200 X141.339 Y137.379 E130.08078
G0 F6000 X141.339 Y136.813
G1 F1200 X98.186 Y93.66 E132.11057
G0 F6000 X98.751 Y93.66
G1 F1200 X141.339 Y136.248 E134.11378
G0 F6000 X141.339 Y135.682
G1 F1200 X99.317 Y93.66 E136.09036
G0 F6000 X99.883 Y93.66
G1 F1200 X141.339 Y135.116 E138.04033
G0 F6000 X141.339 Y134.551
G1 F1200 X100.448 Y93.66 E139.96371
G0 F6000 X101.014 Y93.66
G1 F1200 X141.339 Y133.985 E141.86048
G0 F6000 X141.339 Y133.419
G1 F1200 X101.58 Y93.66 E143.73062
G0 F6000 X102.145 Y93.66
G1 F1200 X141.339 Y132.854 E145.57418
G0 F6000 X141.339 Y132.288
G1 F1200 X102.711 Y93.66 E147.39113
G0 F6000 X103.277 Y93.66
G1 F1200 X141.339 Y131.722 E149.18145
G0 F6000 X141.339 Y131.156
G1 F1200 X103.842 Y93.66 E150.94517
G0 F6000 X104.408 Y93.66
G1 F1200 X141.339 Y130.591 E152.68229
G0 F6000 X141.339 Y130.025
G1 F1200 X104.974 Y93.66 E154.39279
G0 F6000 X105.539 Y93.66
G1 F1200 X141.339 Y129.459 E156.07668
G0 F6000 X141.339 Y128.894
G1 F1200 X106.105 Y93.66 E157.73398
G0 F6000 X106.671 Y93.66
G1 F1200 X141.339 Y128.328 E159.36466
G0 F6000 X141.339 Y127.762
G1 F1200 X107.236 Y93.66 E160.96874
G0 F6000 X107.802 Y93.66
G1 F1200 X141.339 Y127.197 E162.54622
G0 F6000 X141.339 Y126.631
G1 F1200 X108.368 Y93.66 E164.09707
G0 F6000 X108.934 Y93.66
G1 F1200 X141.339 Y126.065 E165.6213
G0 F6000 X141.339 Y125.5
G1 F1200 X109.499 Y93.66 E167.11896
G0 F6000 X110.065 Y93.66
G1 F1200 X141.339 Y124.934 E168.58999
G0 F6000 X141.339 Y124.368
G1 F1200 X110.631 Y93.66 E170.0344
G0 F6000 X111.196 Y93.66
G1 F1200 X141.339 Y123.803 E171.45224
G0 F6000 X141.339 Y123.237
G1 F1200 X111.762 Y93.66 E172.84345
G0 F6000 X112.328 Y93.66
G1 F1200 X141.339 Y122.671 E174.20804
G0 F6000 X141.339 Y122.106
G1 F1200 X112.893 Y93.66 E175.54605
G0 F6000 X113.459 Y93.66
G1 F1200 X141.339 Y121.54 E176.85744
G0 F6000 X141.339 Y120.974
G1 F1200 X114.025 Y93.66 E178.1422
G0 F6000 X114.59 Y93.66
G1 F1200 X141.339 Y120.408 E179.40037
G0 F6000 X141.339 Y119.843
G1 F1200 X115.156 Y93.66 E180.63194
G0 F6000 X115.722 Y93.66
G1 F1200 X141.339 Y119.277 E181.83689
G0 F6000 X141.339 Y118.711
G1 F1200 X116.287 Y93.66 E183.01523
G0 F6000 X116.853 Y93.66
G1 F1200 X141.339 Y118.146 E184.16698
G0 F6000 X141.339 Y117.58
G1 F1200 X117.419 Y93.66 E185.2921
G0 F6000 X117.985 Y93.66
G1 F1200 X141.339 Y117.014 E186.3906
G0 F6000 X141.339 Y116.449
G1 F1200 X118.55 Y93.66 E187.46253
G0 F6000 X119.116 Y93.66
G1 F1200 X141.339 Y115.883 E188.50783
G0 F6000 X141.339 Y115.317
G1 F1200 X119.682 Y93.66 E189.52651
G0 F6000 X120.247 Y93.66
G1 F1200 X141.339 Y114.752 E190.51861
G0 F6000 X141.339 Y114.186
G1 F1200 X120.813 Y93.66 E191.48409
G0 F6000 X121.379 Y93.66
G1 F1200 X141.339 Y113.62 E192.42295
G0 F6000 X141.339 Y113.055
G1 F1200 X121.944 Y93.66 E193.33523
G0 F6000 X122.51 Y93.66
G1 F1200 X141.339 Y112.489 E194.22089
G0 F6000 X141.339 Y111.923
G1 F1200 X123.076 Y93.66 E195.07992
G0 F6000 X123.641 Y93.66
G1 F1200 X141.339 Y111.358 E195.91238
G0 F6000 X141.339 Y110.792
G1 F1200 X124.207 Y93.66 E196.71822
G0 F6000 X124.773 Y93.66
G1 F1200 X141.339 Y110.226 E197.49743
G0 F6000 X141.339 Y109.66
G1 F1200 X125.338 Y93.66 E198.25005
G0 F6000 X125.904 Y93.66
G1 F1200 X141.339 Y109.095 E198.97606
G0 F6000 X141.339 Y108.529
G1 F1200 X126.47 Y93.66 E199.67545
G0 F6000 X127.035 Y93.66
G1 F1200 X141.339 Y107.963 E200.34825
G0 F6000 X141.339 Y107.398
G1 F1200 X127.601 Y93.66 E200.99444
G0 F6000 X128.167 Y93.66
G1 F1200 X141.339 Y106.832 E201.61401
G0 F6000 X141.339 Y106.266
G1 F1200 X128.733 Y93.66 E202.20696
G0 F6000 X129.298 Y93.66
G1 F1200 X141.339 Y105.701 E202.77333
G0 F6000 X141.339 Y105.135
G1 F1200 X129.864 Y93.66 E203.31308
G0 F6000 X130.43 Y93.66
G1 F1200 X141.339 Y104.569 E203.8262
G0 F6000 X141.339 Y104.004
G1 F1200 X130.995 Y93.66 E204.31276
G0 F6000 X131.561 Y93.66
G1 F1200 X141.339 Y103.438 E204.77268
G0 F6000 X141.339 Y102.872
G1 F1200 X132.127 Y93.66 E205.20599
G0 F6000 X132.692 Y93.66
G1 F1200 X141.339 Y102.307 E205.61271
G0 F6000 X141.339 Y101.741
G1 F1200 X133.258 Y93.66 E205.99282
G0 F6000 X133.824 Y93.66
G1 F1200 X141.339 Y101.175 E206.3463
G0 F6000 X141.339 Y100.609
G1 F1200 X134.389 Y93.66 E206.67319
G0 F6000 X134.955 Y93.66
G1 F1200 X141.339 Y100.044 E206.97347
G0 F6000 X141.339 Y99.478
G1 F1200 X135.521 Y93.66 E207.24713
G0 F6000 X136.086 Y93.66
G1 F1200 X141.339 Y98.912 E207.49419
G0 F6000 X141.339 Y98.347
G1 F1200 X136.652 Y93.66 E207.71465
G0 F6000 X137.218 Y93.66
G1 F1200 X141.339 Y97.781 E207.90849
G0 F6000 X141.339 Y97.215
G1 F1200 X137.783 Y93.66 E208.07573
G0 F6000 X138.349 Y93.66
G1 F1200 X141.339 Y96.65 E208.21637
G0 F6000 X141.339 Y96.084
G1 F1200 X138.915 Y93.66 E208.33039
G0 F6000 X139.481 Y93.66
G1 F1200 X141.339 Y95.518 E208.41779
G0 F6000 X141.339 Y94.953
G1 F1200 X140.046 Y93.66 E208.4786
G0 F6000 X140.612 Y93.66
G1 F1200 X141.339 Y94.387 E208.5128
G0 F6000 X141.339 Y93.821
G1 F1200 X141.178 Y93.66 E208.52037
G1 F1500 E202.02037
;MESH:NONMESH
G0 F300 X141.178 Y93.66 Z0.4
G0 F6000 X141.178 Y93.2
G0 X93.272 Y93.272
G0 X93.1 Y141.9
;TIME_ELAPSED:331.948639
;LAYER:1
M106 S85
;TYPE:WALL-INNER
;MESH:box-50-50-50.stl
G1 F1500 E208.52037
G1 F1350 X141.9 Y141.9 E210.14347
G1 X141.9 Y93.1 E211.76656
G1 X93.1 Y93.1 E213.38966
G1 X93.1 Y141.9 E215.01275
G0 F7500 X92.7 Y142.3
;TYPE:WALL-OUTER
G1 F1350 X142.3 Y142.3 E216.66245
G1 X142.3 Y92.7 E218.31216
G1 X92.7 Y92.7 E219.96186
G1 X92.7 Y142.3 E221.61156
G0 F7500 X92.97 Y142.03
G0 X93.2 Y141.54
G0 X93.46 Y141.54
;TYPE:SKIN
G1 F1350 X141.54 Y141.54 E223.21071
G1 X141.54 Y93.46 E224.80986
G1 X93.46 Y93.46 E226.409
G1 X93.46 Y141.54 E228.00815
G1 F1500 E221.50815
G0 F7500 X93.2 Y141.54
G0 X93.272 Y93.272
G0 X94.147 Y93.2
G1 F1500 E228.00815
G0 F7500 X94.147 Y93.659
G1 F1350 X93.66 Y94.147 E228.03108
G0 F7500 X93.66 Y94.712
G1 F1350 X94.713 Y93.659 E228.08061
G0 F7500 X95.279 Y93.659
G1 F1350 X93.66 Y95.278 E228.15676
G0 F7500 X93.66 Y95.844
G1 F1350 X95.844 Y93.659 E228.25952
G0 F7500 X96.41 Y93.659
G1 F1350 X93.66 Y96.409 E228.38887
G0 F7500 X93.66 Y96.975
G1 F1350 X96.976 Y93.659 E228.54484
G0 F7500 X97.541 Y93.659
G1 F1350 X93.66 Y97.541 E228.72742
G0 F7500 X93.66 Y98.106
G1 F1350 X98.107 Y93.659 E228.93659
G0 F7500 X98.673 Y93.659
G1 F1350 X93.66 Y98.672 E229.17239
G0 F7500 X93.66 Y99.238
G1 F1350 X99.238 Y93.659 E229.43478
G0 F7500 X99.804 Y93.659
G1 F1350 X93.66 Y99.803 E229.72378
G0 F7500 X93.66 Y100.369
G1 F1350 X100.37 Y93.659 E230.03939
G0 F7500 X100.935 Y93.659
G1 F1350 X93.66 Y100.935 E230.38161
G0 F7500 X93.66 Y101.5
G1 F1350 X101.501 Y93.659 E230.75043
G0 F7500 X102.067 Y93.659
G1 F1350 X93.66 Y102.066 E231.14587
G0 F7500 X93.66 Y102.632
G1 F1350 X102.633 Y93.659 E231.56793
G0 F7500 X103.198 Y93.659
G1 F1350 X93.66 Y103.197 E232.01657
G0 F7500 X93.66 Y103.763
G1 F1350 X103.764 Y93.659 E232.49183
G0 F7500 X104.33 Y93.659
G1 F1350 X93.66 Y104.329 E232.99371
G0 F7500 X93.66 Y104.895
G1 F1350 X104.895 Y93.659 E233.5222
G0 F7500 X105.461 Y93.659
G1 F1350 X93.66 Y105.46 E234.07728
G0 F7500 X93.66 Y106.026
G1 F1350 X106.027 Y93.659 E234.65899
G0 F7500 X106.592 Y93.659
G1 F1350 X93.66 Y106.592 E235.26729
G0 F7500 X93.66 Y107.157
G1 F1350 X107.158 Y93.659 E235.9022
G0 F7500 X107.724 Y93.659
G1 F1350 X93.66 Y107.723 E236.56372
G0 F7500 X93.66 Y108.289
G1 F1350 X108.289 Y93.659 E237.25185
G0 F7500 X108.855 Y93.659
G1 F1350 X93.66 Y108.854 E237.96658
G0 F7500 X93.66 Y109.42
G1 F1350 X109.421 Y93.659 E238.70793
G0 F7500 X109.986 Y93.659
G1 F1350 X93.66 Y109.986 E239.47587
G0 F7500 X93.66 Y110.551
G1 F1350 X110.552 Y93.659 E240.27042
G0 F7500 X111.118 Y93.659
G1 F1350 X93.66 Y111.117 E241.09159
G0 F7500 X93.66 Y111.683
G1 F1350 X111.683 Y93.659 E241.93936
G0 F7500 X112.249 Y93.659
G1 F1350 X93.66 Y112.248 E242.81373
G0 F7500 X93.66 Y112.814
G1 F1350 X112.815 Y93.659 E243.71472
G0 F7500 X113.381 Y93.659
G1 F1350 X93.66 Y113.38 E244.64234
G0 F7500 X93.66 Y113.946
G1 F1350 X113.946 Y93.659 E245.59655
G0 F7500 X114.512 Y93.659
G1 F1350 X93.66 Y114.511 E246.57737
G0 F7500 X93.66 Y115.077
G1 F1350 X115.078 Y93.659 E247.58481
G0 F7500 X115.643 Y93.659
G1 F1350 X93.66 Y115.643 E248.61884
G0 F7500 X93.66 Y116.208
G1 F1350 X116.209 Y93.659 E249.67948
G0 F7500 X116.775 Y93.659
G1 F1350 X93.66 Y116.774 E250.76674
G0 F7500 X93.66 Y117.34
G1 F1350 X117.34 Y93.659 E251.8806
G0 F7500 X117.906 Y93.659
G1 F1350 X93.66 Y117.905 E253.02105
G0 F7500 X93.66 Y118.471
G1 F1350 X118.472 Y93.659 E254.18813
G0 F7500 X119.037 Y93.659
G1 F1350 X93.66 Y119.037 E255.38181
G0 F7500 X93.66 Y119.602
G1 F1350 X119.603 Y93.659 E256.60209
G0 F7500 X120.169 Y93.659
G1 F1350 X93.66 Y120.168 E257.84899
G0 F7500 X93.66 Y120.734
G1 F1350 X120.734 Y93.659 E259.1225
G0 F7500 X121.3 Y93.659
G1 F1350 X93.66 Y121.299 E260.4226
G0 F7500 X93.66 Y121.865
G1 F1350 X121.866 Y93.659 E261.74932
G0 F7500 X122.432 Y93.659
G1 F1350 X93.66 Y122.431 E263.10267
G0 F7500 X93.66 Y122.996
G1 F1350 X122.997 Y93.659 E264.48259
